web/samples/LUT-file.cube
LUT_3D_SIZE 6
0.000000 0.000000 0.000000
0.287935 0.000000 0.000000
0.493976 0.000000 0.000000
0.569664 0.000000 0.000000
0.521922 0.000000 0.000000
0.408659 0.000000 0.000000
0.000000 0.113118 0.000000
0.287935 0.113118 0.000000
0.493976 0.113118 0.000000
0.569664 0.113118 0.000000
0.521922 0.113118 0.000000
0.408659 0.113118 0.000000
0.000000 0.301977 0.000000
0.287935 0.301977 0.000000
0.493976 0.301977 0.000000
0.569664 0.301977 0.000000
0.521922 0.301977 0.000000
0.408659 0.301977 0.000000
0.000000 0.536312 0.000000
0.287935 0.536312 0.000000
0.493976 0.536312 0.000000
0.569664 0.536312 0.000000
0.521922 0.536312 0.000000
0.408659 0.536312 0.000000
0.000000 0.806166 0.000000
0.287935 0.806166 0.000000
0.493976 0.806166 0.000000
0.569664 0.806166 0.000000
0.521922 0.806166 0.000000
0.408659 0.806166 0.000000
0.000000 1.005837 0.000000
0.287935 1.005837 0.000000
0.493976 1.005837 0.000000
0.569664 1.005837 0.000000
0.521922 1.005837 0.000000
0.408659 1.005837 0.000000
0.000000 0.000000 0.361844
0.287935 0.000000 0.361844
0.493976 0.000000 0.361844
0.569664 0.000000 0.361844
0.521922 0.000000 0.361844
0.408659 0.000000 0.361844
0.000000 0.113118 0.361844
0.287935 0.113118 0.361844
0.493976 0.113118 0.361844
0.569664 0.113118 0.361844
0.521922 0.113118 0.361844
0.408659 0.113118 0.361844
0.000000 0.301977 0.361844
0.287935 0.301977 0.361844
0.493976 0.301977 0.361844
0.569664 0.301977 0.361844
0.521922 0.301977 0.361844
0.408659 0.301977 0.361844
0.000000 0.536312 0.361844
0.287935 0.536312 0.361844
0.493976 0.536312 0.361844
0.569664 0.536312 0.361844
0.521922 0.536312 0.361844
0.408659 0.536312 0.361844
0.000000 0.806166 0.361844
0.287935 0.806166 0.361844
0.493976 0.806166 0.361844
0.569664 0.806166 0.361844
0.521922 0.806166 0.361844
0.408659 0.806166 0.361844
0.000000 1.005837 0.361844
0.287935 1.005837 0.361844
0.493976 1.005837 0.361844
0.569664 1.005837 0.361844
0.521922 1.005837 0.361844
0.408659 1.005837 0.361844
0.000000 0.000000 0.632794
0.287935 0.000000 0.632794
0.493976 0.000000 0.632794
0.569664 0.000000 0.632794
0.521922 0.000000 0.632794
0.408659 0.000000 0.632794
0.000000 0.113118 0.632794
0.287935 0.113118 0.632794
0.493976 0.113118 0.632794
0.569664 0.113118 0.632794
0.521922 0.113118 0.632794
0.408659 0.113118 0.632794
0.000000 0.301977 0.632794
0.287935 0.301977 0.632794
0.493976 0.301977 0.632794
0.569664 0.301977 0.632794
0.521922 0.301977 0.632794
0.408659 0.301977 0.632794
0.000000 0.536312 0.632794
0.287935 0.536312 0.632794
0.493976 0.536312 0.632794
0.569664 0.536312 0.632794
0.521922 0.536312 0.632794
0.408659 0.536312 0.632794
0.000000 0.806166 0.632794
0.287935 0.806166 0.632794
0.493976 0.806166 0.632794
0.569664 0.806166 0.632794
0.521922 0.806166 0.632794
0.408659 0.806166 0.632794
0.000000 1.005837 0.632794
0.287935 1.005837 0.632794
0.493976 1.005837 0.632794
0.569664 1.005837 0.632794
0.521922 1.005837 0.632794
0.408659 1.005837 0.632794
0.000000 0.000000 0.790917
0.287935 0.000000 0.790917
0.493976 0.000000 0.790917
0.569664 0.000000 0.790917
0.521922 0.000000 0.790917
0.408659 0.000000 0.790917
0.000000 0.113118 0.790917
0.287935 0.113118 0.790917
0.493976 0.113118 0.790917
0.569664 0.113118 0.790917
0.521922 0.113118 0.790917
0.408659 0.113118 0.790917
0.000000 0.301977 0.790917
0.287935 0.301977 0.790917
0.493976 0.301977 0.790917
0.569664 0.301977 0.790917
0.521922 0.301977 0.790917
0.408659 0.301977 0.790917
0.000000 0.536312 0.790917
0.287935 0.536312 0.790917
0.493976 0.536312 0.790917
0.569664 0.536312 0.790917
0.521922 0.536312 0.790917
0.408659 0.536312 0.790917
0.000000 0.806166 0.790917
0.287935 0.806166 0.790917
0.493976 0.806166 0.790917
0.569664 0.806166 0.790917
0.521922 0.806166 0.790917
0.408659 0.806166 0.790917
0.000000 1.005837 0.790917
0.287935 1.005837 0.790917
0.493976 1.005837 0.790917
0.569664 1.005837 0.790917
0.521922 1.005837 0.790917
0.408659 1.005837 0.790917
0.000000 0.000000 0.930419
0.287935 0.000000 0.930419
0.493976 0.000000 0.930419
0.569664 0.000000 0.930419
0.521922 0.000000 0.930419
0.408659 0.000000 0.930419
0.000000 0.113118 0.930419
0.287935 0.113118 0.930419
0.493976 0.113118 0.930419
0.569664 0.113118 0.930419
0.521922 0.113118 0.930419
0.408659 0.113118 0.930419
0.000000 0.301977 0.930419
0.287935 0.301977 0.930419
0.493976 0.301977 0.930419
0.569664 0.301977 0.930419
0.521922 0.301977 0.930419
0.408659 0.301977 0.930419
0.000000 0.536312 0.930419
0.287935 0.536312 0.930419
0.493976 0.536312 0.930419
0.569664 0.536312 0.930419
0.521922 0.536312 0.930419
0.408659 0.536312 0.930419
0.000000 0.806166 0.930419
0.287935 0.806166 0.930419
0.493976 0.806166 0.930419
0.569664 0.806166 0.930419
0.521922 0.806166 0.930419
0.408659 0.806166 0.930419
0.000000 1.005837 0.930419
0.287935 1.005837 0.930419
0.493976 1.005837 0.930419
0.569664 1.005837 0.930419
0.521922 1.005837 0.930419
0.408659 1.005837 0.930419
0.000000 0.000000 1.053461
0.287935 0.000000 1.053461
0.493976 0.000000 1.053461
0.569664 0.000000 1.053461
0.521922 0.000000 1.053461
0.408659 0.000000 1.053461
0.000000 0.113118 1.053461
0.287935 0.113118 1.053461
0.493976 0.113118 1.053461
0.569664 0.113118 1.053461
0.521922 0.113118 1.053461
0.408659 0.113118 1.053461
0.000000 0.301977 1.053461
0.287935 0.301977 1.053461
0.493976 0.301977 1.053461
0.569664 0.301977 1.053461
0.521922 0.301977 1.053461
0.408659 0.301977 1.053461
0.000000 0.536312 1.053461
0.287935 0.536312 1.053461
0.493976 0.536312 1.053461
0.569664 0.536312 1.053461
0.521922 0.536312 1.053461
0.408659 0.536312 1.053461
0.000000 0.806166 1.053461
0.287935 0.806166 1.053461
0.493976 0.806166 1.053461
0.569664 0.806166 1.053461
0.521922 0.806166 1.053461
0.408659 0.806166 1.053461
0.000000 1.005837 1.053461
0.287935 1.005837 1.053461
0.493976 1.005837 1.053461
0.569664 1.005837 1.053461
0.521922 1.005837 1.053461
0.408659 1.005837 1.053461
