web/samples/LUT-file.cube
LUT_3D_SIZE 16
0.000000 0.000000 0.000000
0.101832 0.000000 0.000000
0.197933 0.000000 0.000000
0.287935 0.000000 0.000000
0.369770 0.000000 0.000000
0.438833 0.000000 0.000000
0.493976 0.000000 0.000000
0.534428 0.000000 0.000000
0.559564 0.000000 0.000000
0.569664 0.000000 0.000000
0.565501 0.000000 0.000000
0.548766 0.000000 0.000000
0.521922 0.000000 0.000000
0.487838 0.000000 0.000000
0.449324 0.000000 0.000000
0.408659 0.000000 0.000000
0.000000 0.023857 0.000000
0.101832 0.023857 0.000000
0.197933 0.023857 0.000000
0.287935 0.023857 0.000000
0.369770 0.023857 0.000000
0.438833 0.023857 0.000000
0.493976 0.023857 0.000000
0.534428 0.023857 0.000000
0.559564 0.023857 0.000000
0.569664 0.023857 0.000000
0.565501 0.023857 0.000000
0.548766 0.023857 0.000000
0.521922 0.023857 0.000000
0.487838 0.023857 0.000000
0.449324 0.023857 0.000000
0.408659 0.023857 0.000000
0.000000 0.063686 0.000000
0.101832 0.063686 0.000000
0.197933 0.063686 0.000000
0.287935 0.063686 0.000000
0.369770 0.063686 0.000000
0.438833 0.063686 0.000000
0.493976 0.063686 0.000000
0.534428 0.063686 0.000000
0.559564 0.063686 0.000000
0.569664 0.063686 0.000000
0.565501 0.063686 0.000000
0.548766 0.063686 0.000000
0.521922 0.063686 0.000000
0.487838 0.063686 0.000000
0.449324 0.063686 0.000000
0.408659 0.063686 0.000000
0.000000 0.113118 0.000000
0.101832 0.113118 0.000000
0.197933 0.113118 0.000000
0.287935 0.113118 0.000000
0.369770 0.113118 0.000000
0.438833 0.113118 0.000000
0.493976 0.113118 0.000000
0.534428 0.113118 0.000000
0.559564 0.113118 0.000000
0.569664 0.113118 0.000000
0.565501 0.113118 0.000000
0.548766 0.113118 0.000000
0.521922 0.113118 0.000000
0.487838 0.113118 0.000000
0.449324 0.113118 0.000000
0.408659 0.113118 0.000000
0.000000 0.170023 0.000000
0.101832 0.170023 0.000000
0.197933 0.170023 0.000000
0.287935 0.170023 0.000000
0.369770 0.170023 0.000000
0.438833 0.170023 0.000000
0.493976 0.170023 0.000000
0.534428 0.170023 0.000000
0.559564 0.170023 0.000000
0.569664 0.170023 0.000000
0.565501 0.170023 0.000000
0.548766 0.170023 0.000000
0.521922 0.170023 0.000000
0.487838 0.170023 0.000000
0.449324 0.170023 0.000000
0.408659 0.170023 0.000000
0.000000 0.233254 0.000000
0.101832 0.233254 0.000000
0.197933 0.233254 0.000000
0.287935 0.233254 0.000000
0.369770 0.233254 0.000000
0.438833 0.233254 0.000000
0.493976 0.233254 0.000000
0.534428 0.233254 0.000000
0.559564 0.233254 0.000000
0.569664 0.233254 0.000000
0.565501 0.233254 0.000000
0.548766 0.233254 0.000000
0.521922 0.233254 0.000000
0.487838 0.233254 0.000000
0.449324 0.233254 0.000000
0.408659 0.233254 0.000000
0.000000 0.301977 0.000000
0.101832 0.301977 0.000000
0.197933 0.301977 0.000000
0.287935 0.301977 0.000000
0.369770 0.301977 0.000000
0.438833 0.301977 0.000000
0.493976 0.301977 0.000000
0.534428 0.301977 0.000000
0.559564 0.301977 0.000000
0.569664 0.301977 0.000000
0.565501 0.301977 0.000000
0.548766 0.301977 0.000000
0.521922 0.301977 0.000000
0.487838 0.301977 0.000000
0.449324 0.301977 0.000000
0.408659 0.301977 0.000000
0.000000 0.375707 0.000000
0.101832 0.375707 0.000000
0.197933 0.375707 0.000000
0.287935 0.375707 0.000000
0.369770 0.375707 0.000000
0.438833 0.375707 0.000000
0.493976 0.375707 0.000000
0.534428 0.375707 0.000000
0.559564 0.375707 0.000000
0.569664 0.375707 0.000000
0.565501 0.375707 0.000000
0.548766 0.375707 0.000000
0.521922 0.375707 0.000000
0.487838 0.375707 0.000000
0.449324 0.375707 0.000000
0.408659 0.375707 0.000000
0.000000 0.453899 0.000000
0.101832 0.453899 0.000000
0.197933 0.453899 0.000000
0.287935 0.453899 0.000000
0.369770 0.453899 0.000000
0.438833 0.453899 0.000000
0.493976 0.453899 0.000000
0.534428 0.453899 0.000000
0.559564 0.453899 0.000000
0.569664 0.453899 0.000000
0.565501 0.453899 0.000000
0.548766 0.453899 0.000000
0.521922 0.453899 0.000000
0.487838 0.453899 0.000000
0.449324 0.453899 0.000000
0.408659 0.453899 0.000000
0.000000 0.536312 0.000000
0.101832 0.536312 0.000000
0.197933 0.536312 0.000000
0.287935 0.536312 0.000000
0.369770 0.536312 0.000000
0.438833 0.536312 0.000000
0.493976 0.536312 0.000000
0.534428 0.536312 0.000000
0.559564 0.536312 0.000000
0.569664 0.536312 0.000000
0.565501 0.536312 0.000000
0.548766 0.536312 0.000000
0.521922 0.536312 0.000000
0.487838 0.536312 0.000000
0.449324 0.536312 0.000000
0.408659 0.536312 0.000000
0.000000 0.622734 0.000000
0.101832 0.622734 0.000000
0.197933 0.622734 0.000000
0.287935 0.622734 0.000000
0.369770 0.622734 0.000000
0.438833 0.622734 0.000000
0.493976 0.622734 0.000000
0.534428 0.622734 0.000000
0.559564 0.622734 0.000000
0.569664 0.622734 0.000000
0.565501 0.622734 0.000000
0.548766 0.622734 0.000000
0.521922 0.622734 0.000000
0.487838 0.622734 0.000000
0.449324 0.622734 0.000000
0.408659 0.622734 0.000000
0.000000 0.712640 0.000000
0.101832 0.712640 0.000000
0.197933 0.712640 0.000000
0.287935 0.712640 0.000000
0.369770 0.712640 0.000000
0.438833 0.712640 0.000000
0.493976 0.712640 0.000000
0.534428 0.712640 0.000000
0.559564 0.712640 0.000000
0.569664 0.712640 0.000000
0.565501 0.712640 0.000000
0.548766 0.712640 0.000000
0.521922 0.712640 0.000000
0.487838 0.712640 0.000000
0.449324 0.712640 0.000000
0.408659 0.712640 0.000000
0.000000 0.806166 0.000000
0.101832 0.806166 0.000000
0.197933 0.806166 0.000000
0.287935 0.806166 0.000000
0.369770 0.806166 0.000000
0.438833 0.806166 0.000000
0.493976 0.806166 0.000000
0.534428 0.806166 0.000000
0.559564 0.806166 0.000000
0.569664 0.806166 0.000000
0.565501 0.806166 0.000000
0.548766 0.806166 0.000000
0.521922 0.806166 0.000000
0.487838 0.806166 0.000000
0.449324 0.806166 0.000000
0.408659 0.806166 0.000000
0.000000 0.902895 0.000000
0.101832 0.902895 0.000000
0.197933 0.902895 0.000000
0.287935 0.902895 0.000000
0.369770 0.902895 0.000000
0.438833 0.902895 0.000000
0.493976 0.902895 0.000000
0.534428 0.902895 0.000000
0.559564 0.902895 0.000000
0.569664 0.902895 0.000000
0.565501 0.902895 0.000000
0.548766 0.902895 0.000000
0.521922 0.902895 0.000000
0.487838 0.902895 0.000000
0.449324 0.902895 0.000000
0.408659 0.902895 0.000000
0.000000 0.970622 0.000000
0.101832 0.970622 0.000000
0.197933 0.970622 0.000000
0.287935 0.970622 0.000000
0.369770 0.970622 0.000000
0.438833 0.970622 0.000000
0.493976 0.970622 0.000000
0.534428 0.970622 0.000000
0.559564 0.970622 0.000000
0.569664 0.970622 0.000000
0.565501 0.970622 0.000000
0.548766 0.970622 0.000000
0.521922 0.970622 0.000000
0.487838 0.970622 0.000000
0.449324 0.970622 0.000000
0.408659 0.970622 0.000000
0.000000 1.005837 0.000000
0.101832 1.005837 0.000000
0.197933 1.005837 0.000000
0.287935 1.005837 0.000000
0.369770 1.005837 0.000000
0.438833 1.005837 0.000000
0.493976 1.005837 0.000000
0.534428 1.005837 0.000000
0.559564 1.005837 0.000000
0.569664 1.005837 0.000000
0.565501 1.005837 0.000000
0.548766 1.005837 0.000000
0.521922 1.005837 0.000000
0.487838 1.005837 0.000000
0.449324 1.005837 0.000000
0.408659 1.005837 0.000000
0.000000 0.000000 0.126380
0.101832 0.000000 0.126380
0.197933 0.000000 0.126380
0.287935 0.000000 0.126380
0.369770 0.000000 0.126380
0.438833 0.000000 0.126380
0.493976 0.000000 0.126380
0.534428 0.000000 0.126380
0.559564 0.000000 0.126380
0.569664 0.000000 0.126380
0.565501 0.000000 0.126380
0.548766 0.000000 0.126380
0.521922 0.000000 0.126380
0.487838 0.000000 0.126380
0.449324 0.000000 0.126380
0.408659 0.000000 0.126380
0.000000 0.023857 0.126380
0.101832 0.023857 0.126380
0.197933 0.023857 0.126380
0.287935 0.023857 0.126380
0.369770 0.023857 0.126380
0.438833 0.023857 0.126380
0.493976 0.023857 0.126380
0.534428 0.023857 0.126380
0.559564 0.023857 0.126380
0.569664 0.023857 0.126380
0.565501 0.023857 0.126380
0.548766 0.023857 0.126380
0.521922 0.023857 0.126380
0.487838 0.023857 0.126380
0.449324 0.023857 0.126380
0.408659 0.023857 0.126380
0.000000 0.063686 0.126380
0.101832 0.063686 0.126380
0.197933 0.063686 0.126380
0.287935 0.063686 0.126380
0.369770 0.063686 0.126380
0.438833 0.063686 0.126380
0.493976 0.063686 0.126380
0.534428 0.063686 0.126380
0.559564 0.063686 0.126380
0.569664 0.063686 0.126380
0.565501 0.063686 0.126380
0.548766 0.063686 0.126380
0.521922 0.063686 0.126380
0.487838 0.063686 0.126380
0.449324 0.063686 0.126380
0.408659 0.063686 0.126380
0.000000 0.113118 0.126380
0.101832 0.113118 0.126380
0.197933 0.113118 0.126380
0.287935 0.113118 0.126380
0.369770 0.113118 0.126380
0.438833 0.113118 0.126380
0.493976 0.113118 0.126380
0.534428 0.113118 0.126380
0.559564 0.113118 0.126380
0.569664 0.113118 0.126380
0.565501 0.113118 0.126380
0.548766 0.113118 0.126380
0.521922 0.113118 0.126380
0.487838 0.113118 0.126380
0.449324 0.113118 0.126380
0.408659 0.113118 0.126380
0.000000 0.170023 0.126380
0.101832 0.170023 0.126380
0.197933 0.170023 0.126380
0.287935 0.170023 0.126380
0.369770 0.170023 0.126380
0.438833 0.170023 0.126380
0.493976 0.170023 0.126380
0.534428 0.170023 0.126380
0.559564 0.170023 0.126380
0.569664 0.170023 0.126380
0.565501 0.170023 0.126380
0.548766 0.170023 0.126380
0.521922 0.170023 0.126380
0.487838 0.170023 0.126380
0.449324 0.170023 0.126380
0.408659 0.170023 0.126380
0.000000 0.233254 0.126380
0.101832 0.233254 0.126380
0.197933 0.233254 0.126380
0.287935 0.233254 0.126380
0.369770 0.233254 0.126380
0.438833 0.233254 0.126380
0.493976 0.233254 0.126380
0.534428 0.233254 0.126380
0.559564 0.233254 0.126380
0.569664 0.233254 0.126380
0.565501 0.233254 0.126380
0.548766 0.233254 0.126380
0.521922 0.233254 0.126380
0.487838 0.233254 0.126380
0.449324 0.233254 0.126380
0.408659 0.233254 0.126380
0.000000 0.301977 0.126380
0.101832 0.301977 0.126380
0.197933 0.301977 0.126380
0.287935 0.301977 0.126380
0.369770 0.301977 0.126380
0.438833 0.301977 0.126380
0.493976 0.301977 0.126380
0.534428 0.301977 0.126380
0.559564 0.301977 0.126380
0.569664 0.301977 0.126380
0.565501 0.301977 0.126380
0.548766 0.301977 0.126380
0.521922 0.301977 0.126380
0.487838 0.301977 0.126380
0.449324 0.301977 0.126380
0.408659 0.301977 0.126380
0.000000 0.375707 0.126380
0.101832 0.375707 0.126380
0.197933 0.375707 0.126380
0.287935 0.375707 0.126380
0.369770 0.375707 0.126380
0.438833 0.375707 0.126380
0.493976 0.375707 0.126380
0.534428 0.375707 0.126380
0.559564 0.375707 0.126380
0.569664 0.375707 0.126380
0.565501 0.375707 0.126380
0.548766 0.375707 0.126380
0.521922 0.375707 0.126380
0.487838 0.375707 0.126380
0.449324 0.375707 0.126380
0.408659 0.375707 0.126380
0.000000 0.453899 0.126380
0.101832 0.453899 0.126380
0.197933 0.453899 0.126380
0.287935 0.453899 0.126380
0.369770 0.453899 0.126380
0.438833 0.453899 0.126380
0.493976 0.453899 0.126380
0.534428 0.453899 0.126380
0.559564 0.453899 0.126380
0.569664 0.453899 0.126380
0.565501 0.453899 0.126380
0.548766 0.453899 0.126380
0.521922 0.453899 0.126380
0.487838 0.453899 0.126380
0.449324 0.453899 0.126380
0.408659 0.453899 0.126380
0.000000 0.536312 0.126380
0.101832 0.536312 0.126380
0.197933 0.536312 0.126380
0.287935 0.536312 0.126380
0.369770 0.536312 0.126380
0.438833 0.536312 0.126380
0.493976 0.536312 0.126380
0.534428 0.536312 0.126380
0.559564 0.536312 0.126380
0.569664 0.536312 0.126380
0.565501 0.536312 0.126380
0.548766 0.536312 0.126380
0.521922 0.536312 0.126380
0.487838 0.536312 0.126380
0.449324 0.536312 0.126380
0.408659 0.536312 0.126380
0.000000 0.622734 0.126380
0.101832 0.622734 0.126380
0.197933 0.622734 0.126380
0.287935 0.622734 0.126380
0.369770 0.622734 0.126380
0.438833 0.622734 0.126380
0.493976 0.622734 0.126380
0.534428 0.622734 0.126380
0.559564 0.622734 0.126380
0.569664 0.622734 0.126380
0.565501 0.622734 0.126380
0.548766 0.622734 0.126380
0.521922 0.622734 0.126380
0.487838 0.622734 0.126380
0.449324 0.622734 0.126380
0.408659 0.622734 0.126380
0.000000 0.712640 0.126380
0.101832 0.712640 0.126380
0.197933 0.712640 0.126380
0.287935 0.712640 0.126380
0.369770 0.712640 0.126380
0.438833 0.712640 0.126380
0.493976 0.712640 0.126380
0.534428 0.712640 0.126380
0.559564 0.712640 0.126380
0.569664 0.712640 0.126380
0.565501 0.712640 0.126380
0.548766 0.712640 0.126380
0.521922 0.712640 0.126380
0.487838 0.712640 0.126380
0.449324 0.712640 0.126380
0.408659 0.712640 0.126380
0.000000 0.806166 0.126380
0.101832 0.806166 0.126380
0.197933 0.806166 0.126380
0.287935 0.806166 0.126380
0.369770 0.806166 0.126380
0.438833 0.806166 0.126380
0.493976 0.806166 0.126380
0.534428 0.806166 0.126380
0.559564 0.806166 0.126380
0.569664 0.806166 0.126380
0.565501 0.806166 0.126380
0.548766 0.806166 0.126380
0.521922 0.806166 0.126380
0.487838 0.806166 0.126380
0.449324 0.806166 0.126380
0.408659 0.806166 0.126380
0.000000 0.902895 0.126380
0.101832 0.902895 0.126380
0.197933 0.902895 0.126380
0.287935 0.902895 0.126380
0.369770 0.902895 0.126380
0.438833 0.902895 0.126380
0.493976 0.902895 0.126380
0.534428 0.902895 0.126380
0.559564 0.902895 0.126380
0.569664 0.902895 0.126380
0.565501 0.902895 0.126380
0.548766 0.902895 0.126380
0.521922 0.902895 0.126380
0.487838 0.902895 0.126380
0.449324 0.902895 0.126380
0.408659 0.902895 0.126380
0.000000 0.970622 0.126380
0.101832 0.970622 0.126380
0.197933 0.970622 0.126380
0.287935 0.970622 0.126380
0.369770 0.970622 0.126380
0.438833 0.970622 0.126380
0.493976 0.970622 0.126380
0.534428 0.970622 0.126380
0.559564 0.970622 0.126380
0.569664 0.970622 0.126380
0.565501 0.970622 0.126380
0.548766 0.970622 0.126380
0.521922 0.970622 0.126380
0.487838 0.970622 0.126380
0.449324 0.970622 0.126380
0.408659 0.970622 0.126380
0.000000 1.005837 0.126380
0.101832 1.005837 0.126380
0.197933 1.005837 0.126380
0.287935 1.005837 0.126380
0.369770 1.005837 0.126380
0.438833 1.005837 0.126380
0.493976 1.005837 0.126380
0.534428 1.005837 0.126380
0.559564 1.005837 0.126380
0.569664 1.005837 0.126380
0.565501 1.005837 0.126380
0.548766 1.005837 0.126380
0.521922 1.005837 0.126380
0.487838 1.005837 0.126380
0.449324 1.005837 0.126380
0.408659 1.005837 0.126380
0.000000 0.000000 0.247080
0.101832 0.000000 0.247080
0.197933 0.000000 0.247080
0.287935 0.000000 0.247080
0.369770 0.000000 0.247080
0.438833 0.000000 0.247080
0.493976 0.000000 0.247080
0.534428 0.000000 0.247080
0.559564 0.000000 0.247080
0.569664 0.000000 0.247080
0.565501 0.000000 0.247080
0.548766 0.000000 0.247080
0.521922 0.000000 0.247080
0.487838 0.000000 0.247080
0.449324 0.000000 0.247080
0.408659 0.000000 0.247080
0.000000 0.023857 0.247080
0.101832 0.023857 0.247080
0.197933 0.023857 0.247080
0.287935 0.023857 0.247080
0.369770 0.023857 0.247080
0.438833 0.023857 0.247080
0.493976 0.023857 0.247080
0.534428 0.023857 0.247080
0.559564 0.023857 0.247080
0.569664 0.023857 0.247080
0.565501 0.023857 0.247080
0.548766 0.023857 0.247080
0.521922 0.023857 0.247080
0.487838 0.023857 0.247080
0.449324 0.023857 0.247080
0.408659 0.023857 0.247080
0.000000 0.063686 0.247080
0.101832 0.063686 0.247080
0.197933 0.063686 0.247080
0.287935 0.063686 0.247080
0.369770 0.063686 0.247080
0.438833 0.063686 0.247080
0.493976 0.063686 0.247080
0.534428 0.063686 0.247080
0.559564 0.063686 0.247080
0.569664 0.063686 0.247080
0.565501 0.063686 0.247080
0.548766 0.063686 0.247080
0.521922 0.063686 0.247080
0.487838 0.063686 0.247080
0.449324 0.063686 0.247080
0.408659 0.063686 0.247080
0.000000 0.113118 0.247080
0.101832 0.113118 0.247080
0.197933 0.113118 0.247080
0.287935 0.113118 0.247080
0.369770 0.113118 0.247080
0.438833 0.113118 0.247080
0.493976 0.113118 0.247080
0.534428 0.113118 0.247080
0.559564 0.113118 0.247080
0.569664 0.113118 0.247080
0.565501 0.113118 0.247080
0.548766 0.113118 0.247080
0.521922 0.113118 0.247080
0.487838 0.113118 0.247080
0.449324 0.113118 0.247080
0.408659 0.113118 0.247080
0.000000 0.170023 0.247080
0.101832 0.170023 0.247080
0.197933 0.170023 0.247080
0.287935 0.170023 0.247080
0.369770 0.170023 0.247080
0.438833 0.170023 0.247080
0.493976 0.170023 0.247080
0.534428 0.170023 0.247080
0.559564 0.170023 0.247080
0.569664 0.170023 0.247080
0.565501 0.170023 0.247080
0.548766 0.170023 0.247080
0.521922 0.170023 0.247080
0.487838 0.170023 0.247080
0.449324 0.170023 0.247080
0.408659 0.170023 0.247080
0.000000 0.233254 0.247080
0.101832 0.233254 0.247080
0.197933 0.233254 0.247080
0.287935 0.233254 0.247080
0.369770 0.233254 0.247080
0.438833 0.233254 0.247080
0.493976 0.233254 0.247080
0.534428 0.233254 0.247080
0.559564 0.233254 0.247080
0.569664 0.233254 0.247080
0.565501 0.233254 0.247080
0.548766 0.233254 0.247080
0.521922 0.233254 0.247080
0.487838 0.233254 0.247080
0.449324 0.233254 0.247080
0.408659 0.233254 0.247080
0.000000 0.301977 0.247080
0.101832 0.301977 0.247080
0.197933 0.301977 0.247080
0.287935 0.301977 0.247080
0.369770 0.301977 0.247080
0.438833 0.301977 0.247080
0.493976 0.301977 0.247080
0.534428 0.301977 0.247080
0.559564 0.301977 0.247080
0.569664 0.301977 0.247080
0.565501 0.301977 0.247080
0.548766 0.301977 0.247080
0.521922 0.301977 0.247080
0.487838 0.301977 0.247080
0.449324 0.301977 0.247080
0.408659 0.301977 0.247080
0.000000 0.375707 0.247080
0.101832 0.375707 0.247080
0.197933 0.375707 0.247080
0.287935 0.375707 0.247080
0.369770 0.375707 0.247080
0.438833 0.375707 0.247080
0.493976 0.375707 0.247080
0.534428 0.375707 0.247080
0.559564 0.375707 0.247080
0.569664 0.375707 0.247080
0.565501 0.375707 0.247080
0.548766 0.375707 0.247080
0.521922 0.375707 0.247080
0.487838 0.375707 0.247080
0.449324 0.375707 0.247080
0.408659 0.375707 0.247080
0.000000 0.453899 0.247080
0.101832 0.453899 0.247080
0.197933 0.453899 0.247080
0.287935 0.453899 0.247080
0.369770 0.453899 0.247080
0.438833 0.453899 0.247080
0.493976 0.453899 0.247080
0.534428 0.453899 0.247080
0.559564 0.453899 0.247080
0.569664 0.453899 0.247080
0.565501 0.453899 0.247080
0.548766 0.453899 0.247080
0.521922 0.453899 0.247080
0.487838 0.453899 0.247080
0.449324 0.453899 0.247080
0.408659 0.453899 0.247080
0.000000 0.536312 0.247080
0.101832 0.536312 0.247080
0.197933 0.536312 0.247080
0.287935 0.536312 0.247080
0.369770 0.536312 0.247080
0.438833 0.536312 0.247080
0.493976 0.536312 0.247080
0.534428 0.536312 0.247080
0.559564 0.536312 0.247080
0.569664 0.536312 0.247080
0.565501 0.536312 0.247080
0.548766 0.536312 0.247080
0.521922 0.536312 0.247080
0.487838 0.536312 0.247080
0.449324 0.536312 0.247080
0.408659 0.536312 0.247080
0.000000 0.622734 0.247080
0.101832 0.622734 0.247080
0.197933 0.622734 0.247080
0.287935 0.622734 0.247080
0.369770 0.622734 0.247080
0.438833 0.622734 0.247080
0.493976 0.622734 0.247080
0.534428 0.622734 0.247080
0.559564 0.622734 0.247080
0.569664 0.622734 0.247080
0.565501 0.622734 0.247080
0.548766 0.622734 0.247080
0.521922 0.622734 0.247080
0.487838 0.622734 0.247080
0.449324 0.622734 0.247080
0.408659 0.622734 0.247080
0.000000 0.712640 0.247080
0.101832 0.712640 0.247080
0.197933 0.712640 0.247080
0.287935 0.712640 0.247080
0.369770 0.712640 0.247080
0.438833 0.712640 0.247080
0.493976 0.712640 0.247080
0.534428 0.712640 0.247080
0.559564 0.712640 0.247080
0.569664 0.712640 0.247080
0.565501 0.712640 0.247080
0.548766 0.712640 0.247080
0.521922 0.712640 0.247080
0.487838 0.712640 0.247080
0.449324 0.712640 0.247080
0.408659 0.712640 0.247080
0.000000 0.806166 0.247080
0.101832 0.806166 0.247080
0.197933 0.806166 0.247080
0.287935 0.806166 0.247080
0.369770 0.806166 0.247080
0.438833 0.806166 0.247080
0.493976 0.806166 0.247080
0.534428 0.806166 0.247080
0.559564 0.806166 0.247080
0.569664 0.806166 0.247080
0.565501 0.806166 0.247080
0.548766 0.806166 0.247080
0.521922 0.806166 0.247080
0.487838 0.806166 0.247080
0.449324 0.806166 0.247080
0.408659 0.806166 0.247080
0.000000 0.902895 0.247080
0.101832 0.902895 0.247080
0.197933 0.902895 0.247080
0.287935 0.902895 0.247080
0.369770 0.902895 0.247080
0.438833 0.902895 0.247080
0.493976 0.902895 0.247080
0.534428 0.902895 0.247080
0.559564 0.902895 0.247080
0.569664 0.902895 0.247080
0.565501 0.902895 0.247080
0.548766 0.902895 0.247080
0.521922 0.902895 0.247080
0.487838 0.902895 0.247080
0.449324 0.902895 0.247080
0.408659 0.902895 0.247080
0.000000 0.970622 0.247080
0.101832 0.970622 0.247080
0.197933 0.970622 0.247080
0.287935 0.970622 0.247080
0.369770 0.970622 0.247080
0.438833 0.970622 0.247080
0.493976 0.970622 0.247080
0.534428 0.970622 0.247080
0.559564 0.970622 0.247080
0.569664 0.970622 0.247080
0.565501 0.970622 0.247080
0.548766 0.970622 0.247080
0.521922 0.970622 0.247080
0.487838 0.970622 0.247080
0.449324 0.970622 0.247080
0.408659 0.970622 0.247080
0.000000 1.005837 0.247080
0.101832 1.005837 0.247080
0.197933 1.005837 0.247080
0.287935 1.005837 0.247080
0.369770 1.005837 0.247080
0.438833 1.005837 0.247080
0.493976 1.005837 0.247080
0.534428 1.005837 0.247080
0.559564 1.005837 0.247080
0.569664 1.005837 0.247080
0.565501 1.005837 0.247080
0.548766 1.005837 0.247080
0.521922 1.005837 0.247080
0.487838 1.005837 0.247080
0.449324 1.005837 0.247080
0.408659 1.005837 0.247080
0.000000 0.000000 0.361844
0.101832 0.000000 0.361844
0.197933 0.000000 0.361844
0.287935 0.000000 0.361844
0.369770 0.000000 0.361844
0.438833 0.000000 0.361844
0.493976 0.000000 0.361844
0.534428 0.000000 0.361844
0.559564 0.000000 0.361844
0.569664 0.000000 0.361844
0.565501 0.000000 0.361844
0.548766 0.000000 0.361844
0.521922 0.000000 0.361844
0.487838 0.000000 0.361844
0.449324 0.000000 0.361844
0.408659 0.000000 0.361844
0.000000 0.023857 0.361844
0.101832 0.023857 0.361844
0.197933 0.023857 0.361844
0.287935 0.023857 0.361844
0.369770 0.023857 0.361844
0.438833 0.023857 0.361844
0.493976 0.023857 0.361844
0.534428 0.023857 0.361844
0.559564 0.023857 0.361844
0.569664 0.023857 0.361844
0.565501 0.023857 0.361844
0.548766 0.023857 0.361844
0.521922 0.023857 0.361844
0.487838 0.023857 0.361844
0.449324 0.023857 0.361844
0.408659 0.023857 0.361844
0.000000 0.063686 0.361844
0.101832 0.063686 0.361844
0.197933 0.063686 0.361844
0.287935 0.063686 0.361844
0.369770 0.063686 0.361844
0.438833 0.063686 0.361844
0.493976 0.063686 0.361844
0.534428 0.063686 0.361844
0.559564 0.063686 0.361844
0.569664 0.063686 0.361844
0.565501 0.063686 0.361844
0.548766 0.063686 0.361844
0.521922 0.063686 0.361844
0.487838 0.063686 0.361844
0.449324 0.063686 0.361844
0.408659 0.063686 0.361844
0.000000 0.113118 0.361844
0.101832 0.113118 0.361844
0.197933 0.113118 0.361844
0.287935 0.113118 0.361844
0.369770 0.113118 0.361844
0.438833 0.113118 0.361844
0.493976 0.113118 0.361844
0.534428 0.113118 0.361844
0.559564 0.113118 0.361844
0.569664 0.113118 0.361844
0.565501 0.113118 0.361844
0.548766 0.113118 0.361844
0.521922 0.113118 0.361844
0.487838 0.113118 0.361844
0.449324 0.113118 0.361844
0.408659 0.113118 0.361844
0.000000 0.170023 0.361844
0.101832 0.170023 0.361844
0.197933 0.170023 0.361844
0.287935 0.170023 0.361844
0.369770 0.170023 0.361844
0.438833 0.170023 0.361844
0.493976 0.170023 0.361844
0.534428 0.170023 0.361844
0.559564 0.170023 0.361844
0.569664 0.170023 0.361844
0.565501 0.170023 0.361844
0.548766 0.170023 0.361844
0.521922 0.170023 0.361844
0.487838 0.170023 0.361844
0.449324 0.170023 0.361844
0.408659 0.170023 0.361844
0.000000 0.233254 0.361844
0.101832 0.233254 0.361844
0.197933 0.233254 0.361844
0.287935 0.233254 0.361844
0.369770 0.233254 0.361844
0.438833 0.233254 0.361844
0.493976 0.233254 0.361844
0.534428 0.233254 0.361844
0.559564 0.233254 0.361844
0.569664 0.233254 0.361844
0.565501 0.233254 0.361844
0.548766 0.233254 0.361844
0.521922 0.233254 0.361844
0.487838 0.233254 0.361844
0.449324 0.233254 0.361844
0.408659 0.233254 0.361844
0.000000 0.301977 0.361844
0.101832 0.301977 0.361844
0.197933 0.301977 0.361844
0.287935 0.301977 0.361844
0.369770 0.301977 0.361844
0.438833 0.301977 0.361844
0.493976 0.301977 0.361844
0.534428 0.301977 0.361844
0.559564 0.301977 0.361844
0.569664 0.301977 0.361844
0.565501 0.301977 0.361844
0.548766 0.301977 0.361844
0.521922 0.301977 0.361844
0.487838 0.301977 0.361844
0.449324 0.301977 0.361844
0.408659 0.301977 0.361844
0.000000 0.375707 0.361844
0.101832 0.375707 0.361844
0.197933 0.375707 0.361844
0.287935 0.375707 0.361844
0.369770 0.375707 0.361844
0.438833 0.375707 0.361844
0.493976 0.375707 0.361844
0.534428 0.375707 0.361844
