(1001)
(T2 D=6. CR=0. - ZMIN=-29.5 - FLAT END MILL)
(T3 D=6. CR=3. - ZMIN=-30. - BALL END MILL)
(T4 D=4. CR=0. TAPER=45DEG - ZMIN=-30.5 - CHAMFER MILL)
G90 G94 G91.1 G40 G49 G17
G21
(-ATTENTION- PROPERTY SAFE RETRACTS IS SET TO CLEARANCE HEIGHT.)
(ENSURE THE CLEARANCE HEIGHT WILL CLEAR THE PART AND OR FIXTURES.)
(RAISE THE Z-AXIS TO A SAFE HEIGHT BEFORE STARTING THE PROGRAM.)

(FACE1)
T2 M6
S15000 M3
G17 G90 G94
G54
M8
G0 X1.093 Y-3.9
G43 Z15. H2
G0 Z5.
G1 Z0.6 F333.
G19 G3 Y-3.3 Z0. J0.6 K0. F5000.
G1 Y-3.01
Y88.01
G17 G2 X5.144 I2.025 J0.
G1 Y-3.01
G3 X9.194 I2.025 J0.
G1 Y88.01
G2 X13.245 I2.025 J0.
G1 Y-3.01
G3 X17.296 I2.025 J0.
G1 Y88.01
G2 X21.347 I2.025 J0.
G1 Y-3.01
G3 X25.397 I2.025 J0.
G1 Y88.01
G2 X29.448 I2.025 J0.
G1 Y-3.01
G3 X33.499 I2.025 J0.
G1 Y88.01
G2 X37.55 I2.025 J0.
G1 Y-3.01
G3 X41.6 I2.025 J0.
G1 Y88.01
G2 X45.651 I2.025 J0.
G1 Y-3.01
G3 X49.702 I2.025 J0.
G1 Y88.01
G2 X53.753 I2.025 J0.
G1 Y-3.01
G3 X57.803 I2.025 J0.
G1 Y88.01
G2 X61.854 I2.025 J0.
G1 Y-3.01
G3 X65.905 I2.025 J0.
G1 Y88.01
G2 X69.956 I2.025 J0.
G1 Y-3.01
G3 X74.006 I2.025 J0.
G1 Y88.01
G2 X78.057 I2.025 J0.
G1 Y-3.01
G3 X82.108 I2.025 J0.
G1 Y88.01
G19 G3 Y88.61 Z0.6 J0. K0.6
G0 Z15.
G17

(2D ADAPTIVE1)
G0 X39.546 Y42.127
Z15.
Z5.
Z2.5
G3 X43.939 Y39.894 Z2.297 I2.954 J0.373 F333.
X44.39 Y44.795 Z2.095 I-1.437 J2.604
X39.674 Y43.404 Z1.892 I-1.886 J-2.295
X42.707 Y39.542 Z1.689 I2.826 J-0.902
X45.171 Y43.782 Z1.486 I-0.206 J2.956
X40.326 Y44.503 Z1.284 I-2.667 J-1.283
X41.446 Y39.74 Z1.081 I2.176 J-2.002
X45.453 Y42.539 Z0.878 I1.054 J2.758
X41.376 Y45.224 Z0.676 I-2.949 J-0.04
X40.39 Y40.449 Z0.473 I1.126 J-2.722
X45.185 Y41.297 Z0.27 I2.11 J2.05
X42.628 Y45.434 Z0.068 I-2.682 J1.201
X39.733 Y41.533 Z-0.135 I-0.124 J-2.932
X44.422 Y40.286 Z-0.338 I2.767 J0.967
X43.847 Y45.098 Z-0.541 I-1.92 J2.211
X39.594 Y42.788 Z-0.743 I-1.343 J-2.598
X43.308 Y39.694 Z-0.946 I2.907 J-0.287
X44.808 Y44.284 Z-1.149 I-0.807 J2.804
X39.995 Y43.981 Z-1.351 I-2.304 J-1.784
X42.053 Y39.626 Z-1.554 I2.506 J-1.479
X45.335 Y43.144 Z-1.757 I0.447 J2.872
X40.858 Y44.89 Z-1.959 I-2.831 J-0.645
X40.891 Y40.091 Z-2.162 I1.644 J-2.389
X45.332 Y41.893 Z-2.365 I1.609 J2.408
X42.019 Y45.35 Z-2.568 I-2.829 J0.605
X40.035 Y40.999 Z-2.77 I0.483 J-2.848
X44.805 Y40.764 Z-2.973 I2.465 J1.5
X43.262 Y45.278 Z-3.176 I-2.303 J1.733
X39.643 Y42.179 Z-3.378 I-0.758 J-2.777
X43.855 Y39.965 Z-3.581 I2.857 J0.322
X44.355 Y44.691 Z-3.784 I-1.353 J2.532
X39.784 Y43.41 Z-3.986 I-1.85 J-2.191
X42.661 Y39.641 Z-4.189 I2.717 J-0.908
X45.096 Y43.703 Z-4.392 I-0.16 J2.856
X40.428 Y44.462 Z-4.595 I-2.591 J-1.203
X41.447 Y39.85 Z-4.797 I2.074 J-1.961
X45.35 Y42.498 Z-5. I1.054 J2.648
X39.65 I-2.85 J0.
X45.35 I2.85 J0.
G1 X45.354 Y42.738 F5000.
X45.531 Y43.679
X45.572 Y43.823
X45.596 Y43.971
X45.607 Y44.121
X45.604 Y44.271
X45.588 Y44.43
X45.557 Y44.598
X45.51 Y44.774
X45.445 Y44.955
X45.362 Y45.141
X45.258 Y45.329
X45.135 Y45.517
X44.99 Y45.702
X44.824 Y45.883
X44.637 Y46.056
X44.429 Y46.219
X44.202 Y46.37
X43.956 Y46.507
X43.692 Y46.626
X43.413 Y46.727
X43.12 Y46.806
X42.816 Y46.863
X42.501 Y46.896
X42.18 Y46.904
X41.855 Y46.885
X41.527 Y46.84
X41.2 Y46.768
X40.877 Y46.669
X40.559 Y46.543
X40.25 Y46.39
X39.952 Y46.212
X39.668 Y46.01
X39.399 Y45.783
X39.147 Y45.535
X38.916 Y45.266
X38.706 Y44.978
X38.519 Y44.673
X38.356 Y44.354
X38.22 Y44.021
X38.11 Y43.677
X38.028 Y43.325
X37.974 Y42.967
X37.95 Y42.606
X37.954 Y42.242
X37.988 Y41.88
X38.05 Y41.522
X38.141 Y41.169
X38.261 Y40.825
X38.407 Y40.491
X38.581 Y40.17
X38.779 Y39.863
X39.002 Y39.573
X39.247 Y39.302
X39.513 Y39.051
X39.799 Y38.823
X40.102 Y38.618
X40.42 Y38.438
X40.753 Y38.284
X41.096 Y38.157
X41.449 Y38.058
X41.808 Y37.988
X42.172 Y37.947
X42.538 Y37.935
X42.904 Y37.953
X43.268 Y38.
X43.626 Y38.076
X43.977 Y38.18
X44.319 Y38.313
X44.649 Y38.472
X44.965 Y38.658
X45.265 Y38.868
X45.548 Y39.101
X45.811 Y39.357
X46.052 Y39.633
X46.271 Y39.927
X46.501 Y40.295
X46.862 Y40.993
X47.118 Y41.601
X47.287 Y42.115
X47.399 Y42.58
X47.469 Y43.02
X47.501 Y43.447
X47.5 Y43.86
X47.466 Y44.262
X47.401 Y44.655
X47.305 Y45.038
X47.179 Y45.413
X47.022 Y45.776
X46.836 Y46.128
X46.621 Y46.467
X46.378 Y46.789
X46.106 Y47.095
X45.807 Y47.381
X45.483 Y47.645
X45.133 Y47.885
X44.76 Y48.1
X44.365 Y48.287
X43.951 Y48.444
X43.521 Y48.568
X43.076 Y48.659
X42.62 Y48.714
X42.156 Y48.733
X41.687 Y48.714
X41.217 Y48.657
X40.748 Y48.562
X40.286 Y48.428
X39.832 Y48.257
X39.391 Y48.048
X38.965 Y47.803
X38.557 Y47.523
X38.172 Y47.21
X37.811 Y46.864
X37.477 Y46.49
X37.174 Y46.088
X36.902 Y45.661
X36.665 Y45.213
X36.464 Y44.745
X36.301 Y44.262
X36.177 Y43.766
X36.093 Y43.261
X36.049 Y42.749
X36.047 Y42.235
X36.086 Y41.722
X36.166 Y41.213
X36.288 Y40.711
X36.449 Y40.22
X36.649 Y39.743
X36.887 Y39.283
X37.161 Y38.844
X37.47 Y38.428
X37.811 Y38.038
X38.183 Y37.676
X38.583 Y37.345
X39.008 Y37.048
X39.456 Y36.785
X39.923 Y36.559
X40.407 Y36.371
X40.905 Y36.223
X41.414 Y36.115
X41.929 Y36.048
X42.448 Y36.023
X42.968 Y36.039
X43.484 Y36.097
X43.995 Y36.197
X44.496 Y36.337
X44.983 Y36.517
X45.455 Y36.735
X45.908 Y36.991
X46.339 Y37.282
X46.756 Y37.615
X47.203 Y38.036
X47.631 Y38.509
X48.033 Y39.031
X48.397 Y39.593
X48.71 Y40.174
X48.969 Y40.764
X49.175 Y41.358
X49.329 Y41.952
X49.433 Y42.544
X49.488 Y43.133
X49.495 Y43.718
X49.456 Y44.295
X49.371 Y44.862
X49.242 Y45.418
X49.069 Y45.96
X48.853 Y46.486
X48.596 Y46.993
X48.298 Y47.479
X47.961 Y47.942
X47.585 Y48.378
X47.174 Y48.785
X46.727 Y49.161
X46.248 Y49.502
X45.74 Y49.806
X45.204 Y50.071
X44.644 Y50.293
X44.062 Y50.472
X43.464 Y50.604
X42.852 Y50.688
X42.231 Y50.724
X41.605 Y50.709
X40.978 Y50.644
X40.354 Y50.527
X39.737 Y50.36
X39.132 Y50.143
X38.544 Y49.876
X37.975 Y49.562
X37.431 Y49.201
X36.916 Y48.795
X36.432 Y48.348
X35.985 Y47.861
X35.576 Y47.338
X35.209 Y46.783
X34.887 Y46.197
X34.613 Y45.586
X34.387 Y44.954
X34.213 Y44.304
X34.092 Y43.641
X34.023 Y42.969
X34.009 Y42.293
X34.05 Y41.617
X34.144 Y40.945
X34.293 Y40.283
X34.494 Y39.633
X34.747 Y39.002
X35.05 Y38.393
X35.401 Y37.809
X35.798 Y37.255
X36.238 Y36.735
X36.719 Y36.251
X37.238 Y35.808
X37.79 Y35.407
X38.373 Y35.052
X38.983 Y34.745
X39.616 Y34.487
X40.267 Y34.281
X40.933 Y34.128
X41.61 Y34.029
X42.292 Y33.985
X42.975 Y33.995
X43.656 Y34.061
X44.329 Y34.18
X44.991 Y34.354
X45.636 Y34.58
X46.264 Y34.858
X46.887 Y35.196
X47.5 Y35.596
X48.097 Y36.057
X48.67 Y36.579
X49.208 Y37.153
X49.701 Y37.775
X50.144 Y38.434
X50.531 Y39.124
X50.86 Y39.839
X51.127 Y40.571
X51.333 Y41.316
X51.478 Y42.069
X51.561 Y42.825
X51.583 Y43.58
X51.544 Y44.329
X51.446 Y45.069
X51.29 Y45.797
X51.076 Y46.507
X50.806 Y47.198
X50.481 Y47.865
X50.104 Y48.504
X49.675 Y49.112
X49.197 Y49.686
X48.673 Y50.222
X48.105 Y50.717
X47.495 Y51.166
X46.848 Y51.568
X46.167 Y51.918
X45.455 Y52.214
X44.718 Y52.454
X43.959 Y52.635
X43.184 Y52.755
X42.397 Y52.812
X41.604 Y52.807
X40.81 Y52.737
X40.019 Y52.603
X39.238 Y52.405
X38.471 Y52.144
X37.725 Y51.821
X37.003 Y51.437
X36.312 Y50.994
X35.657 Y50.496
X35.041 Y49.945
X34.469 Y49.344
X33.946 Y48.697
X33.476 Y48.008
X33.061 Y47.282
X32.704 Y46.523
X32.41 Y45.737
X32.178 Y44.927
X32.013 Y44.101
X31.914 Y43.262
X31.882 Y42.416
X31.919 Y41.57
X32.023 Y40.729
X32.195 Y39.897
X32.433 Y39.082
X32.736 Y38.287
X33.102 Y37.519
X33.529 Y36.783
X34.014 Y36.082
X34.554 Y35.423
X35.145 Y34.808
X35.784 Y34.243
X36.467 Y33.731
X37.188 Y33.275
X37.944 Y32.878
X38.73 Y32.543
X39.54 Y32.273
X40.37 Y32.068
X41.213 Y31.93
X42.065 Y31.861
X42.919 Y31.86
X43.771 Y31.927
X44.616 Y32.063
X45.451 Y32.267
X46.274 Y32.54
X47.083 Y32.883
X47.872 Y33.295
X48.639 Y33.777
X49.379 Y34.33
X50.082 Y34.949
X50.74 Y35.63
X51.345 Y36.365
X51.89 Y37.149
X52.371 Y37.974
X52.783 Y38.832
X53.123 Y39.717
X53.389 Y40.623
X53.581 Y41.542
X53.699 Y42.469
X53.741 Y43.398
X53.709 Y44.323
X53.602 Y45.239
X53.424 Y46.142
X53.173 Y47.025
X52.853 Y47.885
X52.466 Y48.716
X52.012 Y49.514
X51.495 Y50.274
X50.917 Y50.992
X50.281 Y51.663
X49.592 Y52.284
X48.852 Y52.849
X48.065 Y53.355
X47.237 Y53.798
X46.372 Y54.175
X45.475 Y54.483
X44.552 Y54.719
X43.608 Y54.881
X42.655 Y54.967
X41.697 Y54.976
X40.742 Y54.909
X39.794 Y54.767
X38.862 Y54.551
X37.948 Y54.262
X37.061 Y53.903
X36.204 Y53.476
X35.382 Y52.983
X34.601 Y52.429
X33.865 Y51.816
X33.178 Y51.149
X32.544 Y50.431
X31.967 Y49.667
X31.449 Y48.861
X30.994 Y48.018
X30.604 Y47.144
X30.282 Y46.242
X30.03 Y45.318
X29.849 Y44.378
X29.74 Y43.426
X29.703 Y42.469
X29.738 Y41.512
X29.845 Y40.56
X30.023 Y39.619
X30.272 Y38.694
X30.588 Y37.79
X30.971 Y36.913
X31.419 Y36.066
X31.928 Y35.255
X32.496 Y34.484
X33.121 Y33.758
X33.797 Y33.08
X34.523 Y32.456
X35.295 Y31.888
X36.107 Y31.38
X36.954 Y30.934
X37.833 Y30.553
X38.737 Y30.239
X39.663 Y29.992
X40.604 Y29.816
X41.556 Y29.709
X42.513 Y29.674
X43.47 Y29.71
X44.422 Y29.816
X45.363 Y29.993
X46.289 Y30.239
X47.193 Y30.553
X48.072 Y30.933
X48.921 Y31.377
X49.736 Y31.88
X50.514 Y32.438
X51.252 Y33.049
X51.947 Y33.708
X52.594 Y34.414
X53.19 Y35.164
X53.732 Y35.953
X54.22 Y36.777
X54.65 Y37.633
X55.023 Y38.515
X55.335 Y39.42
X55.583 Y40.345
X55.765 Y41.285
X55.881 Y42.236
X55.931 Y43.192
X55.915 Y44.15
X55.833 Y45.104
X55.686 Y46.05
X55.473 Y46.984
X55.194 Y47.9
X54.85 Y48.794
X54.444 Y49.661
X53.978 Y50.498
X53.455 Y51.3
X52.877 Y52.064
X52.249 Y52.787
X51.572 Y53.464
X50.848 Y54.091
X50.082 Y54.666
X49.277 Y55.186
X48.439 Y55.649
X47.572 Y56.055
X46.679 Y56.401
X45.765 Y56.686
X44.832 Y56.906
X43.887 Y57.061
X42.934 Y57.151
X41.977 Y57.178
X41.02 Y57.142
X40.067 Y57.043
X39.123 Y56.879
X38.193 Y56.65
X37.281 Y56.36
X36.389 Y56.011
X35.522 Y55.605
X34.683 Y55.143
X33.875 Y54.628
X33.105 Y54.059
X32.374 Y53.44
X31.685 Y52.775
X31.04 Y52.067
X30.441 Y51.32
X29.891 Y50.536
X29.394 Y49.717
X28.952 Y48.868
X28.567 Y47.991
X28.239 Y47.091
X27.97 Y46.172
X27.759 Y45.238
X27.608 Y44.292
X27.52 Y43.338
X27.494 Y42.381
X27.531 Y41.424
X27.629 Y40.471
X27.786 Y39.527
X28.003 Y38.594
X28.277 Y37.676
X28.612 Y36.779
X29.004 Y35.905
X29.451 Y35.058
X29.95 Y34.241
X30.5 Y33.457
X31.097 Y32.708
X31.741 Y31.999
X32.431 Y31.335
X33.162 Y30.716
X33.932 Y30.146
X34.736 Y29.626
X35.571 Y29.158
X36.434 Y28.742
X37.322 Y28.382
X38.231 Y28.082
X39.158 Y27.841
X40.098 Y27.659
X41.048 Y27.536
X42.003 Y27.473
X42.961 Y27.469
X43.917 Y27.527
X44.867 Y27.647
X45.808 Y27.827
X46.735 Y28.067
X47.646 Y28.363
X48.536 Y28.716
X49.403 Y29.122
X50.244 Y29.582
X51.054 Y30.093
X51.831 Y30.652
X52.574 Y31.256
X53.279 Y31.904
X53.945 Y32.592
X54.57 Y33.318
X55.15 Y34.08
X55.682 Y34.876
X56.166 Y35.703
X56.601 Y36.556
X56.986 Y37.433
X57.318 Y38.331
X57.597 Y39.247
X57.822 Y40.179
X57.988 Y41.122
X58.097 Y42.073
X58.149 Y43.029
X58.144 Y43.987
X58.083 Y44.943
X57.966 Y45.893
X57.793 Y46.835
X57.562 Y47.765
X57.273 Y48.678
X56.929 Y49.572
X56.532 Y50.443
X56.084 Y51.289
X55.587 Y52.108
X55.043 Y52.896
X54.451 Y53.649
X53.815 Y54.365
X53.135 Y55.04
X52.417 Y55.673
X51.662 Y56.262
X50.874 Y56.806
X50.055 Y57.304
X49.209 Y57.751
X48.336 Y58.147
X47.442 Y58.489
X46.529 Y58.778
X45.6 Y59.013
X44.66 Y59.193
X43.711 Y59.319
X42.755 Y59.39
X41.798 Y59.404
X40.841 Y59.362
X39.889 Y59.263
X38.943 Y59.11
X38.008 Y58.902
X37.087 Y58.642
X36.181 Y58.33
X35.295 Y57.967
X34.432 Y57.553
X33.594 Y57.089
X32.784 Y56.578
X32.004 Y56.022
X31.257 Y55.423
X30.544 Y54.783
X29.868 Y54.105
X29.232 Y53.388
X28.638 Y52.637
X28.088 Y51.853
X27.583 Y51.039
X27.125 Y50.199
X26.714 Y49.334
X26.351 Y48.447
X26.039 Y47.542
X25.779 Y46.62
X25.571 Y45.685
X25.417 Y44.74
X25.317 Y43.788
X25.269 Y42.831
X25.274 Y41.873
X25.332 Y40.917
X25.443 Y39.966
X25.608 Y39.023
X25.825 Y38.09
X26.095 Y37.171
X26.415 Y36.268
X26.784 Y35.385
X27.201 Y34.523
X27.664 Y33.684
X28.174 Y32.874
X28.728 Y32.093
X29.326 Y31.344
X29.964 Y30.63
X30.641 Y29.953
X31.354 Y29.314
X32.102 Y28.715
X32.881 Y28.158
X33.691 Y27.647
X34.528 Y27.181
X35.389 Y26.763
X36.273 Y26.394
X37.175 Y26.074
X38.094 Y25.804
X39.026 Y25.584
X39.969 Y25.417
X40.92 Y25.302
X41.876 Y25.241
X42.834 Y25.233
X43.79 Y25.277
X44.743 Y25.375
X45.689 Y25.523
X46.626 Y25.723
X47.55 Y25.976
X48.458 Y26.278
X49.349 Y26.631
X50.219 Y27.031
X51.066 Y27.477
X51.889 Y27.967
X52.685 Y28.5
X53.452 Y29.073
X54.187 Y29.687
X54.888 Y30.34
X55.554 Y31.028
X56.183 Y31.75
X56.773 Y32.504
X57.324 Y33.288
X57.833 Y34.099
X58.301 Y34.935
X58.724 Y35.794
X59.101 Y36.674
X59.431 Y37.573
X59.714 Y38.488
X59.949 Y39.417
X60.134 Y40.356
X60.271 Y41.304
X60.359 Y42.258
X60.397 Y43.215
X60.384 Y44.172
X60.32 Y45.128
X60.206 Y46.079
X60.042 Y47.022
X59.828 Y47.956
X59.565 Y48.877
X59.255 Y49.783
X58.897 Y50.671
X58.492 Y51.539
X58.042 Y52.384
X57.548 Y53.204
X57.011 Y53.998
X56.433 Y54.762
X55.817 Y55.494
X55.162 Y56.193
X54.472 Y56.857
X53.747 Y57.483
X52.99 Y58.07
X52.204 Y58.617
X51.39 Y59.122
X50.551 Y59.584
X49.69 Y60.002
X48.808 Y60.375
X47.907 Y60.701
X46.991 Y60.98
X46.062 Y61.21
X45.121 Y61.393
X44.173 Y61.526
X43.219 Y61.612
X42.262 Y61.648
X41.304 Y61.635
X40.349 Y61.574
X39.397 Y61.464
X38.453 Y61.304
X37.518 Y61.097
X36.595 Y60.842
X35.686 Y60.541
X34.793 Y60.195
X33.918 Y59.805
X33.064 Y59.371
X32.233 Y58.895
X31.428 Y58.377
X30.65 Y57.818
X29.901 Y57.222
X29.182 Y56.589
X28.496 Y55.921
X27.844 Y55.22
X27.227 Y54.487
X26.647 Y53.725
X26.106 Y52.934
X25.606 Y52.117
X25.148 Y51.277
X24.732 Y50.414
X24.359 Y49.532
X24.03 Y48.633
X23.745 Y47.718
X23.506 Y46.791
X23.313 Y45.853
X23.168 Y44.906
X23.071 Y43.953
X23.021 Y42.997
X23.018 Y42.039
X23.062 Y41.082
X23.153 Y40.129
X23.29 Y39.181
X23.473 Y38.241
X23.702 Y37.311
X23.979 Y36.394
X24.3 Y35.492
X24.665 Y34.607
X25.073 Y33.74
X25.522 Y32.895
X26.012 Y32.072
X26.542 Y31.274
X27.11 Y30.503
X27.715 Y29.761
X28.358 Y29.051
X29.035 Y28.373
X29.744 Y27.729
X30.483 Y27.121
X31.252 Y26.549
X32.047 Y26.016
X32.868 Y25.522
X33.711 Y25.069
X34.577 Y24.659
X35.462 Y24.293
X36.363 Y23.97
X37.28 Y23.692
X38.208 Y23.458
X39.148 Y23.27
X40.095 Y23.128
X41.047 Y23.032
X42.004 Y22.982
X42.962 Y22.981
X43.918 Y23.028
X44.871 Y23.12
X45.819 Y23.259
X46.759 Y23.443
X47.689 Y23.673
X48.606 Y23.947
X49.51 Y24.265
X50.396 Y24.626
X51.265 Y25.031
X52.112 Y25.476
X52.938 Y25.962
X53.74 Y26.485
X54.517 Y27.045
X55.266 Y27.641
X55.987 Y28.272
X56.678 Y28.935
X57.337 Y29.63
X57.962 Y30.356
X58.552 Y31.11
X59.107 Y31.89
X59.625 Y32.696
X60.106 Y33.524
X60.548 Y34.373
X60.951 Y35.242
X61.313 Y36.129
X61.633 Y37.032
X61.91 Y37.948
X62.144 Y38.877
X62.334 Y39.816
X62.48 Y40.762
X62.583 Y41.714
X62.641 Y42.67
X62.655 Y43.628
X62.625 Y44.585
X62.55 Y45.54
X62.429 Y46.49
X62.263 Y47.433
X62.053 Y48.368
X61.799 Y49.291
X61.503 Y50.202
X61.165 Y51.098
X60.785 Y51.977
X60.365 Y52.838
X59.905 Y53.677
X59.405 Y54.494
X58.867 Y55.286
X58.292 Y56.052
X57.682 Y56.791
X57.039 Y57.5
X56.363 Y58.179
X55.656 Y58.825
X54.92 Y59.438
X54.157 Y60.016
X53.367 Y60.557
X52.552 Y61.061
X51.714 Y61.526
X50.857 Y61.951
X49.98 Y62.337
X49.087 Y62.682
X48.179 Y62.986
X47.257 Y63.248
X46.325 Y63.467
X45.383 Y63.642
X44.435 Y63.773
X43.481 Y63.861
X42.524 Y63.905
X41.567
X40.61 Y63.862
X39.656 Y63.776
X38.707 Y63.646
X37.765 Y63.474
X36.832 Y63.258
X35.91 Y63.
X35. Y62.7
X34.105 Y62.36
X33.226 Y61.979
X32.365 Y61.56
X31.524 Y61.103
X30.704 Y60.608
X29.907 Y60.077
X29.134 Y59.511
X28.388 Y58.91
X27.67 Y58.276
X26.982 Y57.611
X26.323 Y56.916
X25.696 Y56.192
X25.101 Y55.441
X24.54 Y54.665
X24.015 Y53.864
X23.525 Y53.041
X23.073 Y52.197
X22.66 Y51.333
X22.286 Y50.451
X21.951 Y49.554
X21.656 Y48.643
X21.401 Y47.72
X21.188 Y46.786
X21.016 Y45.844
X20.885 Y44.895
X20.798 Y43.942
X20.753 Y42.985
X20.751 Y42.027
X20.791 Y41.071
X20.873 Y40.116
X20.997 Y39.167
X21.163 Y38.223
X21.369 Y37.288
X21.617 Y36.363
X21.904 Y35.45
X22.233 Y34.55
X22.601 Y33.666
X23.008 Y32.799
X23.453 Y31.951
X23.934 Y31.123
X24.451 Y30.317
X25.003 Y29.534
X25.588 Y28.776
X26.206 Y28.044
X26.856 Y27.341
X27.537 Y26.668
X28.247 Y26.025
X28.985 Y25.415
X29.749 Y24.837
X30.538 Y24.294
X31.349 Y23.785
X32.182 Y23.312
X33.035 Y22.877
X33.906 Y22.479
X34.794 Y22.12
X35.697 Y21.801
X36.614 Y21.523
X37.541 Y21.285
X38.478 Y21.088
X39.423 Y20.931
X40.374 Y20.816
X41.329 Y20.743
X42.286 Y20.711
X43.244 Y20.721
X44.2 Y20.774
X45.153 Y20.869
X46.101 Y21.006
X47.042 Y21.185
X47.974 Y21.403
X48.896 Y21.662
X49.806 Y21.96
X50.703 Y22.297
X51.584 Y22.672
X52.448 Y23.085
X53.293 Y23.535
X54.119 Y24.021
X54.922 Y24.542
X55.703 Y25.097
X56.46 Y25.683
X57.192 Y26.301
X57.897 Y26.949
X58.574 Y27.626
X59.222 Y28.331
X59.841 Y29.063
X60.427 Y29.82
X60.981 Y30.601
X61.501 Y31.405
X61.988 Y32.23
X62.44 Y33.074
X62.856 Y33.937
X63.237 Y34.815
X63.581 Y35.709
X63.887 Y36.617
X64.154 Y37.536
X64.382 Y38.467
X64.57 Y39.406
X64.719 Y40.352
X64.828 Y41.303
X64.897 Y42.258
X64.927 Y43.216
X64.917 Y44.173
X64.866 Y45.13
X64.775 Y46.083
X64.644 Y47.032
X64.473 Y47.974
X64.261 Y48.908
X64.009 Y49.832
X63.719 Y50.745
X63.391 Y51.645
X63.026 Y52.53
X62.624 Y53.399
X62.186 Y54.251
X61.713 Y55.083
X61.204 Y55.895
X60.661 Y56.684
X60.085 Y57.449
X59.477 Y58.189
X58.839 Y58.902
X58.171 Y59.589
X57.475 Y60.247
X56.753 Y60.876
X56.004 Y61.473
X55.232 Y62.039
X54.436 Y62.572
X53.618 Y63.071
X52.78 Y63.534
X51.923 Y63.962
X51.05 Y64.354
X50.16 Y64.709
X49.257 Y65.027
X48.341 Y65.308
X47.415 Y65.551
X46.479 Y65.755
X45.536 Y65.921
X44.586 Y66.046
X43.633 Y66.131
X42.676 Y66.177
X41.718 Y66.183
X40.761 Y66.15
X39.806 Y66.078
X38.855 Y65.967
X37.909 Y65.818
X36.97 Y65.63
X36.039 Y65.403
X35.119 Y65.139
X34.21 Y64.836
X33.315 Y64.496
X32.434 Y64.12
X31.569 Y63.708
X30.722 Y63.262
X29.893 Y62.783
X29.084 Y62.27
X28.297 Y61.725
X27.532 Y61.149
X26.791 Y60.542
X26.076 Y59.905
X25.388 Y59.239
X24.727 Y58.546
X24.094 Y57.827
X23.491 Y57.083
X22.918 Y56.315
X22.376 Y55.526
X21.866 Y54.715
X21.389 Y53.885
X20.946 Y53.036
X20.538 Y52.169
X20.166 Y51.287
X19.83 Y50.39
X19.53 Y49.481
X19.266 Y48.56
X19.04 Y47.629
X18.85 Y46.691
X18.698 Y45.745
X18.584 Y44.794
X18.508 Y43.839
X18.471 Y42.882
X18.473 Y41.925
X18.514 Y40.968
X18.593 Y40.013
X18.709 Y39.063
X18.864 Y38.118
X19.055 Y37.179
X19.284 Y36.249
X19.549 Y35.329
X19.85 Y34.42
X20.188 Y33.524
X20.562 Y32.642
X20.971 Y31.776
X21.414 Y30.927
X21.891 Y30.097
X22.4 Y29.286
X22.941 Y28.495
X23.513 Y27.727
X24.115 Y26.982
X24.746 Y26.261
X25.405 Y25.567
X26.091 Y24.899
X26.804 Y24.26
X27.543 Y23.65
X28.305 Y23.07
X29.089 Y22.52
X29.895 Y22.002
X30.72 Y21.517
X31.564 Y21.064
X32.425 Y20.645
X33.302 Y20.26
X34.194 Y19.911
X35.099 Y19.598
X36.016 Y19.323
X36.944 Y19.084
X37.88 Y18.882
X38.823 Y18.717
X39.772 Y18.589
X40.726 Y18.499
X41.682 Y18.446
X42.64 Y18.431
X43.597 Y18.454
X44.553 Y18.515
X45.505 Y18.615
X46.453 Y18.753
X47.395 Y18.929
X48.328 Y19.141
X49.253 Y19.39
X50.168 Y19.674
X51.07 Y19.994
X51.96 Y20.348
X52.835 Y20.737
X53.695 Y21.16
X54.537 Y21.616
X55.36 Y22.105
X56.164 Y22.626
X56.947 Y23.177
X57.708 Y23.758
X58.447 Y24.368
X59.162 Y25.005
X59.852 Y25.669
X60.517 Y26.359
X61.154 Y27.073
X61.764 Y27.811
X62.346 Y28.573
X62.897 Y29.356
X63.417 Y30.16
X63.907 Y30.983
X64.365 Y31.824
X64.791 Y32.681
X65.185 Y33.555
X65.545 Y34.442
X65.872 Y35.342
X66.164 Y36.254
X66.421 Y37.177
X66.642 Y38.108
X66.827 Y39.048
X66.976 Y39.994
X67.088 Y40.945
X67.165 Y41.9
X67.205 Y42.857
X67.208 Y43.814
X67.176 Y44.772
X67.107 Y45.727
X67.002 Y46.679
X66.861 Y47.626
X66.682 Y48.567
X66.467 Y49.5
X66.216 Y50.424
X65.929 Y51.338
X65.608 Y52.24
X65.253 Y53.13
X64.864 Y54.005
X64.443 Y54.865
X63.989 Y55.708
X63.503 Y56.534
X62.986 Y57.34
X62.438 Y58.125
X61.859 Y58.888
X61.251 Y59.628
X60.616 Y60.345
X59.953 Y61.036
X59.265 Y61.703
X58.553 Y62.342
X57.816 Y62.955
X57.057 Y63.539
X56.277 Y64.093
X55.475 Y64.618
X54.654 Y65.111
X53.815 Y65.572
X52.958 Y66.
X52.086 Y66.395
X51.199 Y66.758
X50.3 Y67.086
X49.389 Y67.381
X48.467 Y67.642
X47.536 Y67.868
X46.598 Y68.058
X45.653 Y68.213
X44.703 Y68.332
X43.748 Y68.414
X42.792 Y68.46
X41.834 Y68.47
X40.877 Y68.444
X39.921 Y68.383
X38.968 Y68.286
X38.02 Y68.154
X37.077 Y67.987
X36.141 Y67.785
X35.213 Y67.548
X34.294 Y67.277
X33.387 Y66.97
X32.492 Y66.63
X31.61 Y66.257
X30.742 Y65.851
X29.89 Y65.413
X29.055 Y64.945
X28.237 Y64.446
X27.438 Y63.918
X26.66 Y63.361
X25.902 Y62.775
X25.166 Y62.162
X24.454 Y61.521
X23.767 Y60.854
X23.105 Y60.162
X22.469 Y59.447
X21.859 Y58.708
X21.276 Y57.948
X20.722 Y57.167
X20.196 Y56.366
X19.7 Y55.547
X19.235 Y54.71
X18.8 Y53.857
X18.397 Y52.988
X18.028 Y52.105
X17.691 Y51.208
X17.388 Y50.3
X17.118 Y49.381
X16.881 Y48.453
X16.678 Y47.517
X16.51 Y46.574
X16.375 Y45.626
X16.275 Y44.673
X16.21 Y43.718
X16.18 Y42.761
X16.186 Y41.803
X16.228 Y40.846
X16.304 Y39.892
X16.416 Y38.94
X16.561 Y37.994
X16.741 Y37.053
X16.954 Y36.12
X17.201 Y35.194
X17.481 Y34.278
X17.795 Y33.373
X18.14 Y32.48
X18.519 Y31.601
X18.931 Y30.736
X19.374 Y29.887
X19.847 Y29.054
X20.35 Y28.24
X20.883 Y27.443
X21.444 Y26.667
X22.032 Y25.911
X22.647 Y25.177
X23.288 Y24.466
X23.955 Y23.778
X24.646 Y23.116
X25.362 Y22.48
X26.101 Y21.871
X26.862 Y21.289
X27.643 Y20.735
X28.444 Y20.21
X29.263 Y19.713
X30.1 Y19.247
X30.952 Y18.811
X31.82 Y18.406
X32.702 Y18.033
X33.597 Y17.692
X34.504 Y17.385
X35.422 Y17.111
X36.349 Y16.871
X37.285 Y16.666
X38.227 Y16.494
X39.174 Y16.356
X40.126 Y16.252
X41.082 Y16.182
X42.039 Y16.146
X42.996 Y16.145
X43.953 Y16.179
X44.909 Y16.248
X45.861 Y16.352
X46.808 Y16.491
X47.75 Y16.664
X48.685 Y16.871
X49.612 Y17.111
X50.53 Y17.384
X51.438 Y17.69
X52.334 Y18.027
X53.218 Y18.396
X54.088 Y18.796
X54.944 Y19.227
X55.783 Y19.688
X56.605 Y20.179
X57.409 Y20.7
X58.193 Y21.249
X58.958 Y21.825
X59.703 Y22.428
X60.426 Y23.056
X61.127 Y23.708
X61.804 Y24.385
X62.458 Y25.085
X63.087 Y25.807
X63.691 Y26.55
X64.268 Y27.315
X64.816 Y28.1
X65.337 Y28.903
X65.83 Y29.725
X66.293 Y30.563
X66.728 Y31.416
X67.132 Y32.284
X67.507 Y33.166
X67.851 Y34.06
X68.163 Y34.965
X68.444 Y35.88
X68.693 Y36.805
X68.909 Y37.738
X69.091 Y38.679
X69.24 Y39.625
X69.356 Y40.575
X69.439 Y41.529
X69.488 Y42.486
X69.504 Y43.443
X69.487 Y44.401
X69.437 Y45.357
X69.354 Y46.311
X69.237 Y47.262
X69.087 Y48.208
X68.903 Y49.148
X68.686 Y50.08
X68.435 Y51.005
X68.152 Y51.92
X67.837 Y52.824
X67.491 Y53.717
X67.114 Y54.598
X66.707 Y55.464
X66.27 Y56.317
X65.804 Y57.153
X65.308 Y57.973
X64.784 Y58.774
X64.232 Y59.556
X63.652 Y60.318
X63.045 Y61.059
X62.412 Y61.778
X61.755 Y62.475
X61.074 Y63.148
X60.37 Y63.798
X59.644 Y64.422
X58.897 Y65.022
X58.13 Y65.595
X57.343 Y66.141
X56.537 Y66.659
X55.714 Y67.148
X54.874 Y67.607
X54.017 Y68.036
X53.147 Y68.435
X52.263 Y68.804
X51.367 Y69.142
X50.46 Y69.45
X49.543 Y69.726
X48.617 Y69.97
X47.683 Y70.183
X46.743 Y70.363
X45.796 Y70.511
X44.846 Y70.625
X43.891 Y70.705
X42.935 Y70.752
X41.977 Y70.766
X41.02 Y70.747
X40.063 Y70.695
X39.109 Y70.611
X38.159 Y70.494
X37.213 Y70.346
X36.272 Y70.165
X35.338 Y69.953
X34.412 Y69.709
X33.495 Y69.432
X32.589 Y69.123
X31.693 Y68.783
X30.81 Y68.413
X29.94 Y68.013
X29.084 Y67.584
X28.243 Y67.126
X27.417 Y66.64
X26.609 Y66.127
X25.818 Y65.587
X25.046 Y65.02
X24.293 Y64.428
X23.561 Y63.81
X22.852 Y63.167
X22.165 Y62.5
X21.501 Y61.81
X20.86 Y61.098
X20.244 Y60.365
X19.653 Y59.611
X19.087 Y58.839
X18.548 Y58.047
X18.035 Y57.239
X17.549 Y56.413
X17.092 Y55.572
X16.663 Y54.715
X16.264 Y53.845
X15.896 Y52.961
X15.558 Y52.065
X15.25 Y51.158
X14.973 Y50.241
X14.727 Y49.315
X14.511 Y48.382
X14.327 Y47.442
X14.174 Y46.497
X14.053 Y45.547
X13.963 Y44.594
X13.906 Y43.638
X13.881 Y42.68
X13.89 Y41.722
X13.931 Y40.766
X14.004 Y39.811
X14.109 Y38.859
X14.246 Y37.911
X14.414 Y36.968
X14.614 Y36.031
X14.844 Y35.102
X15.104 Y34.18
X15.396 Y33.268
X15.717 Y32.366
X16.069 Y31.475
X16.451 Y30.597
X16.863 Y29.733
X17.304 Y28.882
X17.774 Y28.048
X18.27 Y27.229
X18.794 Y26.427
X19.344 Y25.643
X19.92 Y24.878
X20.52 Y24.131
X21.145 Y23.406
X21.794 Y22.701
X22.466 Y22.019
X23.161 Y21.36
X23.878 Y20.725
X24.616 Y20.115
X25.375 Y19.531
X26.153 Y18.972
X26.948 Y18.439
X27.761 Y17.932
X28.59 Y17.453
X29.435 Y17.002
X30.294 Y16.578
X31.166 Y16.184
X32.052 Y15.818
X32.949 Y15.483
X33.857 Y15.179
X34.775 Y14.906
X35.702 Y14.664
X36.636 Y14.453
X37.576 Y14.273
X38.523 Y14.125
X39.473 Y14.007
X40.427 Y13.922
X41.383 Y13.867
X42.34 Y13.844
X43.298 Y13.853
X44.255 Y13.894
X45.21 Y13.967
X46.162 Y14.073
X47.109 Y14.211
X48.052 Y14.38
X48.988 Y14.581
X49.918 Y14.812
X50.839 Y15.074
X51.751 Y15.365
X52.654 Y15.686
X53.545 Y16.037
X54.424 Y16.416
X55.291 Y16.823
X56.144 Y17.259
X56.981 Y17.724
X57.803 Y18.216
X58.608 Y18.735
X59.395 Y19.28
X60.165 Y19.85
X60.915 Y20.445
X61.646 Y21.063
X62.357 Y21.705
X63.047 Y22.369
X63.716 Y23.055
X64.362 Y23.761
X64.986 Y24.489
X65.585 Y25.236
X66.159 Y26.002
X66.707 Y26.787
X67.23 Y27.59
X67.727 Y28.409
X68.197 Y29.243
X68.64 Y30.092
X69.056 Y30.955
X69.444 Y31.83
X69.804 Y32.718
X70.136 Y33.616
X70.439 Y34.524
X70.713 Y35.442
X70.957 Y36.368
X71.17 Y37.302
X71.352 Y38.242
X71.503 Y39.188
X71.623 Y40.138
X71.714 Y41.091
X71.773 Y42.047
X71.802 Y43.005
X71.8 Y43.962
X71.768 Y44.919
X71.706 Y45.875
X71.612 Y46.828
X71.488 Y47.778
X71.333 Y48.723
X71.146 Y49.662
X70.929 Y50.595
X70.681 Y51.52
X70.403 Y52.436
X70.096 Y53.344
X69.76 Y54.24
X69.395 Y55.126
X69.002 Y55.999
X68.582 Y56.86
X68.134 Y57.706
X67.659 Y58.538
X67.158 Y59.354
X66.63 Y60.153
X66.076 Y60.934
X65.496 Y61.696
X64.891 Y62.439
X64.263 Y63.162
X63.612 Y63.864
X62.939 Y64.545
X62.244 Y65.205
X61.529 Y65.842
X60.794 Y66.455
X60.04 Y67.046
X59.267 Y67.611
X58.476 Y68.152
X57.668 Y68.666
X56.844 Y69.153
X56.004 Y69.613
X55.149 Y70.045
X54.281 Y70.45
X53.401 Y70.827
X52.509 Y71.176
X51.606 Y71.496
X50.694 Y71.787
X49.773 Y72.05
X48.844 Y72.284
X47.908 Y72.488
X46.967 Y72.662
X46.02 Y72.805
X45.069 Y72.916
X44.114 Y72.997
X43.158 Y73.048
X42.2 Y73.068
X41.243 Y73.057
X40.286 Y73.016
X39.331 Y72.946
X38.379 Y72.845
X37.43 Y72.715
X36.485 Y72.555
X35.547 Y72.366
X34.614 Y72.147
X33.689 Y71.898
X32.773 Y71.619
X31.867 Y71.311
X30.97 Y70.974
X30.085 Y70.609
X29.211 Y70.216
X28.35 Y69.797
X27.503 Y69.35
X26.67 Y68.878
X25.852 Y68.38
X25.05 Y67.857
X24.264 Y67.309
X23.496 Y66.737
X22.747 Y66.141
X22.017 Y65.521
X21.307 Y64.878
X20.618 Y64.212
X19.951 Y63.526
X19.305 Y62.818
X18.681 Y62.092
X18.081 Y61.346
X17.503 Y60.582
X16.949 Y59.8
X16.42 Y59.002
X15.915 Y58.188
X15.436 Y57.359
X14.984 Y56.515
X14.558 Y55.657
X14.161 Y54.786
X13.791 Y53.902
X13.449 Y53.008
X13.135 Y52.103
X12.849 Y51.189
X12.592 Y50.266
X12.363 Y49.337
X12.163 Y48.4
X11.991 Y47.458
X11.849 Y46.511
X11.736 Y45.56
X11.652 Y44.606
X11.599 Y43.649
X11.576 Y42.692
X11.584 Y41.734
X11.622 Y40.777
X11.689 Y39.822
X11.786 Y38.869
X11.913 Y37.92
X12.068 Y36.975
X12.252 Y36.035
X12.465 Y35.101
X12.706 Y34.175
X12.976 Y33.256
X13.274 Y32.345
X13.6 Y31.445
X13.954 Y30.555
X14.337 Y29.677
X14.747 Y28.812
X15.184 Y27.96
X15.647 Y27.121
X16.136 Y26.298
X16.649 Y25.489
X17.187 Y24.697
X17.749 Y23.922
X18.335 Y23.164
X18.943 Y22.424
X19.574 Y21.704
X20.227 Y21.003
X20.902 Y20.323
X21.598 Y19.666
X22.314 Y19.03
X23.05 Y18.417
X23.805 Y17.828
X24.577 Y17.262
X25.367 Y16.72
X26.173 Y16.202
X26.994 Y15.709
X27.83 Y15.242
X28.679 Y14.8
X29.542 Y14.384
X30.417 Y13.995
X31.304 Y13.634
X32.202 Y13.301
X33.111 Y12.997
X34.028 Y12.722
X34.953 Y12.475
X35.886 Y12.256
X36.824 Y12.067
X37.768 Y11.906
X38.717 Y11.774
X39.669 Y11.671
X40.624 Y11.597
X41.581 Y11.552
X42.538 Y11.537
X43.496 Y11.551
X44.452 Y11.595
X45.407 Y11.67
X46.359 Y11.774
X47.307 Y11.908
X48.251 Y12.071
X49.189 Y12.263
X50.121 Y12.484
X51.046 Y12.732
X51.963 Y13.008
X52.872 Y13.312
X53.77 Y13.643
X54.659 Y14.001
X55.536 Y14.385
X56.4 Y14.797
X57.252 Y15.235
X58.089 Y15.7
X58.912 Y16.19
X59.72 Y16.705
X60.511 Y17.244
X61.287 Y17.806
X62.044 Y18.392
X62.785 Y18.999
X63.507 Y19.629
X64.209 Y20.279
X64.893 Y20.95
X65.556 Y21.641
X66.198 Y22.351
X66.818 Y23.081
X67.416 Y23.83
X67.99 Y24.596
X68.541 Y25.379
X69.068 Y26.179
X69.571 Y26.994
X70.05 Y27.824
X70.504 Y28.667
X70.932 Y29.523
X71.335 Y30.392
X71.713 Y31.272
X72.064 Y32.163
X72.39 Y33.064
X72.688 Y33.974
X72.958 Y34.893
X73.199 Y35.819
X73.413 Y36.753
X73.598 Y37.693
X73.754 Y38.638
X73.883 Y39.587
X73.983 Y40.539
X74.055 Y41.494
X74.098 Y42.451
X74.113 Y43.408
X74.1 Y44.366
X74.059 Y45.323
X73.989 Y46.278
X73.891 Y47.231
X73.763 Y48.18
X73.606 Y49.124
X73.42 Y50.064
X73.206 Y50.997
X72.964 Y51.924
X72.694 Y52.843
X72.397 Y53.753
X72.073 Y54.654
X71.722 Y55.546
X71.345 Y56.426
X70.942 Y57.295
X70.514 Y58.151
X70.06 Y58.995
X69.582 Y59.824
X69.077 Y60.638
X68.548 Y61.437
X67.995 Y62.218
X67.418 Y62.983
X66.819 Y63.73
X66.197 Y64.459
X65.554 Y65.168
X64.891 Y65.859
X64.207 Y66.529
X63.503 Y67.179
X62.781 Y67.808
X62.041 Y68.416
X61.283 Y69.001
X60.507 Y69.563
X59.715 Y70.101
X58.907 Y70.614
X58.083 Y71.103
X57.245 Y71.567
X56.394 Y72.005
X55.529 Y72.418
X54.653 Y72.805
X53.766 Y73.166
X52.869 Y73.501
X51.963 Y73.81
X51.047 Y74.092
X50.124 Y74.347
X49.194 Y74.574
X48.257 Y74.774
X47.315 Y74.945
X46.368 Y75.088
X45.417 Y75.201
X44.463 Y75.287
X43.507 Y75.344
X42.55 Y75.373
X41.592
X40.635 Y75.346
X39.679 Y75.291
X38.725 Y75.208
X37.773 Y75.097
X36.826 Y74.959
X35.882 Y74.794
X34.944 Y74.6
X34.013 Y74.379
X33.088 Y74.129
X32.171 Y73.852
X31.263 Y73.547
X30.365 Y73.217
X29.476 Y72.86
X28.598 Y72.477
X27.732 Y72.069
X26.877 Y71.636
X26.036 Y71.178
X25.208 Y70.697
X24.394 Y70.192
X23.596 Y69.664
X22.812 Y69.113
X22.046 Y68.538
X21.297 Y67.941
X20.567 Y67.322
X19.855 Y66.681
X19.162 Y66.02
X18.488 Y65.339
X17.835 Y64.639
X17.202 Y63.921
X16.59 Y63.184
X15.999 Y62.43
X15.43 Y61.66
X14.884 Y60.873
X14.36 Y60.072
X13.859 Y59.255
X13.383 Y58.424
X12.932 Y57.579
X12.506 Y56.722
X12.106 Y55.852
X11.731 Y54.97
X11.382 Y54.079
X11.059 Y53.177
X10.762 Y52.267
X10.491 Y51.348
X10.246 Y50.422
X10.028 Y49.489
X9.837 Y48.551
X9.673 Y47.607
X9.535 Y46.66
X9.426 Y45.708
X9.345 Y44.754
X9.292 Y43.798
X9.267 Y42.84
X9.27 Y41.883
X9.301 Y40.926
X9.359 Y39.97
X9.445 Y39.016
X9.559 Y38.065
X9.699 Y37.117
X9.866 Y36.174
X10.06 Y35.237
X10.28 Y34.305
X10.527 Y33.379
X10.8 Y32.461
X11.101 Y31.552
X11.428 Y30.652
X11.781 Y29.762
X12.161 Y28.882
X12.565 Y28.014
X12.995 Y27.158
X13.449 Y26.315
X13.927 Y25.485
X14.428 Y24.669
X14.952 Y23.868
X15.499 Y23.082
X16.068 Y22.311
X16.659 Y21.557
X17.27 Y20.821
X17.904 Y20.102
X18.558 Y19.403
X19.232 Y18.723
X19.927 Y18.063
X20.64 Y17.424
X21.371 Y16.805
X22.12 Y16.208
X22.885 Y15.633
X23.667 Y15.079
X24.464 Y14.548
X25.276 Y14.04
X26.102 Y13.555
X26.941 Y13.094
X27.793 Y12.657
X28.657 Y12.245
X29.533 Y11.858
X30.421 Y11.497
X31.318 Y11.163
X32.225 Y10.855
X33.14 Y10.573
X34.063 Y10.317
X34.993 Y10.088
X35.929 Y9.886
X36.871 Y9.711
X37.817 Y9.562
X38.767 Y9.44
X39.719 Y9.345
X40.675 Y9.277
X41.632 Y9.236
X42.589 Y9.223
X43.547 Y9.239
X44.503 Y9.282
X45.459 Y9.353
X46.411 Y9.452
X47.36 Y9.579
X48.306 Y9.732
X49.246 Y9.912
X50.182 Y10.119
X51.11 Y10.351
X52.033 Y10.61
X52.947 Y10.895
X53.853 Y11.205
X54.75 Y11.541
X55.637 Y11.901
X56.513 Y12.288
X57.378 Y12.7
X58.231 Y13.136
X59.07 Y13.597
X59.896 Y14.081
X60.708 Y14.589
X61.506 Y15.119
X62.288 Y15.671
X63.055 Y16.245
X63.806 Y16.84
X64.54 Y17.455
X65.256 Y18.09
X65.955 Y18.745
X66.636 Y19.419
X67.297 Y20.112
X67.938 Y20.824
X68.558 Y21.553
X69.158 Y22.3
X69.736 Y23.064
X70.292 Y23.843
X70.827 Y24.638
X71.339 Y25.447
X71.829 Y26.27
X72.295 Y27.106
X72.739 Y27.955
X73.159 Y28.816
X73.556 Y29.687
X73.928 Y30.57
X74.276 Y31.462
X74.598 Y32.364
X74.895 Y33.274
X75.165 Y34.193
X75.41 Y35.119
X75.628 Y36.052
X75.82 Y36.99
X75.986 Y37.933
X76.125 Y38.881
X76.238 Y39.832
X76.325 Y40.785
X76.386 Y41.741
X76.42 Y42.698
X76.428 Y43.656
X76.409 Y44.613
X76.364 Y45.57
X76.292 Y46.525
X76.192 Y47.477
X76.066 Y48.427
X75.912 Y49.372
X75.732 Y50.313
X75.525 Y51.248
X75.292 Y52.177
X75.033 Y53.099
X74.749 Y54.013
X74.44 Y54.92
X74.106 Y55.817
X73.747 Y56.705
X73.363 Y57.583
X72.956 Y58.449
X72.525 Y59.305
X72.069 Y60.147
X71.59 Y60.976
X71.087 Y61.791
X70.561 Y62.591
X70.012 Y63.376
X69.442 Y64.146
X68.851 Y64.899
X68.238 Y65.635
X67.606 Y66.355
X66.954 Y67.056
X66.283 Y67.739
X65.593 Y68.404
X64.886 Y69.049
X64.16 Y69.675
X63.418 Y70.28
X62.659 Y70.863
X61.883 Y71.425
X61.092 Y71.965
X60.286 Y72.482
X59.465 Y72.976
X58.632 Y73.447
X57.785 Y73.895
X56.926 Y74.319
X56.056 Y74.719
X55.175 Y75.095
X54.285 Y75.447
X53.385 Y75.774
X52.476 Y76.077
X51.56 Y76.355
X50.636 Y76.607
X49.705 Y76.833
X48.769 Y77.033
X47.827 Y77.206
X46.88 Y77.353
X45.93 Y77.473
X44.977 Y77.567
X44.022 Y77.635
X43.065 Y77.676
X42.107 Y77.691
X41.15 Y77.68
X40.193 Y77.643
X39.237 Y77.58
X38.284 Y77.491
X37.333 Y77.377
X36.385 Y77.236
X35.442 Y77.069
X34.505 Y76.875
X33.572 Y76.655
X32.647 Y76.41
X31.728 Y76.139
X30.817 Y75.842
X29.915 Y75.521
X29.022 Y75.176
X28.139 Y74.806
X27.265 Y74.412
X26.403 Y73.995
X25.553 Y73.556
X24.714 Y73.093
X23.888 Y72.608
X23.076 Y72.101
X22.278 Y71.571
X21.495 Y71.019
X20.728 Y70.446
X19.977 Y69.852
X19.242 Y69.238
X18.525 Y68.603
X17.825 Y67.949
X17.143 Y67.277
X16.48 Y66.586
X15.835 Y65.878
X15.21 Y65.153
X14.604 Y64.411
X14.018 Y63.653
X13.453 Y62.88
X12.909 Y62.092
X12.386 Y61.289
X11.887 Y60.472
X11.409 Y59.642
X10.955 Y58.799
X10.525 Y57.943
X10.117 Y57.077
X9.734 Y56.199
X9.374 Y55.312
X9.038 Y54.415
X8.727 Y53.509
X8.44 Y52.595
X8.177 Y51.674
X7.94 Y50.747
X7.726 Y49.813
X7.538 Y48.874
X7.376 Y47.93
X7.24 Y46.982
X7.129 Y46.031
X7.045 Y45.077
X6.988 Y44.121
X6.956 Y43.164
X6.95 Y42.206
X6.97 Y41.248
X7.016 Y40.292
X7.087 Y39.337
X7.184 Y38.384
X7.306 Y37.434
X7.454 Y36.488
X7.626 Y35.546
X7.824 Y34.609
X8.046 Y33.677
X8.295 Y32.752
X8.568 Y31.834
X8.866 Y30.924
X9.19 Y30.023
X9.537 Y29.131
X9.909 Y28.248
X10.304 Y27.376
X10.723 Y26.514
X11.164 Y25.664
X11.629 Y24.827
X12.115 Y24.002
X12.623 Y23.19
X13.152 Y22.392
X13.702 Y21.608
X14.274 Y20.839
X14.865 Y20.086
X15.478 Y19.35
X16.11 Y18.631
X16.762 Y17.929
X17.432 Y17.245
X18.121 Y16.58
X18.828 Y15.933
X19.552 Y15.306
X20.292 Y14.699
X21.048 Y14.111
X21.82 Y13.544
X22.606 Y12.997
X23.407 Y12.472
X24.221 Y11.968
X25.049 Y11.486
X25.889 Y11.026
X26.742 Y10.59
X27.606 Y10.177
X28.481 Y9.788
X29.366 Y9.423
X30.261 Y9.082
X31.165 Y8.765
X32.077 Y8.473
X32.997 Y8.205
X33.923 Y7.963
X34.856 Y7.744
X35.793 Y7.551
X36.736 Y7.383
X37.683 Y7.239
X38.633 Y7.121
X39.587 Y7.028
X40.542 Y6.961
X41.499 Y6.92
X42.456 Y6.906
X43.414 Y6.917
X44.371 Y6.955
X45.327 Y7.018
X46.28 Y7.107
X47.231 Y7.221
X48.179 Y7.361
X49.122 Y7.525
X50.061 Y7.715
X50.994 Y7.929
X51.922 Y8.168
X52.842 Y8.431
X53.756 Y8.718
X54.662 Y9.03
X55.558 Y9.366
X56.446 Y9.726
X57.323 Y10.11
X58.19 Y10.517
X59.046 Y10.947
X59.89 Y11.4
X60.721 Y11.875
X61.54 Y12.372
X62.346 Y12.89
X63.137 Y13.429
X63.915 Y13.988
X64.677 Y14.567
X65.425 Y15.166
X66.156 Y15.784
X66.871 Y16.421
X67.569 Y17.077
X68.25 Y17.751
X68.912 Y18.443
X69.556 Y19.152
X70.18 Y19.878
X70.786 Y20.62
X71.371 Y21.378
X71.937 Y22.151
X72.482 Y22.938
X73.006 Y23.739
X73.51 Y24.554
X73.993 Y25.381
X74.453 Y26.221
X74.893 Y27.072
X75.31 Y27.934
X75.705 Y28.806
X76.076 Y29.689
X76.424 Y30.581
X76.748 Y31.482
X77.049 Y32.392
X77.325 Y33.309
X77.577 Y34.233
X77.804 Y35.163
X77.97 Y35.93
X77.981 Y35.989
X78.383 Y38.696
X78.407 Y38.914
X78.452 Y39.566
X78.59 Y42.391
Y42.609
X78.452 Y45.434
X78.407 Y46.086
X78.383 Y46.304
X77.963 Y49.129
X77.842 Y49.781
X77.679 Y50.433
X77.134 Y52.607
X77.078 Y52.824
X76.861 Y53.476
X76.785 Y53.694
X76.081 Y55.662
X76.004 Y55.867
X75.837 Y56.302
X75.751 Y56.519
X74.414 Y59.345
X74.342 Y59.486
X74.174 Y59.78
X74.125 Y59.864
X72.742 Y62.17
X72.611 Y62.388
X72.149 Y63.04
X71.951 Y63.31
X70.54 Y65.213
X70.43 Y65.356
X70.175 Y65.648
X69.98 Y65.865
X68.404 Y67.604
X68.256 Y67.765
X67.765 Y68.256
X67.527 Y68.474
X65.848 Y69.995
X65.648 Y70.175
X65.356 Y70.43
X65.213 Y70.54
X63.257 Y71.991
X63.012 Y72.169
X62.388 Y72.611
X62.04 Y72.821
X59.864 Y74.125
X59.78 Y74.174
X59.486 Y74.342
X59.345 Y74.414
X56.519 Y75.751
X56.302 Y75.837
X55.867 Y76.004
X55.65 Y76.086
X53.694 Y76.785
X53.476 Y76.861
X52.824 Y77.078
X52.607 Y77.134
X49.871 Y77.82
X49.781 Y77.842
X49.129 Y77.963
X46.304 Y78.383
X46.086 Y78.407
X45.434 Y78.452
X42.609 Y78.59
X42.391
X39.566 Y78.452
X38.914 Y78.407
X38.696 Y78.383
X35.871 Y77.963
X35.219 Y77.842
X34.567 Y77.679
X32.393 Y77.134
X32.176 Y77.078
X31.524 Y76.861
X31.306 Y76.785
X29.338 Y76.081
X29.133 Y76.004
X28.698 Y75.837
X28.481 Y75.751
X25.655 Y74.414
X25.514 Y74.342
X25.22 Y74.174
X25.136 Y74.125
X22.83 Y72.742
X22.612 Y72.611
X21.96 Y72.149
X21.69 Y71.951
X19.787 Y70.54
X19.644 Y70.43
X19.352 Y70.175
X19.135 Y69.98
X17.396 Y68.404
X17.235 Y68.256
X16.744 Y67.765
X16.526 Y67.527
X15.005 Y65.848
X14.825 Y65.648
X14.57 Y65.356
X14.46 Y65.213
X13.009 Y63.257
X12.831 Y63.012
X12.389 Y62.388
X12.179 Y62.04
X10.875 Y59.864
X10.826 Y59.78
X10.658 Y59.486
X10.586 Y59.345
X9.249 Y56.519
X9.163 Y56.302
X8.996 Y55.867
X8.914 Y55.65
X8.215 Y53.694
X8.139 Y53.476
X7.922 Y52.824
X7.866 Y52.607
X7.18 Y49.871
X7.158 Y49.781
X7.037 Y49.129
X6.617 Y46.304
X6.593 Y46.086
X6.548 Y45.434
X6.41 Y42.609
Y42.391
X6.548 Y39.566
X6.593 Y38.914
X6.617 Y38.696
X7.037 Y35.871
X7.158 Y35.219
X7.321 Y34.567
X7.866 Y32.393
X7.922 Y32.176
X8.139 Y31.524
X8.215 Y31.306
X8.919 Y29.338
X8.996 Y29.133
X9.163 Y28.698
X9.249 Y28.481
X10.586 Y25.655
X10.658 Y25.514
X10.826 Y25.22
X10.875 Y25.136
X12.258 Y22.83
X12.389 Y22.612
X12.851 Y21.96
X13.049 Y21.69
X14.46 Y19.787
X14.57 Y19.644
X14.825 Y19.352
X15.02 Y19.135
X16.596 Y17.396
X16.744 Y17.235
X17.235 Y16.744
X17.473 Y16.526
X19.152 Y15.005
X19.352 Y14.825
X19.644 Y14.57
X19.787 Y14.46
X21.743 Y13.009
X21.988 Y12.831
X22.612 Y12.389
X22.96 Y12.179
X25.136 Y10.875
X25.22 Y10.826
X25.514 Y10.658
X25.655 Y10.586
X28.481 Y9.249
X28.698 Y9.163
X29.133 Y8.996
X29.35 Y8.914
X31.306 Y8.215
X31.524 Y8.139
X32.176 Y7.922
X32.393 Y7.866
X35.129 Y7.18
X35.219 Y7.158
X35.871 Y7.037
X38.696 Y6.617
X38.914 Y6.593
X39.566 Y6.548
X42.391 Y6.41
X42.609
X45.434 Y6.548
X46.086 Y6.593
X46.304 Y6.617
X49.129 Y7.037
X49.781 Y7.158
X50.433 Y7.321
X52.607 Y7.866
X52.824 Y7.922
X53.476 Y8.139
X53.694 Y8.215
X55.662 Y8.919
X55.867 Y8.996
X56.302 Y9.163
X56.519 Y9.249
X59.345 Y10.586
X59.486 Y10.658
X59.78 Y10.826
X59.864 Y10.875
X62.17 Y12.258
X62.388 Y12.389
X63.04 Y12.851
X63.31 Y13.049
X65.213 Y14.46
X65.356 Y14.57
X65.648 Y14.825
X65.865 Y15.02
X67.604 Y16.596
X67.765 Y16.744
X68.256 Y17.235
X68.474 Y17.473
X69.995 Y19.152
X70.175 Y19.352
X70.43 Y19.644
X70.54 Y19.787
X71.991 Y21.743
X72.169 Y21.988
X72.611 Y22.612
X72.821 Y22.96
X74.125 Y25.136
X74.174 Y25.22
X74.342 Y25.514
X74.414 Y25.655
X75.751 Y28.481
X75.837 Y28.698
X76.004 Y29.133
X76.086 Y29.35
X76.785 Y31.306
X76.861 Y31.524
X77.078 Y32.176
X77.134 Y32.393
X77.82 Y35.129
X77.842 Y35.219
X77.963 Y35.871
X77.981 Y35.989
X77.984 Y36.081
X77.973 Y36.173
X77.946 Y36.242 Z-4.995
X77.92 Y36.309 Z-4.982
X77.894 Y36.375 Z-4.959
X77.84 Y36.433 Z-4.921
X77.791 Y36.487 Z-4.871
X77.747 Y36.535 Z-4.812
X77.698 Y36.563 Z-4.741
X77.658 Y36.586 Z-4.663
X77.629 Y36.602 Z-4.579
X77.611 Y36.612 Z-4.491
X77.605 Y36.615 Z-4.4
G0 Z5.
X39.546 Y42.127
Z-2.5
G3 X43.939 Y39.894 Z-2.703 I2.954 J0.373 F333.
X44.39 Y44.795 Z-2.905 I-1.437 J2.604
X39.674 Y43.404 Z-3.108 I-1.886 J-2.295
X42.707 Y39.542 Z-3.311 I2.826 J-0.902
X45.171 Y43.782 Z-3.514 I-0.206 J2.956
X40.326 Y44.503 Z-3.716 I-2.667 J-1.283
X41.446 Y39.74 Z-3.919 I2.176 J-2.002
X45.453 Y42.539 Z-4.122 I1.054 J2.758
X41.376 Y45.224 Z-4.324 I-2.949 J-0.04
X40.39 Y40.449 Z-4.527 I1.126 J-2.722
X45.185 Y41.297 Z-4.73 I2.11 J2.05
X42.628 Y45.434 Z-4.932 I-2.682 J1.201
X39.733 Y41.533 Z-5.135 I-0.124 J-2.932
X44.422 Y40.286 Z-5.338 I2.767 J0.967
X43.847 Y45.098 Z-5.541 I-1.92 J2.211
X39.594 Y42.788 Z-5.743 I-1.343 J-2.598
X43.308 Y39.694 Z-5.946 I2.907 J-0.287
X44.808 Y44.284 Z-6.149 I-0.807 J2.804
X39.995 Y43.981 Z-6.351 I-2.304 J-1.784
X42.053 Y39.626 Z-6.554 I2.506 J-1.479
X45.335 Y43.144 Z-6.757 I0.447 J2.872
X40.858 Y44.89 Z-6.959 I-2.831 J-0.645
X40.891 Y40.091 Z-7.162 I1.644 J-2.389
X45.332 Y41.893 Z-7.365 I1.609 J2.408
X42.019 Y45.35 Z-7.568 I-2.829 J0.605
X40.035 Y40.999 Z-7.77 I0.483 J-2.848
X44.805 Y40.764 Z-7.973 I2.465 J1.5
X43.262 Y45.278 Z-8.176 I-2.303 J1.733
X39.643 Y42.179 Z-8.378 I-0.758 J-2.777
X43.855 Y39.965 Z-8.581 I2.857 J0.322
X44.355 Y44.691 Z-8.784 I-1.353 J2.532
X39.784 Y43.41 Z-8.986 I-1.85 J-2.191
X42.661 Y39.641 Z-9.189 I2.717 J-0.908
X45.096 Y43.703 Z-9.392 I-0.16 J2.856
X40.428 Y44.462 Z-9.595 I-2.591 J-1.203
X41.447 Y39.85 Z-9.797 I2.074 J-1.961
X45.35 Y42.498 Z-10. I1.054 J2.648
X39.65 I-2.85 J0.
X45.35 I2.85 J0.
G1 X45.354 Y42.738 F5000.
X45.531 Y43.679
X45.572 Y43.823
X45.596 Y43.971
X45.607 Y44.121
X45.604 Y44.271
X45.588 Y44.43
X45.557 Y44.598
X45.51 Y44.774
X45.445 Y44.955
X45.362 Y45.141
X45.258 Y45.329
X45.135 Y45.517
X44.99 Y45.702
X44.824 Y45.883
X44.637 Y46.056
X44.429 Y46.219
X44.202 Y46.37
X43.956 Y46.507
X43.692 Y46.626
X43.413 Y46.727
X43.12 Y46.806
X42.816 Y46.863
X42.501 Y46.896
X42.18 Y46.904
X41.855 Y46.885
X41.527 Y46.84
X41.2 Y46.768
X40.877 Y46.669
X40.559 Y46.543
X40.25 Y46.39
X39.952 Y46.212
X39.668 Y46.01
X39.399 Y45.783
X39.147 Y45.535
X38.916 Y45.266
X38.706 Y44.978
X38.519 Y44.673
X38.356 Y44.354
X38.22 Y44.021
X38.11 Y43.677
X38.028 Y43.325
X37.974 Y42.967
X37.95 Y42.606
X37.954 Y42.242
X37.988 Y41.88
X38.05 Y41.522
X38.141 Y41.169
X38.261 Y40.825
X38.407 Y40.491
X38.581 Y40.17
X38.779 Y39.863
X39.002 Y39.573
X39.247 Y39.302
X39.513 Y39.051
X39.799 Y38.823
X40.102 Y38.618
X40.42 Y38.438
X40.753 Y38.284
X41.096 Y38.157
X41.449 Y38.058
X41.808 Y37.988
X42.172 Y37.947
X42.538 Y37.935
X42.904 Y37.953
X43.268 Y38.
X43.626 Y38.076
X43.977 Y38.18
X44.319 Y38.313
X44.649 Y38.472
X44.965 Y38.658
X45.265 Y38.868
X45.548 Y39.101
X45.811 Y39.357
X46.052 Y39.633
X46.271 Y39.927
X46.501 Y40.295
X46.862 Y40.993
X47.118 Y41.601
X47.287 Y42.115
X47.399 Y42.58
X47.469 Y43.02
X47.501 Y43.447
X47.5 Y43.86
X47.466 Y44.262
X47.401 Y44.655
X47.305 Y45.038
X47.179 Y45.413
X47.022 Y45.776
X46.836 Y46.128
X46.621 Y46.467
X46.378 Y46.789
X46.106 Y47.095
X45.807 Y47.381
X45.483 Y47.645
X45.133 Y47.885
X44.76 Y48.1
X44.365 Y48.287
X43.951 Y48.444
X43.521 Y48.568
X43.076 Y48.659
X42.62 Y48.714
X42.156 Y48.733
X41.687 Y48.714
X41.217 Y48.657
X40.748 Y48.562
X40.286 Y48.428
X39.832 Y48.257
X39.391 Y48.048
X38.965 Y47.803
X38.557 Y47.523
X38.172 Y47.21
X37.811 Y46.864
X37.477 Y46.49
X37.174 Y46.088
X36.902 Y45.661
X36.665 Y45.213
X36.464 Y44.745
X36.301 Y44.262
X36.177 Y43.766
X36.093 Y43.261
X36.049 Y42.749
X36.047 Y42.235
X36.086 Y41.722
X36.166 Y41.213
X36.288 Y40.711
X36.449 Y40.22
X36.649 Y39.743
X36.887 Y39.283
X37.161 Y38.844
X37.47 Y38.428
X37.811 Y38.038
X38.183 Y37.676
X38.583 Y37.345
X39.008 Y37.048
X39.456 Y36.785
X39.923 Y36.559
X40.407 Y36.371
X40.905 Y36.223
X41.414 Y36.115
X41.929 Y36.048
X42.448 Y36.023
X42.968 Y36.039
X43.484 Y36.097
X43.995 Y36.197
X44.496 Y36.337
X44.983 Y36.517
X45.455 Y36.735
X45.908 Y36.991
X46.339 Y37.282
X46.756 Y37.615
X47.203 Y38.036
X47.631 Y38.509
X48.033 Y39.031
X48.397 Y39.593
X48.71 Y40.174
X48.969 Y40.764
X49.175 Y41.358
X49.329 Y41.952
X49.433 Y42.544
X49.488 Y43.133
X49.495 Y43.718
X49.456 Y44.295
X49.371 Y44.862
X49.242 Y45.418
X49.069 Y45.96
X48.853 Y46.486
X48.596 Y46.993
X48.298 Y47.479
X47.961 Y47.942
X47.585 Y48.378
X47.174 Y48.785
X46.727 Y49.161
X46.248 Y49.502
X45.74 Y49.806
X45.204 Y50.071
X44.644 Y50.293
X44.062 Y50.472
X43.464 Y50.604
X42.852 Y50.688
X42.231 Y50.724
X41.605 Y50.709
X40.978 Y50.644
X40.354 Y50.527
X39.737 Y50.36
X39.132 Y50.143
X38.544 Y49.876
X37.975 Y49.562
X37.431 Y49.201
X36.916 Y48.795
X36.432 Y48.348
X35.985 Y47.861
X35.576 Y47.338
X35.209 Y46.783
X34.887 Y46.197
X34.613 Y45.586
X34.387 Y44.954
X34.213 Y44.304
X34.092 Y43.641
X34.023 Y42.969
X34.009 Y42.293
X34.05 Y41.617
X34.144 Y40.945
X34.293 Y40.283
X34.494 Y39.633
X34.747 Y39.002
X35.05 Y38.393
X35.401 Y37.809
X35.798 Y37.255
X36.238 Y36.735
X36.719 Y36.251
X37.238 Y35.808
X37.79 Y35.407
X38.373 Y35.052
X38.983 Y34.745
X39.616 Y34.487
X40.267 Y34.281
X40.933 Y34.128
X41.61 Y34.029
X42.292 Y33.985
X42.975 Y33.995
X43.656 Y34.061
X44.329 Y34.18
X44.991 Y34.354
X45.636 Y34.58
X46.264 Y34.858
X46.887 Y35.196
X47.5 Y35.596
X48.097 Y36.057
X48.67 Y36.579
X49.208 Y37.153
X49.701 Y37.775
X50.144 Y38.434
X50.531 Y39.124
X50.86 Y39.839
X51.127 Y40.571
X51.333 Y41.316
X51.478 Y42.069
X51.561 Y42.825
X51.583 Y43.58
X51.544 Y44.329
X51.446 Y45.069
X51.29 Y45.797
X51.076 Y46.507
X50.806 Y47.198
X50.481 Y47.865
X50.104 Y48.504
X49.675 Y49.112
X49.197 Y49.686
X48.673 Y50.222
X48.105 Y50.717
X47.495 Y51.166
X46.848 Y51.568
X46.167 Y51.918
X45.455 Y52.214
X44.718 Y52.454
X43.959 Y52.635
X43.184 Y52.755
X42.397 Y52.812
X41.604 Y52.807
X40.81 Y52.737
X40.019 Y52.603
X39.238 Y52.405
X38.471 Y52.144
X37.725 Y51.821
X37.003 Y51.437
X36.312 Y50.994
X35.657 Y50.496
X35.041 Y49.945
X34.469 Y49.344
X33.946 Y48.697
X33.476 Y48.008
X33.061 Y47.282
X32.704 Y46.523
X32.41 Y45.737
X32.178 Y44.927
X32.013 Y44.101
X31.914 Y43.262
X31.882 Y42.416
X31.919 Y41.57
X32.023 Y40.729
X32.195 Y39.897
X32.433 Y39.082
X32.736 Y38.287
X33.102 Y37.519
X33.529 Y36.783
X34.014 Y36.082
X34.554 Y35.423
X35.145 Y34.808
X35.784 Y34.243
X36.467 Y33.731
X37.188 Y33.275
X37.944 Y32.878
X38.73 Y32.543
X39.54 Y32.273
X40.37 Y32.068
X41.213 Y31.93
X42.065 Y31.861
X42.919 Y31.86
X43.771 Y31.927
X44.616 Y32.063
X45.451 Y32.267
X46.274 Y32.54
X47.083 Y32.883
X47.872 Y33.295
X48.639 Y33.777
X49.379 Y34.33
X50.082 Y34.949
X50.74 Y35.63
X51.345 Y36.365
X51.89 Y37.149
X52.371 Y37.974
X52.783 Y38.832
X53.123 Y39.717
X53.389 Y40.623
X53.581 Y41.542
X53.699 Y42.469
X53.741 Y43.398
X53.709 Y44.323
X53.602 Y45.239
X53.424 Y46.142
X53.173 Y47.025
X52.853 Y47.885
X52.466 Y48.716
X52.012 Y49.514
X51.495 Y50.274
X50.917 Y50.992
X50.281 Y51.663
X49.592 Y52.284
X48.852 Y52.849
X48.065 Y53.355
X47.237 Y53.798
X46.372 Y54.175
X45.475 Y54.483
X44.552 Y54.719
X43.608 Y54.881
X42.655 Y54.967
X41.697 Y54.976
X40.742 Y54.909
X39.794 Y54.767
X38.862 Y54.551
X37.948 Y54.262
X37.061 Y53.903
X36.204 Y53.476
X35.382 Y52.983
X34.601 Y52.429
X33.865 Y51.816
X33.178 Y51.149
X32.544 Y50.431
X31.967 Y49.667
X31.449 Y48.861
X30.994 Y48.018
X30.604 Y47.144
X30.282 Y46.242
X30.03 Y45.318
X29.849 Y44.378
X29.74 Y43.426
X29.703 Y42.469
X29.738 Y41.512
X29.845 Y40.56
X30.023 Y39.619
X30.272 Y38.694
X30.588 Y37.79
X30.971 Y36.913
X31.419 Y36.066
X31.928 Y35.255
X32.496 Y34.484
X33.121 Y33.758
X33.797 Y33.08
X34.523 Y32.456
X35.295 Y31.888
X36.107 Y31.38
X36.954 Y30.934
X37.833 Y30.553
X38.737 Y30.239
X39.663 Y29.992
X40.604 Y29.816
X41.556 Y29.709
X42.513 Y29.674
X43.47 Y29.71
X44.422 Y29.816
X45.363 Y29.993
X46.289 Y30.239
X47.193 Y30.553
X48.072 Y30.933
X48.921 Y31.377
X49.736 Y31.88
X50.514 Y32.438
X51.252 Y33.049
X51.947 Y33.708
X52.594 Y34.414
X53.19 Y35.164
X53.732 Y35.953
X54.22 Y36.777
X54.65 Y37.633
X55.023 Y38.515
X55.335 Y39.42
X55.583 Y40.345
X55.765 Y41.285
X55.881 Y42.236
X55.931 Y43.192
X55.915 Y44.15
X55.833 Y45.104
X55.686 Y46.05
X55.473 Y46.984
X55.194 Y47.9
X54.85 Y48.794
X54.444 Y49.661
X53.978 Y50.498
X53.455 Y51.3
X52.877 Y52.064
X52.249 Y52.787
X51.572 Y53.464
X50.848 Y54.091
X50.082 Y54.666
X49.277 Y55.186
X48.439 Y55.649
X47.572 Y56.055
X46.679 Y56.401
X45.765 Y56.686
X44.832 Y56.906
X43.887 Y57.061
X42.934 Y57.151
X41.977 Y57.178
X41.02 Y57.142
X40.067 Y57.043
X39.123 Y56.879
X38.193 Y56.65
X37.281 Y56.36
X36.389 Y56.011
X35.522 Y55.605
X34.683 Y55.143
X33.875 Y54.628
X33.105 Y54.059
X32.374 Y53.44
X31.685 Y52.775
X31.04 Y52.067
X30.441 Y51.32
X29.891 Y50.536
X29.394 Y49.717
X28.952 Y48.868
X28.567 Y47.991
X28.239 Y47.091
X27.97 Y46.172
X27.759 Y45.238
X27.608 Y44.292
X27.52 Y43.338
X27.494 Y42.381
X27.531 Y41.424
X27.629 Y40.471
X27.786 Y39.527
X28.003 Y38.594
X28.277 Y37.676
X28.612 Y36.779
X29.004 Y35.905
X29.451 Y35.058
X29.95 Y34.241
X30.5 Y33.457
X31.097 Y32.708
X31.741 Y31.999
X32.431 Y31.335
X33.162 Y30.716
X33.932 Y30.146
X34.736 Y29.626
X35.571 Y29.158
X36.434 Y28.742
X37.322 Y28.382
X38.231 Y28.082
X39.158 Y27.841
X40.098 Y27.659
X41.048 Y27.536
X42.003 Y27.473
X42.961 Y27.469
X43.917 Y27.527
X44.867 Y27.647
X45.808 Y27.827
X46.735 Y28.067
X47.646 Y28.363
X48.536 Y28.716
X49.403 Y29.122
X50.244 Y29.582
X51.054 Y30.093
X51.831 Y30.652
X52.574 Y31.256
X53.279 Y31.904
X53.945 Y32.592
X54.57 Y33.318
X55.15 Y34.08
X55.682 Y34.876
X56.166 Y35.703
X56.601 Y36.556
X56.986 Y37.433
X57.318 Y38.331
X57.597 Y39.247
X57.822 Y40.179
X57.988 Y41.122
X58.097 Y42.073
X58.149 Y43.029
X58.144 Y43.987
X58.083 Y44.943
X57.966 Y45.893
X57.793 Y46.835
X57.562 Y47.765
X57.273 Y48.678
X56.929 Y49.572
X56.532 Y50.443
X56.084 Y51.289
X55.587 Y52.108
X55.043 Y52.896
X54.451 Y53.649
X53.815 Y54.365
X53.135 Y55.04
X52.417 Y55.673
X51.662 Y56.262
X50.874 Y56.806
X50.055 Y57.304
X49.209 Y57.751
X48.336 Y58.147
X47.442 Y58.489
X46.529 Y58.778
X45.6 Y59.013
X44.66 Y59.193
X43.711 Y59.319
X42.755 Y59.39
X41.798 Y59.404
X40.841 Y59.362
X39.889 Y59.263
X38.943 Y59.11
X38.008 Y58.902
X37.087 Y58.642
X36.181 Y58.33
X35.295 Y57.967
X34.432 Y57.553
X33.594 Y57.089
X32.784 Y56.578
X32.004 Y56.022
X31.257 Y55.423
X30.544 Y54.783
X29.868 Y54.105
X29.232 Y53.388
X28.638 Y52.637
X28.088 Y51.853
X27.583 Y51.039
X27.125 Y50.199
X26.714 Y49.334
X26.351 Y48.447
X26.039 Y47.542
X25.779 Y46.62
X25.571 Y45.685
X25.417 Y44.74
X25.317 Y43.788
X25.269 Y42.831
X25.274 Y41.873
X25.332 Y40.917
X25.443 Y39.966
X25.608 Y39.023
X25.825 Y38.09
X26.095 Y37.171
X26.415 Y36.268
X26.784 Y35.385
X27.201 Y34.523
X27.664 Y33.684
X28.174 Y32.874
X28.728 Y32.093
X29.326 Y31.344
X29.964 Y30.63
X30.641 Y29.953
X31.354 Y29.314
X32.102 Y28.715
X32.881 Y28.158
X33.691 Y27.647
X34.528 Y27.181
X35.389 Y26.763
X36.273 Y26.394
X37.175 Y26.074
X38.094 Y25.804
X39.026 Y25.584
X39.969 Y25.417
X40.92 Y25.302
X41.876 Y25.241
X42.834 Y25.233
X43.79 Y25.277
X44.743 Y25.375
X45.689 Y25.523
X46.626 Y25.723
X47.55 Y25.976
X48.458 Y26.278
X49.349 Y26.631
X50.219 Y27.031
X51.066 Y27.477
X51.889 Y27.967
X52.685 Y28.5
X53.452 Y29.073
X54.187 Y29.687
X54.888 Y30.34
X55.554 Y31.028
X56.183 Y31.75
X56.773 Y32.504
X57.324 Y33.288
X57.833 Y34.099
X58.301 Y34.935
X58.724 Y35.794
X59.101 Y36.674
X59.431 Y37.573
X59.714 Y38.488
X59.949 Y39.417
X60.134 Y40.356
X60.271 Y41.304
X60.359 Y42.258
X60.397 Y43.215
X60.384 Y44.172
X60.32 Y45.128
X60.206 Y46.079
X60.042 Y47.022
X59.828 Y47.956
X59.565 Y48.877
X59.255 Y49.783
X58.897 Y50.671
X58.492 Y51.539
X58.042 Y52.384
X57.548 Y53.204
X57.011 Y53.998
X56.433 Y54.762
X55.817 Y55.494
X55.162 Y56.193
X54.472 Y56.857
X53.747 Y57.483
X52.99 Y58.07
X52.204 Y58.617
X51.39 Y59.122
X50.551 Y59.584
X49.69 Y60.002
X48.808 Y60.375
X47.907 Y60.701
X46.991 Y60.98
X46.062 Y61.21
X45.121 Y61.393
X44.173 Y61.526
X43.219 Y61.612
X42.262 Y61.648
X41.304 Y61.635
X40.349 Y61.574
X39.397 Y61.464
X38.453 Y61.304
X37.518 Y61.097
X36.595 Y60.842
X35.686 Y60.541
X34.793 Y60.195
X33.918 Y59.805
X33.064 Y59.371
X32.233 Y58.895
X31.428 Y58.377
X30.65 Y57.818
X29.901 Y57.222
X29.182 Y56.589
X28.496 Y55.921
X27.844 Y55.22
X27.227 Y54.487
X26.647 Y53.725
X26.106 Y52.934
X25.606 Y52.117
X25.148 Y51.277
X24.732 Y50.414
X24.359 Y49.532
X24.03 Y48.633
X23.745 Y47.718
X23.506 Y46.791
X23.313 Y45.853
X23.168 Y44.906
X23.071 Y43.953
X23.021 Y42.997
X23.018 Y42.039
X23.062 Y41.082
X23.153 Y40.129
X23.29 Y39.181
X23.473 Y38.241
X23.702 Y37.311
X23.979 Y36.394
X24.3 Y35.492
X24.665 Y34.607
X25.073 Y33.74
X25.522 Y32.895
X26.012 Y32.072
X26.542 Y31.274
X27.11 Y30.503
X27.715 Y29.761
X28.358 Y29.051
X29.035 Y28.373
X29.744 Y27.729
X30.483 Y27.121
X31.252 Y26.549
X32.047 Y26.016
X32.868 Y25.522
X33.711 Y25.069
X34.577 Y24.659
X35.462 Y24.293
X36.363 Y23.97
X37.28 Y23.692
X38.208 Y23.458
X39.148 Y23.27
X40.095 Y23.128
X41.047 Y23.032
X42.004 Y22.982
X42.962 Y22.981
X43.918 Y23.028
X44.871 Y23.12
X45.819 Y23.259
X46.759 Y23.443
X47.689 Y23.673
X48.606 Y23.947
X49.51 Y24.265
X50.396 Y24.626
X51.265 Y25.031
X52.112 Y25.476
X52.938 Y25.962
X53.74 Y26.485
X54.517 Y27.045
X55.266 Y27.641
X55.987 Y28.272
X56.678 Y28.935
X57.337 Y29.63
X57.962 Y30.356
X58.552 Y31.11
X59.107 Y31.89
X59.625 Y32.696
X60.106 Y33.524
X60.548 Y34.373
X60.951 Y35.242
X61.313 Y36.129
X61.633 Y37.032
X61.91 Y37.948
X62.144 Y38.877
X62.334 Y39.816
X62.48 Y40.762
X62.583 Y41.714
X62.641 Y42.67
X62.655 Y43.628
X62.625 Y44.585
X62.55 Y45.54
X62.429 Y46.49
X62.263 Y47.433
X62.053 Y48.368
X61.799 Y49.291
X61.503 Y50.202
X61.165 Y51.098
X60.785 Y51.977
X60.365 Y52.838
X59.905 Y53.677
X59.405 Y54.494
X58.867 Y55.286
X58.292 Y56.052
X57.682 Y56.791
X57.039 Y57.5
X56.363 Y58.179
X55.656 Y58.825
X54.92 Y59.438
X54.157 Y60.016
X53.367 Y60.557
X52.552 Y61.061
X51.714 Y61.526
X50.857 Y61.951
X49.98 Y62.337
X49.087 Y62.682
X48.179 Y62.986
X47.257 Y63.248
X46.325 Y63.467
X45.383 Y63.642
X44.435 Y63.773
X43.481 Y63.861
X42.524 Y63.905
X41.567
X40.61 Y63.862
X39.656 Y63.776
X38.707 Y63.646
X37.765 Y63.474
X36.832 Y63.258
X35.91 Y63.
X35. Y62.7
X34.105 Y62.36
X33.226 Y61.979
X32.365 Y61.56
X31.524 Y61.103
X30.704 Y60.608
X29.907 Y60.077
X29.134 Y59.511
X28.388 Y58.91
X27.67 Y58.276
X26.982 Y57.611
X26.323 Y56.916
X25.696 Y56.192
X25.101 Y55.441
X24.54 Y54.665
X24.015 Y53.864
X23.525 Y53.041
X23.073 Y52.197
X22.66 Y51.333
X22.286 Y50.451
X21.951 Y49.554
X21.656 Y48.643
X21.401 Y47.72
X21.188 Y46.786
X21.016 Y45.844
X20.885 Y44.895
X20.798 Y43.942
X20.753 Y42.985
X20.751 Y42.027
X20.791 Y41.071
X20.873 Y40.116
X20.997 Y39.167
X21.163 Y38.223
X21.369 Y37.288
X21.617 Y36.363
X21.904 Y35.45
X22.233 Y34.55
X22.601 Y33.666
X23.008 Y32.799
X23.453 Y31.951
X23.934 Y31.123
X24.451 Y30.317
X25.003 Y29.534
X25.588 Y28.776
X26.206 Y28.044
X26.856 Y27.341
X27.537 Y26.668
X28.247 Y26.025
X28.985 Y25.415
X29.749 Y24.837
X30.538 Y24.294
X31.349 Y23.785
X32.182 Y23.312
X33.035 Y22.877
X33.906 Y22.479
X34.794 Y22.12
X35.697 Y21.801
X36.614 Y21.523
X37.541 Y21.285
X38.478 Y21.088
X39.423 Y20.931
X40.374 Y20.816
X41.329 Y20.743
X42.286 Y20.711
X43.244 Y20.721
X44.2 Y20.774
X45.153 Y20.869
X46.101 Y21.006
X47.042 Y21.185
X47.974 Y21.403
X48.896 Y21.662
X49.806 Y21.96
X50.703 Y22.297
X51.584 Y22.672
X52.448 Y23.085
X53.293 Y23.535
X54.119 Y24.021
X54.922 Y24.542
X55.703 Y25.097
X56.46 Y25.683
X57.192 Y26.301
X57.897 Y26.949
X58.574 Y27.626
X59.222 Y28.331
X59.841 Y29.063
X60.427 Y29.82
X60.981 Y30.601
X61.501 Y31.405
X61.988 Y32.23
X62.44 Y33.074
X62.856 Y33.937
X63.237 Y34.815
X63.581 Y35.709
X63.887 Y36.617
X64.154 Y37.536
X64.382 Y38.467
X64.57 Y39.406
X64.719 Y40.352
X64.828 Y41.303
X64.897 Y42.258
X64.927 Y43.216
X64.917 Y44.173
X64.866 Y45.13
X64.775 Y46.083
X64.644 Y47.032
X64.473 Y47.974
X64.261 Y48.908
X64.009 Y49.832
X63.719 Y50.745
X63.391 Y51.645
X63.026 Y52.53
X62.624 Y53.399
X62.186 Y54.251
X61.713 Y55.083
X61.204 Y55.895
X60.661 Y56.684
X60.085 Y57.449
X59.477 Y58.189
X58.839 Y58.902
X58.171 Y59.589
X57.475 Y60.247
X56.753 Y60.876
X56.004 Y61.473
X55.232 Y62.039
X54.436 Y62.572
X53.618 Y63.071
X52.78 Y63.534
X51.923 Y63.962
X51.05 Y64.354
X50.16 Y64.709
X49.257 Y65.027
X48.341 Y65.308
X47.415 Y65.551
X46.479 Y65.755
X45.536 Y65.921
X44.586 Y66.046
X43.633 Y66.131
X42.676 Y66.177
X41.718 Y66.183
X40.761 Y66.15
X39.806 Y66.078
X38.855 Y65.967
X37.909 Y65.818
X36.97 Y65.63
X36.039 Y65.403
X35.119 Y65.139
X34.21 Y64.836
X33.315 Y64.496
X32.434 Y64.12
X31.569 Y63.708
X30.722 Y63.262
X29.893 Y62.783
X29.084 Y62.27
X28.297 Y61.725
X27.532 Y61.149
X26.791 Y60.542
X26.076 Y59.905
X25.388 Y59.239
X24.727 Y58.546
X24.094 Y57.827
X23.491 Y57.083
X22.918 Y56.315
X22.376 Y55.526
X21.866 Y54.715
X21.389 Y53.885
X20.946 Y53.036
X20.538 Y52.169
X20.166 Y51.287
X19.83 Y50.39
X19.53 Y49.481
X19.266 Y48.56
X19.04 Y47.629
X18.85 Y46.691
X18.698 Y45.745
X18.584 Y44.794
X18.508 Y43.839
X18.471 Y42.882
X18.473 Y41.925
X18.514 Y40.968
X18.593 Y40.013
X18.709 Y39.063
X18.864 Y38.118
X19.055 Y37.179
X19.284 Y36.249
X19.549 Y35.329
X19.85 Y34.42
X20.188 Y33.524
X20.562 Y32.642
X20.971 Y31.776
X21.414 Y30.927
X21.891 Y30.097
X22.4 Y29.286
X22.941 Y28.495
X23.513 Y27.727
X24.115 Y26.982
X24.746 Y26.261
X25.405 Y25.567
X26.091 Y24.899
X26.804 Y24.26
X27.543 Y23.65
X28.305 Y23.07
X29.089 Y22.52
X29.895 Y22.002
X30.72 Y21.517
X31.564 Y21.064
X32.425 Y20.645
X33.302 Y20.26
X34.194 Y19.911
X35.099 Y19.598
X36.016 Y19.323
X36.944 Y19.084
X37.88 Y18.882
X38.823 Y18.717
X39.772 Y18.589
X40.726 Y18.499
X41.682 Y18.446
X42.64 Y18.431
X43.597 Y18.454
X44.553 Y18.515
X45.505 Y18.615
X46.453 Y18.753
X47.395 Y18.929
X48.328 Y19.141
X49.253 Y19.39
X50.168 Y19.674
X51.07 Y19.994
X51.96 Y20.348
X52.835 Y20.737
X53.695 Y21.16
X54.537 Y21.616
X55.36 Y22.105
X56.164 Y22.626
X56.947 Y23.177
X57.708 Y23.758
X58.447 Y24.368
X59.162 Y25.005
X59.852 Y25.669
X60.517 Y26.359
X61.154 Y27.073
X61.764 Y27.811
X62.346 Y28.573
X62.897 Y29.356
X63.417 Y30.16
X63.907 Y30.983
X64.365 Y31.824
X64.791 Y32.681
X65.185 Y33.555
X65.545 Y34.442
X65.872 Y35.342
X66.164 Y36.254
X66.421 Y37.177
X66.642 Y38.108
X66.827 Y39.048
X66.976 Y39.994
X67.088 Y40.945
X67.165 Y41.9
X67.205 Y42.857
X67.208 Y43.814
X67.176 Y44.772
X67.107 Y45.727
X67.002 Y46.679
X66.861 Y47.626
X66.682 Y48.567
X66.467 Y49.5
X66.216 Y50.424
X65.929 Y51.338
X65.608 Y52.24
X65.253 Y53.13
X64.864 Y54.005
X64.443 Y54.865
X63.989 Y55.708
X63.503 Y56.534
X62.986 Y57.34
X62.438 Y58.125
X61.859 Y58.888
X61.251 Y59.628
X60.616 Y60.345
X59.953 Y61.036
X59.265 Y61.703
X58.553 Y62.342
X57.816 Y62.955
X57.057 Y63.539
X56.277 Y64.093
X55.475 Y64.618
X54.654 Y65.111
X53.815 Y65.572
X52.958 Y66.
X52.086 Y66.395
X51.199 Y66.758
X50.3 Y67.086
X49.389 Y67.381
X48.467 Y67.642
X47.536 Y67.868
X46.598 Y68.058
X45.653 Y68.213
X44.703 Y68.332
X43.748 Y68.414
X42.792 Y68.46
X41.834 Y68.47
X40.877 Y68.444
X39.921 Y68.383
X38.968 Y68.286
X38.02 Y68.154
X37.077 Y67.987
X36.141 Y67.785
X35.213 Y67.548
X34.294 Y67.277
X33.387 Y66.97
X32.492 Y66.63
X31.61 Y66.257
X30.742 Y65.851
X29.89 Y65.413
X29.055 Y64.945
X28.237 Y64.446
X27.438 Y63.918
X26.66 Y63.361
X25.902 Y62.775
X25.166 Y62.162
X24.454 Y61.521
X23.767 Y60.854
X23.105 Y60.162
X22.469 Y59.447
X21.859 Y58.708
X21.276 Y57.948
X20.722 Y57.167
X20.196 Y56.366
X19.7 Y55.547
X19.235 Y54.71
X18.8 Y53.857
X18.397 Y52.988
X18.028 Y52.105
X17.691 Y51.208
X17.388 Y50.3
X17.118 Y49.381
X16.881 Y48.453
X16.678 Y47.517
X16.51 Y46.574
X16.375 Y45.626
X16.275 Y44.673
X16.21 Y43.718
X16.18 Y42.761
X16.186 Y41.803
X16.228 Y40.846
X16.304 Y39.892
X16.416 Y38.94
X16.561 Y37.994
X16.741 Y37.053
X16.954 Y36.12
X17.201 Y35.194
X17.481 Y34.278
X17.795 Y33.373
X18.14 Y32.48
X18.519 Y31.601
X18.931 Y30.736
X19.374 Y29.887
X19.847 Y29.054
X20.35 Y28.24
X20.883 Y27.443
X21.444 Y26.667
X22.032 Y25.911
X22.647 Y25.177
X23.288 Y24.466
X23.955 Y23.778
X24.646 Y23.116
X25.362 Y22.48
X26.101 Y21.871
X26.862 Y21.289
X27.643 Y20.735
X28.444 Y20.21
X29.263 Y19.713
X30.1 Y19.247
X30.952 Y18.811
X31.82 Y18.406
X32.702 Y18.033
X33.597 Y17.692
X34.504 Y17.385
X35.422 Y17.111
X36.349 Y16.871
X37.285 Y16.666
X38.227 Y16.494
X39.174 Y16.356
X40.126 Y16.252
X41.082 Y16.182
X42.039 Y16.146
X42.996 Y16.145
X43.953 Y16.179
X44.909 Y16.248
X45.861 Y16.352
X46.808 Y16.491
X47.75 Y16.664
X48.685 Y16.871
X49.612 Y17.111
X50.53 Y17.384
X51.438 Y17.69
X52.334 Y18.027
X53.218 Y18.396
X54.088 Y18.796
X54.944 Y19.227
X55.783 Y19.688
X56.605 Y20.179
X57.409 Y20.7
X58.193 Y21.249
X58.958 Y21.825
X59.703 Y22.428
X60.426 Y23.056
X61.127 Y23.708
X61.804 Y24.385
X62.458 Y25.085
X63.087 Y25.807
X63.691 Y26.55
X64.268 Y27.315
X64.816 Y28.1
X65.337 Y28.903
X65.83 Y29.725
X66.293 Y30.563
X66.728 Y31.416
X67.132 Y32.284
X67.507 Y33.166
X67.851 Y34.06
X68.163 Y34.965
X68.444 Y35.88
X68.693 Y36.805
X68.909 Y37.738
X69.091 Y38.679
X69.24 Y39.625
X69.356 Y40.575
X69.439 Y41.529
X69.488 Y42.486
X69.504 Y43.443
X69.487 Y44.401
X69.437 Y45.357
X69.354 Y46.311
X69.237 Y47.262
X69.087 Y48.208
X68.903 Y49.148
X68.686 Y50.08
X68.435 Y51.005
X68.152 Y51.92
X67.837 Y52.824
X67.491 Y53.717
X67.114 Y54.598
X66.707 Y55.464
X66.27 Y56.317
X65.804 Y57.153
X65.308 Y57.973
X64.784 Y58.774
X64.232 Y59.556
X63.652 Y60.318
X63.045 Y61.059
X62.412 Y61.778
X61.755 Y62.475
X61.074 Y63.148
X60.37 Y63.798
X59.644 Y64.422
X58.897 Y65.022
X58.13 Y65.595
X57.343 Y66.141
X56.537 Y66.659
X55.714 Y67.148
X54.874 Y67.607
X54.017 Y68.036
X53.147 Y68.435
X52.263 Y68.804
X51.367 Y69.142
X50.46 Y69.45
X49.543 Y69.726
X48.617 Y69.97
X47.683 Y70.183
X46.743 Y70.363
X45.796 Y70.511
X44.846 Y70.625
X43.891 Y70.705
X42.935 Y70.752
X41.977 Y70.766
X41.02 Y70.747
X40.063 Y70.695
X39.109 Y70.611
X38.159 Y70.494
X37.213 Y70.346
X36.272 Y70.165
X35.338 Y69.953
X34.412 Y69.709
X33.495 Y69.432
X32.589 Y69.123
X31.693 Y68.783
X30.81 Y68.413
X29.94 Y68.013
X29.084 Y67.584
X28.243 Y67.126
X27.417 Y66.64
X26.609 Y66.127
X25.818 Y65.587
X25.046 Y65.02
X24.293 Y64.428
X23.561 Y63.81
X22.852 Y63.167
X22.165 Y62.5
X21.501 Y61.81
X20.86 Y61.098
X20.244 Y60.365
X19.653 Y59.611
X19.087 Y58.839
X18.548 Y58.047
X18.035 Y57.239
X17.549 Y56.413
X17.092 Y55.572
X16.663 Y54.715
X16.264 Y53.845
X15.896 Y52.961
X15.558 Y52.065
X15.25 Y51.158
X14.973 Y50.241
X14.727 Y49.315
X14.511 Y48.382
X14.327 Y47.442
X14.174 Y46.497
X14.053 Y45.547
X13.963 Y44.594
X13.906 Y43.638
X13.881 Y42.68
X13.89 Y41.722
X13.931 Y40.766
X14.004 Y39.811
X14.109 Y38.859
X14.246 Y37.911
X14.414 Y36.968
X14.614 Y36.031
X14.844 Y35.102
X15.104 Y34.18
X15.396 Y33.268
X15.717 Y32.366
X16.069 Y31.475
X16.451 Y30.597
X16.863 Y29.733
X17.304 Y28.882
X17.774 Y28.048
X18.27 Y27.229
X18.794 Y26.427
X19.344 Y25.643
X19.92 Y24.878
X20.52 Y24.131
X21.145 Y23.406
X21.794 Y22.701
X22.466 Y22.019
X23.161 Y21.36
X23.878 Y20.725
X24.616 Y20.115
X25.375 Y19.531
X26.153 Y18.972
X26.948 Y18.439
X27.761 Y17.932
X28.59 Y17.453
X29.435 Y17.002
X30.294 Y16.578
X31.166 Y16.184
X32.052 Y15.818
X32.949 Y15.483
X33.857 Y15.179
X34.775 Y14.906
X35.702 Y14.664
X36.636 Y14.453
X37.576 Y14.273
X38.523 Y14.125
X39.473 Y14.007
X40.427 Y13.922
X41.383 Y13.867
X42.34 Y13.844
X43.298 Y13.853
X44.255 Y13.894
X45.21 Y13.967
X46.162 Y14.073
X47.109 Y14.211
X48.052 Y14.38
X48.988 Y14.581
X49.918 Y14.812
X50.839 Y15.074
X51.751 Y15.365
X52.654 Y15.686
X53.545 Y16.037
X54.424 Y16.416
X55.291 Y16.823
X56.144 Y17.259
X56.981 Y17.724
X57.803 Y18.216
X58.608 Y18.735
X59.395 Y19.28
X60.165 Y19.85
X60.915 Y20.445
X61.646 Y21.063
X62.357 Y21.705
X63.047 Y22.369
X63.716 Y23.055
X64.362 Y23.761
X64.986 Y24.489
X65.585 Y25.236
X66.159 Y26.002
X66.707 Y26.787
X67.23 Y27.59
X67.727 Y28.409
X68.197 Y29.243
X68.64 Y30.092
X69.056 Y30.955
X69.444 Y31.83
X69.804 Y32.718
X70.136 Y33.616
X70.439 Y34.524
X70.713 Y35.442
X70.957 Y36.368
X71.17 Y37.302
X71.352 Y38.242
X71.503 Y39.188
X71.623 Y40.138
X71.714 Y41.091
X71.773 Y42.047
X71.802 Y43.005
X71.8 Y43.962
X71.768 Y44.919
X71.706 Y45.875
X71.612 Y46.828
X71.488 Y47.778
X71.333 Y48.723
X71.146 Y49.662
X70.929 Y50.595
X70.681 Y51.52
X70.403 Y52.436
X70.096 Y53.344
X69.76 Y54.24
X69.395 Y55.126
X69.002 Y55.999
X68.582 Y56.86
X68.134 Y57.706
X67.659 Y58.538
X67.158 Y59.354
X66.63 Y60.153
X66.076 Y60.934
X65.496 Y61.696
X64.891 Y62.439
X64.263 Y63.162
X63.612 Y63.864
X62.939 Y64.545
X62.244 Y65.205
X61.529 Y65.842
X60.794 Y66.455
X60.04 Y67.046
X59.267 Y67.611
X58.476 Y68.152
X57.668 Y68.666
X56.844 Y69.153
X56.004 Y69.613
X55.149 Y70.045
X54.281 Y70.45
X53.401 Y70.827
X52.509 Y71.176
X51.606 Y71.496
X50.694 Y71.787
X49.773 Y72.05
X48.844 Y72.284
X47.908 Y72.488
X46.967 Y72.662
X46.02 Y72.805
X45.069 Y72.916
X44.114 Y72.997
X43.158 Y73.048
X42.2 Y73.068
X41.243 Y73.057
X40.286 Y73.016
X39.331 Y72.946
X38.379 Y72.845
X37.43 Y72.715
X36.485 Y72.555
X35.547 Y72.366
X34.614 Y72.147
X33.689 Y71.898
X32.773 Y71.619
X31.867 Y71.311
X30.97 Y70.974
X30.085 Y70.609
X29.211 Y70.216
X28.35 Y69.797
X27.503 Y69.35
X26.67 Y68.878
X25.852 Y68.38
X25.05 Y67.857
X24.264 Y67.309
X23.496 Y66.737
X22.747 Y66.141
X22.017 Y65.521
X21.307 Y64.878
X20.618 Y64.212
X19.951 Y63.526
X19.305 Y62.818
X18.681 Y62.092
X18.081 Y61.346
X17.503 Y60.582
X16.949 Y59.8
X16.42 Y59.002
X15.915 Y58.188
X15.436 Y57.359
X14.984 Y56.515
X14.558 Y55.657
X14.161 Y54.786
X13.791 Y53.902
X13.449 Y53.008
X13.135 Y52.103
X12.849 Y51.189
X12.592 Y50.266
X12.363 Y49.337
X12.163 Y48.4
X11.991 Y47.458
X11.849 Y46.511
X11.736 Y45.56
X11.652 Y44.606
X11.599 Y43.649
X11.576 Y42.692
X11.584 Y41.734
X11.622 Y40.777
X11.689 Y39.822
X11.786 Y38.869
X11.913 Y37.92
X12.068 Y36.975
X12.252 Y36.035
X12.465 Y35.101
X12.706 Y34.175
X12.976 Y33.256
X13.274 Y32.345
X13.6 Y31.445
X13.954 Y30.555
X14.337 Y29.677
X14.747 Y28.812
X15.184 Y27.96
X15.647 Y27.121
X16.136 Y26.298
X16.649 Y25.489
X17.187 Y24.697
X17.749 Y23.922
X18.335 Y23.164
X18.943 Y22.424
X19.574 Y21.704
X20.227 Y21.003
X20.902 Y20.323
X21.598 Y19.666
X22.314 Y19.03
X23.05 Y18.417
X23.805 Y17.828
X24.577 Y17.262
X25.367 Y16.72
X26.173 Y16.202
X26.994 Y15.709
X27.83 Y15.242
X28.679 Y14.8
X29.542 Y14.384
X30.417 Y13.995
X31.304 Y13.634
X32.202 Y13.301
X33.111 Y12.997
X34.028 Y12.722
X34.953 Y12.475
X35.886 Y12.256
X36.824 Y12.067
X37.768 Y11.906
X38.717 Y11.774
X39.669 Y11.671
X40.624 Y11.597
X41.581 Y11.552
X42.538 Y11.537
X43.496 Y11.551
X44.452 Y11.595
X45.407 Y11.67
X46.359 Y11.774
X47.307 Y11.908
X48.251 Y12.071
X49.189 Y12.263
X50.121 Y12.484
X51.046 Y12.732
X51.963 Y13.008
X52.872 Y13.312
X53.77 Y13.643
X54.659 Y14.001
X55.536 Y14.385
X56.4 Y14.797
X57.252 Y15.235
X58.089 Y15.7
X58.912 Y16.19
X59.72 Y16.705
X60.511 Y17.244
X61.287 Y17.806
X62.044 Y18.392
X62.785 Y18.999
X63.507 Y19.629
X64.209 Y20.279
X64.893 Y20.95
X65.556 Y21.641
X66.198 Y22.351
X66.818 Y23.081
X67.416 Y23.83
X67.99 Y24.596
X68.541 Y25.379
X69.068 Y26.179
X69.571 Y26.994
X70.05 Y27.824
X70.504 Y28.667
X70.932 Y29.523
X71.335 Y30.392
X71.713 Y31.272
X72.064 Y32.163
X72.39 Y33.064
X72.688 Y33.974
X72.958 Y34.893
X73.199 Y35.819
X73.413 Y36.753
X73.598 Y37.693
X73.754 Y38.638
X73.883 Y39.587
X73.983 Y40.539
X74.055 Y41.494
X74.098 Y42.451
X74.113 Y43.408
X74.1 Y44.366
X74.059 Y45.323
X73.989 Y46.278
X73.891 Y47.231
X73.763 Y48.18
X73.606 Y49.124
X73.42 Y50.064
X73.206 Y50.997
X72.964 Y51.924
X72.694 Y52.843
X72.397 Y53.753
X72.073 Y54.654
X71.722 Y55.546
X71.345 Y56.426
X70.942 Y57.295
X70.514 Y58.151
X70.06 Y58.995
X69.582 Y59.824
X69.077 Y60.638
X68.548 Y61.437
X67.995 Y62.218
X67.418 Y62.983
X66.819 Y63.73
X66.197 Y64.459
X65.554 Y65.168
X64.891 Y65.859
X64.207 Y66.529
X63.503 Y67.179
X62.781 Y67.808
X62.041 Y68.416
X61.283 Y69.001
X60.507 Y69.563
X59.715 Y70.101
X58.907 Y70.614
X58.083 Y71.103
X57.245 Y71.567
X56.394 Y72.005
X55.529 Y72.418
X54.653 Y72.805
X53.766 Y73.166
X52.869 Y73.501
X51.963 Y73.81
X51.047 Y74.092
X50.124 Y74.347
X49.194 Y74.574
X48.257 Y74.774
X47.315 Y74.945
X46.368 Y75.088
X45.417 Y75.201
X44.463 Y75.287
X43.507 Y75.344
X42.55 Y75.373
X41.592
X40.635 Y75.346
X39.679 Y75.291
X38.725 Y75.208
X37.773 Y75.097
X36.826 Y74.959
X35.882 Y74.794
X34.944 Y74.6
X34.013 Y74.379
X33.088 Y74.129
X32.171 Y73.852
X31.263 Y73.547
X30.365 Y73.217
X29.476 Y72.86
X28.598 Y72.477
X27.732 Y72.069
X26.877 Y71.636
X26.036 Y71.178
X25.208 Y70.697
X24.394 Y70.192
X23.596 Y69.664
X22.812 Y69.113
X22.046 Y68.538
X21.297 Y67.941
X20.567 Y67.322
X19.855 Y66.681
X19.162 Y66.02
X18.488 Y65.339
X17.835 Y64.639
X17.202 Y63.921
X16.59 Y63.184
X15.999 Y62.43
X15.43 Y61.66
X14.884 Y60.873
X14.36 Y60.072
X13.859 Y59.255
X13.383 Y58.424
X12.932 Y57.579
X12.506 Y56.722
X12.106 Y55.852
X11.731 Y54.97
X11.382 Y54.079
X11.059 Y53.177
X10.762 Y52.267
X10.491 Y51.348
X10.246 Y50.422
X10.028 Y49.489
X9.837 Y48.551
X9.673 Y47.607
X9.535 Y46.66
X9.426 Y45.708
X9.345 Y44.754
X9.292 Y43.798
X9.267 Y42.84
X9.27 Y41.883
X9.301 Y40.926
X9.359 Y39.97
X9.445 Y39.016
X9.559 Y38.065
X9.699 Y37.117
X9.866 Y36.174
X10.06 Y35.237
X10.28 Y34.305
X10.527 Y33.379
X10.8 Y32.461
X11.101 Y31.552
X11.428 Y30.652
X11.781 Y29.762
X12.161 Y28.882
X12.565 Y28.014
X12.995 Y27.158
X13.449 Y26.315
X13.927 Y25.485
X14.428 Y24.669
X14.952 Y23.868
X15.499 Y23.082
X16.068 Y22.311
X16.659 Y21.557
X17.27 Y20.821
X17.904 Y20.102
X18.558 Y19.403
X19.232 Y18.723
X19.927 Y18.063
X20.64 Y17.424
X21.371 Y16.805
X22.12 Y16.208
X22.885 Y15.633
X23.667 Y15.079
X24.464 Y14.548
X25.276 Y14.04
X26.102 Y13.555
X26.941 Y13.094
X27.793 Y12.657
X28.657 Y12.245
X29.533 Y11.858
X30.421 Y11.497
X31.318 Y11.163
X32.225 Y10.855
X33.14 Y10.573
X34.063 Y10.317
X34.993 Y10.088
X35.929 Y9.886
X36.871 Y9.711
X37.817 Y9.562
X38.767 Y9.44
X39.719 Y9.345
X40.675 Y9.277
X41.632 Y9.236
X42.589 Y9.223
X43.547 Y9.239
X44.503 Y9.282
X45.459 Y9.353
X46.411 Y9.452
X47.36 Y9.579
X48.306 Y9.732
X49.246 Y9.912
X50.182 Y10.119
X51.11 Y10.351
X52.033 Y10.61
X52.947 Y10.895
X53.853 Y11.205
X54.75 Y11.541
X55.637 Y11.901
X56.513 Y12.288
X57.378 Y12.7
X58.231 Y13.136
X59.07 Y13.597
X59.896 Y14.081
X60.708 Y14.589
X61.506 Y15.119
X62.288 Y15.671
X63.055 Y16.245
X63.806 Y16.84
X64.54 Y17.455
X65.256 Y18.09
X65.955 Y18.745
X66.636 Y19.419
X67.297 Y20.112
X67.938 Y20.824
X68.558 Y21.553
X69.158 Y22.3
X69.736 Y23.064
X70.292 Y23.843
X70.827 Y24.638
X71.339 Y25.447
X71.829 Y26.27
X72.295 Y27.106
X72.739 Y27.955
X73.159 Y28.816
X73.556 Y29.687
X73.928 Y30.57
X74.276 Y31.462
X74.598 Y32.364
X74.895 Y33.274
X75.165 Y34.193
X75.41 Y35.119
X75.628 Y36.052
X75.82 Y36.99
X75.986 Y37.933
X76.125 Y38.881
X76.238 Y39.832
X76.325 Y40.785
X76.386 Y41.741
X76.42 Y42.698
X76.428 Y43.656
X76.409 Y44.613
X76.364 Y45.57
X76.292 Y46.525
X76.192 Y47.477
X76.066 Y48.427
X75.912 Y49.372
X75.732 Y50.313
X75.525 Y51.248
X75.292 Y52.177
X75.033 Y53.099
X74.749 Y54.013
X74.44 Y54.92
X74.106 Y55.817
X73.747 Y56.705
X73.363 Y57.583
X72.956 Y58.449
X72.525 Y59.305
X72.069 Y60.147
X71.59 Y60.976
X71.087 Y61.791
X70.561 Y62.591
X70.012 Y63.376
X69.442 Y64.146
X68.851 Y64.899
X68.238 Y65.635
X67.606 Y66.355
X66.954 Y67.056
X66.283 Y67.739
X65.593 Y68.404
X64.886 Y69.049
X64.16 Y69.675
X63.418 Y70.28
X62.659 Y70.863
X61.883 Y71.425
X61.092 Y71.965
X60.286 Y72.482
X59.465 Y72.976
X58.632 Y73.447
X57.785 Y73.895
X56.926 Y74.319
X56.056 Y74.719
X55.175 Y75.095
X54.285 Y75.447
X53.385 Y75.774
X52.476 Y76.077
X51.56 Y76.355
X50.636 Y76.607
X49.705 Y76.833
X48.769 Y77.033
X47.827 Y77.206
X46.88 Y77.353
X45.93 Y77.473
X44.977 Y77.567
X44.022 Y77.635
X43.065 Y77.676
X42.107 Y77.691
X41.15 Y77.68
X40.193 Y77.643
X39.237 Y77.58
X38.284 Y77.491
X37.333 Y77.377
X36.385 Y77.236
X35.442 Y77.069
X34.505 Y76.875
X33.572 Y76.655
X32.647 Y76.41
X31.728 Y76.139
X30.817 Y75.842
X29.915 Y75.521
X29.022 Y75.176
X28.139 Y74.806
X27.265 Y74.412
X26.403 Y73.995
X25.553 Y73.556
X24.714 Y73.093
X23.888 Y72.608
X23.076 Y72.101
X22.278 Y71.571
X21.495 Y71.019
X20.728 Y70.446
X19.977 Y69.852
X19.242 Y69.238
X18.525 Y68.603
X17.825 Y67.949
X17.143 Y67.277
X16.48 Y66.586
X15.835 Y65.878
X15.21 Y65.153
X14.604 Y64.411
X14.018 Y63.653
X13.453 Y62.88
X12.909 Y62.092
X12.386 Y61.289
X11.887 Y60.472
X11.409 Y59.642
X10.955 Y58.799
X10.525 Y57.943
X10.117 Y57.077
X9.734 Y56.199
X9.374 Y55.312
X9.038 Y54.415
X8.727 Y53.509
X8.44 Y52.595
X8.177 Y51.674
X7.94 Y50.747
X7.726 Y49.813
X7.538 Y48.874
X7.376 Y47.93
X7.24 Y46.982
X7.129 Y46.031
X7.045 Y45.077
X6.988 Y44.121
X6.956 Y43.164
X6.95 Y42.206
X6.97 Y41.248
X7.016 Y40.292
X7.087 Y39.337
X7.184 Y38.384
X7.306 Y37.434
X7.454 Y36.488
X7.626 Y35.546
X7.824 Y34.609
X8.046 Y33.677
X8.295 Y32.752
X8.568 Y31.834
X8.866 Y30.924
X9.19 Y30.023
X9.537 Y29.131
X9.909 Y28.248
X10.304 Y27.376
X10.723 Y26.514
X11.164 Y25.664
X11.629 Y24.827
X12.115 Y24.002
X12.623 Y23.19
X13.152 Y22.392
X13.702 Y21.608
X14.274 Y20.839
X14.865 Y20.086
X15.478 Y19.35
X16.11 Y18.631
X16.762 Y17.929
X17.432 Y17.245
X18.121 Y16.58
X18.828 Y15.933
X19.552 Y15.306
X20.292 Y14.699
X21.048 Y14.111
X21.82 Y13.544
X22.606 Y12.997
X23.407 Y12.472
X24.221 Y11.968
X25.049 Y11.486
X25.889 Y11.026
X26.742 Y10.59
X27.606 Y10.177
X28.481 Y9.788
X29.366 Y9.423
X30.261 Y9.082
X31.165 Y8.765
X32.077 Y8.473
X32.997 Y8.205
X33.923 Y7.963
X34.856 Y7.744
X35.793 Y7.551
X36.736 Y7.383
X37.683 Y7.239
X38.633 Y7.121
X39.587 Y7.028
X40.542 Y6.961
X41.499 Y6.92
X42.456 Y6.906
X43.414 Y6.917
X44.371 Y6.955
X45.327 Y7.018
X46.28 Y7.107
X47.231 Y7.221
X48.179 Y7.361
X49.122 Y7.525
X50.061 Y7.715
X50.994 Y7.929
X51.922 Y8.168
X52.842 Y8.431
X53.756 Y8.718
X54.662 Y9.03
X55.558 Y9.366
X56.446 Y9.726
X57.323 Y10.11
X58.19 Y10.517
X59.046 Y10.947
X59.89 Y11.4
X60.721 Y11.875
X61.54 Y12.372
X62.346 Y12.89
X63.137 Y13.429
X63.915 Y13.988
X64.677 Y14.567
X65.425 Y15.166
X66.156 Y15.784
X66.871 Y16.421
X67.569 Y17.077
X68.25 Y17.751
X68.912 Y18.443
X69.556 Y19.152
X70.18 Y19.878
X70.786 Y20.62
X71.371 Y21.378
X71.937 Y22.151
X72.482 Y22.938
X73.006 Y23.739
X73.51 Y24.554
X73.993 Y25.381
X74.453 Y26.221
X74.893 Y27.072
X75.31 Y27.934
X75.705 Y28.806
X76.076 Y29.689
X76.424 Y30.581
X76.748 Y31.482
X77.049 Y32.392
X77.325 Y33.309
X77.577 Y34.233
X77.804 Y35.163
X77.97 Y35.93
X77.981 Y35.989
X78.383 Y38.696
X78.407 Y38.914
X78.452 Y39.566
X78.59 Y42.391
Y42.609
X78.452 Y45.434
X78.407 Y46.086
X78.383 Y46.304
X77.963 Y49.129
X77.842 Y49.781
X77.679 Y50.433
X77.134 Y52.607
X77.078 Y52.824
X76.861 Y53.476
X76.785 Y53.694
X76.081 Y55.662
X76.004 Y55.867
X75.837 Y56.302
X75.751 Y56.519
X74.414 Y59.345
X74.342 Y59.486
X74.174 Y59.78
X74.125 Y59.864
X72.742 Y62.17
X72.611 Y62.388
X72.149 Y63.04
X71.951 Y63.31
X70.54 Y65.213
X70.43 Y65.356
X70.175 Y65.648
X69.98 Y65.865
X68.404 Y67.604
X68.256 Y67.765
X67.765 Y68.256
X67.527 Y68.474
X65.848 Y69.995
X65.648 Y70.175
X65.356 Y70.43
X65.213 Y70.54
X63.257 Y71.991
X63.012 Y72.169
X62.388 Y72.611
X62.04 Y72.821
X59.864 Y74.125
X59.78 Y74.174
X59.486 Y74.342
X59.345 Y74.414
X56.519 Y75.751
X56.302 Y75.837
X55.867 Y76.004
X55.65 Y76.086
X53.694 Y76.785
X53.476 Y76.861
X52.824 Y77.078
X52.607 Y77.134
X49.871 Y77.82
X49.781 Y77.842
X49.129 Y77.963
X46.304 Y78.383
X46.086 Y78.407
X45.434 Y78.452
X42.609 Y78.59
X42.391
X39.566 Y78.452
X38.914 Y78.407
X38.696 Y78.383
X35.871 Y77.963
X35.219 Y77.842
X34.567 Y77.679
X32.393 Y77.134
X32.176 Y77.078
X31.524 Y76.861
X31.306 Y76.785
X29.338 Y76.081
X29.133 Y76.004
X28.698 Y75.837
X28.481 Y75.751
X25.655 Y74.414
X25.514 Y74.342
X25.22 Y74.174
X25.136 Y74.125
X22.83 Y72.742
X22.612 Y72.611
X21.96 Y72.149
X21.69 Y71.951
X19.787 Y70.54
X19.644 Y70.43
X19.352 Y70.175
X19.135 Y69.98
X17.396 Y68.404
X17.235 Y68.256
X16.744 Y67.765
X16.526 Y67.527
X15.005 Y65.848
X14.825 Y65.648
X14.57 Y65.356
X14.46 Y65.213
X13.009 Y63.257
X12.831 Y63.012
X12.389 Y62.388
X12.179 Y62.04
X10.875 Y59.864
X10.826 Y59.78
X10.658 Y59.486
X10.586 Y59.345
X9.249 Y56.519
X9.163 Y56.302
X8.996 Y55.867
X8.914 Y55.65
X8.215 Y53.694
X8.139 Y53.476
X7.922 Y52.824
X7.866 Y52.607
X7.18 Y49.871
X7.158 Y49.781
X7.037 Y49.129
X6.617 Y46.304
X6.593 Y46.086
X6.548 Y45.434
X6.41 Y42.609
Y42.391
X6.548 Y39.566
X6.593 Y38.914
X6.617 Y38.696
X7.037 Y35.871
X7.158 Y35.219
X7.321 Y34.567
X7.866 Y32.393
X7.922 Y32.176
X8.139 Y31.524
X8.215 Y31.306
X8.919 Y29.338
X8.996 Y29.133
X9.163 Y28.698
X9.249 Y28.481
X10.586 Y25.655
X10.658 Y25.514
X10.826 Y25.22
X10.875 Y25.136
X12.258 Y22.83
X12.389 Y22.612
X12.851 Y21.96
X13.049 Y21.69
X14.46 Y19.787
X14.57 Y19.644
X14.825 Y19.352
X15.02 Y19.135
X16.596 Y17.396
X16.744 Y17.235
X17.235 Y16.744
X17.473 Y16.526
X19.152 Y15.005
X19.352 Y14.825
X19.644 Y14.57
X19.787 Y14.46
X21.743 Y13.009
X21.988 Y12.831
X22.612 Y12.389
X22.96 Y12.179
X25.136 Y10.875
X25.22 Y10.826
X25.514 Y10.658
X25.655 Y10.586
X28.481 Y9.249
X28.698 Y9.163
X29.133 Y8.996
X29.35 Y8.914
X31.306 Y8.215
X31.524 Y8.139
X32.176 Y7.922
X32.393 Y7.866
X35.129 Y7.18
X35.219 Y7.158
X35.871 Y7.037
X38.696 Y6.617
X38.914 Y6.593
X39.566 Y6.548
X42.391 Y6.41
X42.609
X45.434 Y6.548
X46.086 Y6.593
X46.304 Y6.617
X49.129 Y7.037
X49.781 Y7.158
X50.433 Y7.321
X52.607 Y7.866
X52.824 Y7.922
X53.476 Y8.139
X53.694 Y8.215
X55.662 Y8.919
X55.867 Y8.996
X56.302 Y9.163
X56.519 Y9.249
X59.345 Y10.586
X59.486 Y10.658
X59.78 Y10.826
X59.864 Y10.875
X62.17 Y12.258
X62.388 Y12.389
X63.04 Y12.851
X63.31 Y13.049
X65.213 Y14.46
X65.356 Y14.57
X65.648 Y14.825
X65.865 Y15.02
X67.604 Y16.596
X67.765 Y16.744
X68.256 Y17.235
X68.474 Y17.473
X69.995 Y19.152
X70.175 Y19.352
X70.43 Y19.644
X70.54 Y19.787
X71.991 Y21.743
X72.169 Y21.988
X72.611 Y22.612
X72.821 Y22.96
X74.125 Y25.136
X74.174 Y25.22
X74.342 Y25.514
X74.414 Y25.655
X75.751 Y28.481
X75.837 Y28.698
X76.004 Y29.133
X76.086 Y29.35
X76.785 Y31.306
X76.861 Y31.524
X77.078 Y32.176
X77.134 Y32.393
X77.82 Y35.129
X77.842 Y35.219
X77.963 Y35.871
X77.981 Y35.989
X77.984 Y36.081
X77.973 Y36.173
X77.946 Y36.242 Z-9.995
X77.92 Y36.309 Z-9.982
X77.894 Y36.375 Z-9.959
X77.84 Y36.433 Z-9.921
X77.791 Y36.487 Z-9.871
X77.747 Y36.535 Z-9.812
X77.698 Y36.563 Z-9.741
X77.658 Y36.586 Z-9.663
X77.629 Y36.602 Z-9.579
X77.611 Y36.612 Z-9.491
X77.605 Y36.615 Z-9.4
G0 Z5.
X39.546 Y42.127
Z-7.5
G3 X43.939 Y39.894 Z-7.703 I2.954 J0.373 F333.
X44.39 Y44.795 Z-7.905 I-1.437 J2.604
X39.674 Y43.404 Z-8.108 I-1.886 J-2.295
X42.707 Y39.542 Z-8.311 I2.826 J-0.902
X45.171 Y43.782 Z-8.514 I-0.206 J2.956
X40.326 Y44.503 Z-8.716 I-2.667 J-1.283
X41.446 Y39.74 Z-8.919 I2.176 J-2.002
X45.453 Y42.539 Z-9.122 I1.054 J2.758
X41.376 Y45.224 Z-9.324 I-2.949 J-0.04
X40.39 Y40.449 Z-9.527 I1.126 J-2.722
X45.185 Y41.297 Z-9.73 I2.11 J2.05
X42.628 Y45.434 Z-9.932 I-2.682 J1.201
X39.733 Y41.533 Z-10.135 I-0.124 J-2.932
X44.422 Y40.286 Z-10.338 I2.767 J0.967
X43.847 Y45.098 Z-10.541 I-1.92 J2.211
X39.594 Y42.788 Z-10.743 I-1.343 J-2.598
X43.308 Y39.694 Z-10.946 I2.907 J-0.287
X44.808 Y44.284 Z-11.149 I-0.807 J2.804
X39.995 Y43.981 Z-11.351 I-2.304 J-1.784
X42.053 Y39.626 Z-11.554 I2.506 J-1.479
X45.335 Y43.144 Z-11.757 I0.447 J2.872
X40.858 Y44.89 Z-11.959 I-2.831 J-0.645
X40.891 Y40.091 Z-12.162 I1.644 J-2.389
X45.332 Y41.893 Z-12.365 I1.609 J2.408
X42.019 Y45.35 Z-12.568 I-2.829 J0.605
X40.035 Y40.999 Z-12.77 I0.483 J-2.848
X44.805 Y40.764 Z-12.973 I2.465 J1.5
X43.262 Y45.278 Z-13.176 I-2.303 J1.733
X39.643 Y42.179 Z-13.378 I-0.758 J-2.777
X43.855 Y39.965 Z-13.581 I2.857 J0.322
X44.355 Y44.691 Z-13.784 I-1.353 J2.532
X39.784 Y43.41 Z-13.986 I-1.85 J-2.191
X42.661 Y39.641 Z-14.189 I2.717 J-0.908
X45.096 Y43.703 Z-14.392 I-0.16 J2.856
X40.428 Y44.462 Z-14.595 I-2.591 J-1.203
X41.447 Y39.85 Z-14.797 I2.074 J-1.961
X45.35 Y42.498 Z-15. I1.054 J2.648
X39.65 I-2.85 J0.
X45.35 I2.85 J0.
G1 X45.354 Y42.738 F5000.
X45.531 Y43.679
X45.572 Y43.823
X45.596 Y43.971
X45.607 Y44.121
X45.604 Y44.271
X45.588 Y44.43
X45.557 Y44.598
X45.51 Y44.774
X45.445 Y44.955
X45.362 Y45.141
X45.258 Y45.329
X45.135 Y45.517
X44.99 Y45.702
X44.824 Y45.883
X44.637 Y46.056
X44.429 Y46.219
X44.202 Y46.37
X43.956 Y46.507
X43.692 Y46.626
X43.413 Y46.727
X43.12 Y46.806
X42.816 Y46.863
X42.501 Y46.896
X42.18 Y46.904
X41.855 Y46.885
X41.527 Y46.84
X41.2 Y46.768
X40.877 Y46.669
X40.559 Y46.543
X40.25 Y46.39
X39.952 Y46.212
X39.668 Y46.01
X39.399 Y45.783
X39.147 Y45.535
X38.916 Y45.266
X38.706 Y44.978
X38.519 Y44.673
X38.356 Y44.354
X38.22 Y44.021
X38.11 Y43.677
X38.028 Y43.325
X37.974 Y42.967
X37.95 Y42.606
X37.954 Y42.242
X37.988 Y41.88
X38.05 Y41.522
X38.141 Y41.169
X38.261 Y40.825
X38.407 Y40.491
X38.581 Y40.17
X38.779 Y39.863
X39.002 Y39.573
X39.247 Y39.302
X39.513 Y39.051
X39.799 Y38.823
X40.102 Y38.618
X40.42 Y38.438
X40.753 Y38.284
X41.096 Y38.157
X41.449 Y38.058
X41.808 Y37.988
X42.172 Y37.947
X42.538 Y37.935
X42.904 Y37.953
X43.268 Y38.
X43.626 Y38.076
X43.977 Y38.18
X44.319 Y38.313
X44.649 Y38.472
X44.965 Y38.658
X45.265 Y38.868
X45.548 Y39.101
X45.811 Y39.357
X46.052 Y39.633
X46.271 Y39.927
X46.501 Y40.295
X46.862 Y40.993
X47.118 Y41.601
X47.287 Y42.115
X47.399 Y42.58
X47.469 Y43.02
X47.501 Y43.447
X47.5 Y43.86
X47.466 Y44.262
X47.401 Y44.655
X47.305 Y45.038
X47.179 Y45.413
X47.022 Y45.776
X46.836 Y46.128
X46.621 Y46.467
X46.378 Y46.789
X46.106 Y47.095
X45.807 Y47.381
X45.483 Y47.645
X45.133 Y47.885
X44.76 Y48.1
X44.365 Y48.287
X43.951 Y48.444
X43.521 Y48.568
X43.076 Y48.659
X42.62 Y48.714
X42.156 Y48.733
X41.687 Y48.714
X41.217 Y48.657
X40.748 Y48.562
X40.286 Y48.428
X39.832 Y48.257
X39.391 Y48.048
X38.965 Y47.803
X38.557 Y47.523
X38.172 Y47.21
X37.811 Y46.864
X37.477 Y46.49
X37.174 Y46.088
X36.902 Y45.661
X36.665 Y45.213
X36.464 Y44.745
X36.301 Y44.262
X36.177 Y43.766
X36.093 Y43.261
X36.049 Y42.749
X36.047 Y42.235
X36.086 Y41.722
X36.166 Y41.213
X36.288 Y40.711
X36.449 Y40.22
X36.649 Y39.743
X36.887 Y39.283
X37.161 Y38.844
X37.47 Y38.428
X37.811 Y38.038
X38.183 Y37.676
X38.583 Y37.345
X39.008 Y37.048
X39.456 Y36.785
X39.923 Y36.559
X40.407 Y36.371
X40.905 Y36.223
X41.414 Y36.115
X41.929 Y36.048
X42.448 Y36.023
X42.968 Y36.039
X43.484 Y36.097
X43.995 Y36.197
X44.496 Y36.337
X44.983 Y36.517
X45.455 Y36.735
X45.908 Y36.991
X46.339 Y37.282
X46.756 Y37.615
X47.203 Y38.036
X47.631 Y38.509
X48.033 Y39.031
X48.397 Y39.593
X48.71 Y40.174
X48.969 Y40.764
X49.175 Y41.358
X49.329 Y41.952
X49.433 Y42.544
X49.488 Y43.133
X49.495 Y43.718
X49.456 Y44.295
X49.371 Y44.862
X49.242 Y45.418
X49.069 Y45.96
X48.853 Y46.486
X48.596 Y46.993
X48.298 Y47.479
X47.961 Y47.942
X47.585 Y48.378
X47.174 Y48.785
X46.727 Y49.161
X46.248 Y49.502
X45.74 Y49.806
X45.204 Y50.071
X44.644 Y50.293
X44.062 Y50.472
X43.464 Y50.604
X42.852 Y50.688
X42.231 Y50.724
X41.605 Y50.709
X40.978 Y50.644
X40.354 Y50.527
X39.737 Y50.36
X39.132 Y50.143
X38.544 Y49.876
X37.975 Y49.562
X37.431 Y49.201
X36.916 Y48.795
X36.432 Y48.348
X35.985 Y47.861
X35.576 Y47.338
X35.209 Y46.783
X34.887 Y46.197
X34.613 Y45.586
X34.387 Y44.954
X34.213 Y44.304
X34.092 Y43.641
X34.023 Y42.969
X34.009 Y42.293
X34.05 Y41.617
X34.144 Y40.945
X34.293 Y40.283
X34.494 Y39.633
X34.747 Y39.002
X35.05 Y38.393
X35.401 Y37.809
X35.798 Y37.255
X36.238 Y36.735
X36.719 Y36.251
X37.238 Y35.808
X37.79 Y35.407
X38.373 Y35.052
X38.983 Y34.745
X39.616 Y34.487
X40.267 Y34.281
X40.933 Y34.128
X41.61 Y34.029
X42.292 Y33.985
X42.975 Y33.995
X43.656 Y34.061
X44.329 Y34.18
X44.991 Y34.354
X45.636 Y34.58
X46.264 Y34.858
X46.887 Y35.196
X47.5 Y35.596
X48.097 Y36.057
X48.67 Y36.579
X49.208 Y37.153
X49.701 Y37.775
X50.144 Y38.434
X50.531 Y39.124
X50.86 Y39.839
X51.127 Y40.571
X51.333 Y41.316
X51.478 Y42.069
X51.561 Y42.825
X51.583 Y43.58
X51.544 Y44.329
X51.446 Y45.069
X51.29 Y45.797
X51.076 Y46.507
X50.806 Y47.198
X50.481 Y47.865
X50.104 Y48.504
X49.675 Y49.112
X49.197 Y49.686
X48.673 Y50.222
X48.105 Y50.717
X47.495 Y51.166
X46.848 Y51.568
X46.167 Y51.918
X45.455 Y52.214
X44.718 Y52.454
X43.959 Y52.635
X43.184 Y52.755
X42.397 Y52.812
X41.604 Y52.807
X40.81 Y52.737
X40.019 Y52.603
X39.238 Y52.405
X38.471 Y52.144
X37.725 Y51.821
X37.003 Y51.437
X36.312 Y50.994
X35.657 Y50.496
X35.041 Y49.945
X34.469 Y49.344
X33.946 Y48.697
X33.476 Y48.008
X33.061 Y47.282
X32.704 Y46.523
X32.41 Y45.737
X32.178 Y44.927
X32.013 Y44.101
X31.914 Y43.262
X31.882 Y42.416
X31.919 Y41.57
X32.023 Y40.729
X32.195 Y39.897
X32.433 Y39.082
X32.736 Y38.287
X33.102 Y37.519
X33.529 Y36.783
X34.014 Y36.082
X34.554 Y35.423
X35.145 Y34.808
X35.784 Y34.243
X36.467 Y33.731
X37.188 Y33.275
X37.944 Y32.878
X38.73 Y32.543
X39.54 Y32.273
X40.37 Y32.068
X41.213 Y31.93
X42.065 Y31.861
X42.919 Y31.86
X43.771 Y31.927
X44.616 Y32.063
X45.451 Y32.267
X46.274 Y32.54
X47.083 Y32.883
X47.872 Y33.295
X48.639 Y33.777
X49.379 Y34.33
X50.082 Y34.949
X50.74 Y35.63
X51.345 Y36.365
X51.89 Y37.149
X52.371 Y37.974
X52.783 Y38.832
X53.123 Y39.717
X53.389 Y40.623
X53.581 Y41.542
X53.699 Y42.469
X53.741 Y43.398
X53.709 Y44.323
X53.602 Y45.239
X53.424 Y46.142
X53.173 Y47.025
X52.853 Y47.885
X52.466 Y48.716
X52.012 Y49.514
X51.495 Y50.274
X50.917 Y50.992
X50.281 Y51.663
X49.592 Y52.284
X48.852 Y52.849
X48.065 Y53.355
X47.237 Y53.798
X46.372 Y54.175
X45.475 Y54.483
X44.552 Y54.719
X43.608 Y54.881
X42.655 Y54.967
X41.697 Y54.976
X40.742 Y54.909
X39.794 Y54.767
X38.862 Y54.551
X37.948 Y54.262
X37.061 Y53.903
X36.204 Y53.476
X35.382 Y52.983
X34.601 Y52.429
X33.865 Y51.816
X33.178 Y51.149
X32.544 Y50.431
X31.967 Y49.667
X31.449 Y48.861
X30.994 Y48.018
X30.604 Y47.144
X30.282 Y46.242
X30.03 Y45.318
X29.849 Y44.378
X29.74 Y43.426
X29.703 Y42.469
X29.738 Y41.512
X29.845 Y40.56
X30.023 Y39.619
X30.272 Y38.694
X30.588 Y37.79
X30.971 Y36.913
X31.419 Y36.066
X31.928 Y35.255
X32.496 Y34.484
X33.121 Y33.758
X33.797 Y33.08
X34.523 Y32.456
X35.295 Y31.888
X36.107 Y31.38
X36.954 Y30.934
X37.833 Y30.553
X38.737 Y30.239
X39.663 Y29.992
X40.604 Y29.816
X41.556 Y29.709
X42.513 Y29.674
X43.47 Y29.71
X44.422 Y29.816
X45.363 Y29.993
X46.289 Y30.239
X47.193 Y30.553
X48.072 Y30.933
X48.921 Y31.377
X49.736 Y31.88
X50.514 Y32.438
X51.252 Y33.049
X51.947 Y33.708
X52.594 Y34.414
X53.19 Y35.164
X53.732 Y35.953
X54.22 Y36.777
X54.65 Y37.633
X55.023 Y38.515
X55.335 Y39.42
X55.583 Y40.345
X55.765 Y41.285
X55.881 Y42.236
X55.931 Y43.192
X55.915 Y44.15
X55.833 Y45.104
X55.686 Y46.05
X55.473 Y46.984
X55.194 Y47.9
X54.85 Y48.794
X54.444 Y49.661
X53.978 Y50.498
X53.455 Y51.3
X52.877 Y52.064
X52.249 Y52.787
X51.572 Y53.464
X50.848 Y54.091
X50.082 Y54.666
X49.277 Y55.186
X48.439 Y55.649
X47.572 Y56.055
X46.679 Y56.401
X45.765 Y56.686
X44.832 Y56.906
X43.887 Y57.061
X42.934 Y57.151
X41.977 Y57.178
X41.02 Y57.142
X40.067 Y57.043
X39.123 Y56.879
X38.193 Y56.65
X37.281 Y56.36
X36.389 Y56.011
X35.522 Y55.605
X34.683 Y55.143
X33.875 Y54.628
X33.105 Y54.059
X32.374 Y53.44
X31.685 Y52.775
X31.04 Y52.067
X30.441 Y51.32
X29.891 Y50.536
X29.394 Y49.717
X28.952 Y48.868
X28.567 Y47.991
X28.239 Y47.091
X27.97 Y46.172
X27.759 Y45.238
X27.608 Y44.292
X27.52 Y43.338
X27.494 Y42.381
X27.531 Y41.424
X27.629 Y40.471
X27.786 Y39.527
X28.003 Y38.594
X28.277 Y37.676
X28.612 Y36.779
X29.004 Y35.905
X29.451 Y35.058
X29.95 Y34.241
X30.5 Y33.457
X31.097 Y32.708
X31.741 Y31.999
X32.431 Y31.335
X33.162 Y30.716
X33.932 Y30.146
X34.736 Y29.626
X35.571 Y29.158
X36.434 Y28.742
X37.322 Y28.382
X38.231 Y28.082
X39.158 Y27.841
X40.098 Y27.659
X41.048 Y27.536
X42.003 Y27.473
X42.961 Y27.469
X43.917 Y27.527
X44.867 Y27.647
X45.808 Y27.827
X46.735 Y28.067
X47.646 Y28.363
X48.536 Y28.716
X49.403 Y29.122
X50.244 Y29.582
X51.054 Y30.093
X51.831 Y30.652
X52.574 Y31.256
X53.279 Y31.904
X53.945 Y32.592
X54.57 Y33.318
X55.15 Y34.08
X55.682 Y34.876
X56.166 Y35.703
X56.601 Y36.556
X56.986 Y37.433
X57.318 Y38.331
X57.597 Y39.247
X57.822 Y40.179
X57.988 Y41.122
X58.097 Y42.073
X58.149 Y43.029
X58.144 Y43.987
X58.083 Y44.943
X57.966 Y45.893
X57.793 Y46.835
X57.562 Y47.765
X57.273 Y48.678
X56.929 Y49.572
X56.532 Y50.443
X56.084 Y51.289
X55.587 Y52.108
X55.043 Y52.896
X54.451 Y53.649
X53.815 Y54.365
X53.135 Y55.04
X52.417 Y55.673
X51.662 Y56.262
X50.874 Y56.806
X50.055 Y57.304
X49.209 Y57.751
X48.336 Y58.147
X47.442 Y58.489
X46.529 Y58.778
X45.6 Y59.013
X44.66 Y59.193
X43.711 Y59.319
X42.755 Y59.39
X41.798 Y59.404
X40.841 Y59.362
X39.889 Y59.263
X38.943 Y59.11
X38.008 Y58.902
X37.087 Y58.642
X36.181 Y58.33
X35.295 Y57.967
X34.432 Y57.553
X33.594 Y57.089
X32.784 Y56.578
X32.004 Y56.022
X31.257 Y55.423
X30.544 Y54.783
X29.868 Y54.105
X29.232 Y53.388
X28.638 Y52.637
X28.088 Y51.853
X27.583 Y51.039
X27.125 Y50.199
X26.714 Y49.334
X26.351 Y48.447
X26.039 Y47.542
X25.779 Y46.62
X25.571 Y45.685
X25.417 Y44.74
X25.317 Y43.788
X25.269 Y42.831
X25.274 Y41.873
X25.332 Y40.917
X25.443 Y39.966
X25.608 Y39.023
X25.825 Y38.09
X26.095 Y37.171
X26.415 Y36.268
X26.784 Y35.385
X27.201 Y34.523
X27.664 Y33.684
X28.174 Y32.874
X28.728 Y32.093
X29.326 Y31.344
X29.964 Y30.63
X30.641 Y29.953
X31.354 Y29.314
X32.102 Y28.715
X32.881 Y28.158
X33.691 Y27.647
X34.528 Y27.181
X35.389 Y26.763
X36.273 Y26.394
X37.175 Y26.074
X38.094 Y25.804
X39.026 Y25.584
X39.969 Y25.417
X40.92 Y25.302
X41.876 Y25.241
X42.834 Y25.233
X43.79 Y25.277
X44.743 Y25.375
X45.689 Y25.523
X46.626 Y25.723
X47.55 Y25.976
X48.458 Y26.278
X49.349 Y26.631
X50.219 Y27.031
X51.066 Y27.477
X51.889 Y27.967
X52.685 Y28.5
X53.452 Y29.073
X54.187 Y29.687
X54.888 Y30.34
X55.554 Y31.028
X56.183 Y31.75
X56.773 Y32.504
X57.324 Y33.288
X57.833 Y34.099
X58.301 Y34.935
X58.724 Y35.794
X59.101 Y36.674
X59.431 Y37.573
X59.714 Y38.488
X59.949 Y39.417
X60.134 Y40.356
X60.271 Y41.304
X60.359 Y42.258
X60.397 Y43.215
X60.384 Y44.172
X60.32 Y45.128
X60.206 Y46.079
X60.042 Y47.022
X59.828 Y47.956
X59.565 Y48.877
X59.255 Y49.783
X58.897 Y50.671
X58.492 Y51.539
X58.042 Y52.384
X57.548 Y53.204
X57.011 Y53.998
X56.433 Y54.762
X55.817 Y55.494
X55.162 Y56.193
X54.472 Y56.857
X53.747 Y57.483
X52.99 Y58.07
X52.204 Y58.617
X51.39 Y59.122
X50.551 Y59.584
X49.69 Y60.002
X48.808 Y60.375
X47.907 Y60.701
X46.991 Y60.98
X46.062 Y61.21
X45.121 Y61.393
X44.173 Y61.526
X43.219 Y61.612
X42.262 Y61.648
X41.304 Y61.635
X40.349 Y61.574
X39.397 Y61.464
X38.453 Y61.304
X37.518 Y61.097
X36.595 Y60.842
X35.686 Y60.541
X34.793 Y60.195
X33.918 Y59.805
X33.064 Y59.371
X32.233 Y58.895
X31.428 Y58.377
X30.65 Y57.818
X29.901 Y57.222
X29.182 Y56.589
X28.496 Y55.921
X27.844 Y55.22
X27.227 Y54.487
X26.647 Y53.725
X26.106 Y52.934
X25.606 Y52.117
X25.148 Y51.277
X24.732 Y50.414
X24.359 Y49.532
X24.03 Y48.633
X23.745 Y47.718
X23.506 Y46.791
X23.313 Y45.853
X23.168 Y44.906
X23.071 Y43.953
X23.021 Y42.997
X23.018 Y42.039
X23.062 Y41.082
X23.153 Y40.129
X23.29 Y39.181
X23.473 Y38.241
X23.702 Y37.311
X23.979 Y36.394
X24.3 Y35.492
X24.665 Y34.607
X25.073 Y33.74
X25.522 Y32.895
X26.012 Y32.072
X26.542 Y31.274
X27.11 Y30.503
X27.715 Y29.761
X28.358 Y29.051
X29.035 Y28.373
X29.744 Y27.729
X30.483 Y27.121
X31.252 Y26.549
X32.047 Y26.016
X32.868 Y25.522
X33.711 Y25.069
X34.577 Y24.659
X35.462 Y24.293
X36.363 Y23.97
X37.28 Y23.692
X38.208 Y23.458
X39.148 Y23.27
X40.095 Y23.128
X41.047 Y23.032
X42.004 Y22.982
X42.962 Y22.981
X43.918 Y23.028
X44.871 Y23.12
X45.819 Y23.259
X46.759 Y23.443
X47.689 Y23.673
X48.606 Y23.947
X49.51 Y24.265
X50.396 Y24.626
X51.265 Y25.031
X52.112 Y25.476
X52.938 Y25.962
X53.74 Y26.485
X54.517 Y27.045
X55.266 Y27.641
X55.987 Y28.272
X56.678 Y28.935
X57.337 Y29.63
X57.962 Y30.356
X58.552 Y31.11
X59.107 Y31.89
X59.625 Y32.696
X60.106 Y33.524
X60.548 Y34.373
X60.951 Y35.242
X61.313 Y36.129
X61.633 Y37.032
X61.91 Y37.948
X62.144 Y38.877
X62.334 Y39.816
X62.48 Y40.762
X62.583 Y41.714
X62.641 Y42.67
X62.655 Y43.628
X62.625 Y44.585
X62.55 Y45.54
X62.429 Y46.49
X62.263 Y47.433
X62.053 Y48.368
X61.799 Y49.291
X61.503 Y50.202
X61.165 Y51.098
X60.785 Y51.977
X60.365 Y52.838
X59.905 Y53.677
X59.405 Y54.494
X58.867 Y55.286
X58.292 Y56.052
X57.682 Y56.791
X57.039 Y57.5
X56.363 Y58.179
X55.656 Y58.825
X54.92 Y59.438
X54.157 Y60.016
X53.367 Y60.557
X52.552 Y61.061
X51.714 Y61.526
X50.857 Y61.951
X49.98 Y62.337
X49.087 Y62.682
X48.179 Y62.986
X47.257 Y63.248
X46.325 Y63.467
X45.383 Y63.642
X44.435 Y63.773
X43.481 Y63.861
X42.524 Y63.905
X41.567
X40.61 Y63.862
X39.656 Y63.776
X38.707 Y63.646
X37.765 Y63.474
X36.832 Y63.258
X35.91 Y63.
X35. Y62.7
X34.105 Y62.36
X33.226 Y61.979
X32.365 Y61.56
X31.524 Y61.103
X30.704 Y60.608
X29.907 Y60.077
X29.134 Y59.511
X28.388 Y58.91
X27.67 Y58.276
X26.982 Y57.611
X26.323 Y56.916
X25.696 Y56.192
X25.101 Y55.441
X24.54 Y54.665
X24.015 Y53.864
X23.525 Y53.041
X23.073 Y52.197
X22.66 Y51.333
X22.286 Y50.451
X21.951 Y49.554
X21.656 Y48.643
X21.401 Y47.72
X21.188 Y46.786
X21.016 Y45.844
X20.885 Y44.895
X20.798 Y43.942
X20.753 Y42.985
X20.751 Y42.027
X20.791 Y41.071
X20.873 Y40.116
X20.997 Y39.167
X21.163 Y38.223
X21.369 Y37.288
X21.617 Y36.363
X21.904 Y35.45
X22.233 Y34.55
X22.601 Y33.666
X23.008 Y32.799
X23.453 Y31.951
X23.934 Y31.123
X24.451 Y30.317
X25.003 Y29.534
X25.588 Y28.776
X26.206 Y28.044
X26.856 Y27.341
X27.537 Y26.668
X28.247 Y26.025
X28.985 Y25.415
X29.749 Y24.837
X30.538 Y24.294
X31.349 Y23.785
X32.182 Y23.312
X33.035 Y22.877
X33.906 Y22.479
X34.794 Y22.12
X35.697 Y21.801
X36.614 Y21.523
X37.541 Y21.285
X38.478 Y21.088
X39.423 Y20.931
X40.374 Y20.816
X41.329 Y20.743
X42.286 Y20.711
X43.244 Y20.721
X44.2 Y20.774
X45.153 Y20.869
X46.101 Y21.006
X47.042 Y21.185
X47.974 Y21.403
X48.896 Y21.662
X49.806 Y21.96
X50.703 Y22.297
X51.584 Y22.672
X52.448 Y23.085
X53.293 Y23.535
X54.119 Y24.021
X54.922 Y24.542
X55.703 Y25.097
X56.46 Y25.683
X57.192 Y26.301
X57.897 Y26.949
X58.574 Y27.626
X59.222 Y28.331
X59.841 Y29.063
X60.427 Y29.82
X60.981 Y30.601
X61.501 Y31.405
X61.988 Y32.23
X62.44 Y33.074
X62.856 Y33.937
X63.237 Y34.815
X63.581 Y35.709
X63.887 Y36.617
X64.154 Y37.536
X64.382 Y38.467
X64.57 Y39.406
X64.719 Y40.352
X64.828 Y41.303
X64.897 Y42.258
X64.927 Y43.216
X64.917 Y44.173
X64.866 Y45.13
X64.775 Y46.083
X64.644 Y47.032
X64.473 Y47.974
X64.261 Y48.908
X64.009 Y49.832
X63.719 Y50.745
X63.391 Y51.645
X63.026 Y52.53
X62.624 Y53.399
X62.186 Y54.251
X61.713 Y55.083
X61.204 Y55.895
X60.661 Y56.684
X60.085 Y57.449
X59.477 Y58.189
X58.839 Y58.902
X58.171 Y59.589
X57.475 Y60.247
X56.753 Y60.876
X56.004 Y61.473
X55.232 Y62.039
X54.436 Y62.572
X53.618 Y63.071
X52.78 Y63.534
X51.923 Y63.962
X51.05 Y64.354
X50.16 Y64.709
X49.257 Y65.027
X48.341 Y65.308
X47.415 Y65.551
X46.479 Y65.755
X45.536 Y65.921
X44.586 Y66.046
X43.633 Y66.131
X42.676 Y66.177
X41.718 Y66.183
X40.761 Y66.15
X39.806 Y66.078
X38.855 Y65.967
X37.909 Y65.818
X36.97 Y65.63
X36.039 Y65.403
X35.119 Y65.139
X34.21 Y64.836
X33.315 Y64.496
X32.434 Y64.12
X31.569 Y63.708
X30.722 Y63.262
X29.893 Y62.783
X29.084 Y62.27
X28.297 Y61.725
X27.532 Y61.149
X26.791 Y60.542
X26.076 Y59.905
X25.388 Y59.239
X24.727 Y58.546
X24.094 Y57.827
X23.491 Y57.083
X22.918 Y56.315
X22.376 Y55.526
X21.866 Y54.715
X21.389 Y53.885
X20.946 Y53.036
X20.538 Y52.169
X20.166 Y51.287
X19.83 Y50.39
X19.53 Y49.481
X19.266 Y48.56
X19.04 Y47.629
X18.85 Y46.691
X18.698 Y45.745
X18.584 Y44.794
X18.508 Y43.839
X18.471 Y42.882
X18.473 Y41.925
X18.514 Y40.968
X18.593 Y40.013
X18.709 Y39.063
X18.864 Y38.118
X19.055 Y37.179
X19.284 Y36.249
X19.549 Y35.329
X19.85 Y34.42
X20.188 Y33.524
X20.562 Y32.642
X20.971 Y31.776
X21.414 Y30.927
X21.891 Y30.097
X22.4 Y29.286
X22.941 Y28.495
X23.513 Y27.727
X24.115 Y26.982
X24.746 Y26.261
X25.405 Y25.567
X26.091 Y24.899
X26.804 Y24.26
X27.543 Y23.65
X28.305 Y23.07
X29.089 Y22.52
X29.895 Y22.002
X30.72 Y21.517
X31.564 Y21.064
X32.425 Y20.645
X33.302 Y20.26
X34.194 Y19.911
X35.099 Y19.598
X36.016 Y19.323
X36.944 Y19.084
X37.88 Y18.882
X38.823 Y18.717
X39.772 Y18.589
X40.726 Y18.499
X41.682 Y18.446
X42.64 Y18.431
X43.597 Y18.454
X44.553 Y18.515
X45.505 Y18.615
X46.453 Y18.753
X47.395 Y18.929
X48.328 Y19.141
X49.253 Y19.39
X50.168 Y19.674
X51.07 Y19.994
X51.96 Y20.348
X52.835 Y20.737
X53.695 Y21.16
X54.537 Y21.616
X55.36 Y22.105
X56.164 Y22.626
X56.947 Y23.177
X57.708 Y23.758
X58.447 Y24.368
X59.162 Y25.005
X59.852 Y25.669
X60.517 Y26.359
X61.154 Y27.073
X61.764 Y27.811
X62.346 Y28.573
X62.897 Y29.356
X63.417 Y30.16
X63.907 Y30.983
X64.365 Y31.824
X64.791 Y32.681
X65.185 Y33.555
X65.545 Y34.442
X65.872 Y35.342
X66.164 Y36.254
X66.421 Y37.177
X66.642 Y38.108
X66.827 Y39.048
X66.976 Y39.994
X67.088 Y40.945
X67.165 Y41.9
X67.205 Y42.857
X67.208 Y43.814
X67.176 Y44.772
X67.107 Y45.727
X67.002 Y46.679
X66.861 Y47.626
X66.682 Y48.567
X66.467 Y49.5
X66.216 Y50.424
X65.929 Y51.338
X65.608 Y52.24
X65.253 Y53.13
X64.864 Y54.005
X64.443 Y54.865
X63.989 Y55.708
X63.503 Y56.534
X62.986 Y57.34
X62.438 Y58.125
X61.859 Y58.888
X61.251 Y59.628
X60.616 Y60.345
X59.953 Y61.036
X59.265 Y61.703
X58.553 Y62.342
X57.816 Y62.955
X57.057 Y63.539
X56.277 Y64.093
X55.475 Y64.618
X54.654 Y65.111
X53.815 Y65.572
X52.958 Y66.
X52.086 Y66.395
X51.199 Y66.758
X50.3 Y67.086
X49.389 Y67.381
X48.467 Y67.642
X47.536 Y67.868
X46.598 Y68.058
X45.653 Y68.213
X44.703 Y68.332
X43.748 Y68.414
X42.792 Y68.46
X41.834 Y68.47
X40.877 Y68.444
X39.921 Y68.383
X38.968 Y68.286
X38.02 Y68.154
X37.077 Y67.987
X36.141 Y67.785
X35.213 Y67.548
X34.294 Y67.277
X33.387 Y66.97
X32.492 Y66.63
X31.61 Y66.257
X30.742 Y65.851
X29.89 Y65.413
X29.055 Y64.945
X28.237 Y64.446
X27.438 Y63.918
X26.66 Y63.361
X25.902 Y62.775
X25.166 Y62.162
X24.454 Y61.521
X23.767 Y60.854
X23.105 Y60.162
X22.469 Y59.447
X21.859 Y58.708
X21.276 Y57.948
X20.722 Y57.167
X20.196 Y56.366
X19.7 Y55.547
X19.235 Y54.71
X18.8 Y53.857
X18.397 Y52.988
X18.028 Y52.105
X17.691 Y51.208
X17.388 Y50.3
X17.118 Y49.381
X16.881 Y48.453
X16.678 Y47.517
X16.51 Y46.574
X16.375 Y45.626
X16.275 Y44.673
X16.21 Y43.718
X16.18 Y42.761
X16.186 Y41.803
X16.228 Y40.846
X16.304 Y39.892
X16.416 Y38.94
X16.561 Y37.994
X16.741 Y37.053
X16.954 Y36.12
X17.201 Y35.194
X17.481 Y34.278
X17.795 Y33.373
X18.14 Y32.48
X18.519 Y31.601
X18.931 Y30.736
X19.374 Y29.887
X19.847 Y29.054
X20.35 Y28.24
X20.883 Y27.443
X21.444 Y26.667
X22.032 Y25.911
X22.647 Y25.177
X23.288 Y24.466
X23.955 Y23.778
X24.646 Y23.116
X25.362 Y22.48
X26.101 Y21.871
X26.862 Y21.289
X27.643 Y20.735
X28.444 Y20.21
X29.263 Y19.713
X30.1 Y19.247
X30.952 Y18.811
X31.82 Y18.406
X32.702 Y18.033
X33.597 Y17.692
X34.504 Y17.385
X35.422 Y17.111
X36.349 Y16.871
X37.285 Y16.666
X38.227 Y16.494
X39.174 Y16.356
X40.126 Y16.252
X41.082 Y16.182
X42.039 Y16.146
X42.996 Y16.145
X43.953 Y16.179
X44.909 Y16.248
X45.861 Y16.352
X46.808 Y16.491
X47.75 Y16.664
X48.685 Y16.871
X49.612 Y17.111
X50.53 Y17.384
X51.438 Y17.69
X52.334 Y18.027
X53.218 Y18.396
X54.088 Y18.796
X54.944 Y19.227
X55.783 Y19.688
X56.605 Y20.179
X57.409 Y20.7
X58.193 Y21.249
X58.958 Y21.825
X59.703 Y22.428
X60.426 Y23.056
X61.127 Y23.708
X61.804 Y24.385
X62.458 Y25.085
X63.087 Y25.807
X63.691 Y26.55
X64.268 Y27.315
X64.816 Y28.1
X65.337 Y28.903
X65.83 Y29.725
X66.293 Y30.563
X66.728 Y31.416
X67.132 Y32.284
X67.507 Y33.166
X67.851 Y34.06
X68.163 Y34.965
X68.444 Y35.88
X68.693 Y36.805
X68.909 Y37.738
X69.091 Y38.679
X69.24 Y39.625
X69.356 Y40.575
X69.439 Y41.529
X69.488 Y42.486
X69.504 Y43.443
X69.487 Y44.401
X69.437 Y45.357
X69.354 Y46.311
X69.237 Y47.262
X69.087 Y48.208
X68.903 Y49.148
X68.686 Y50.08
X68.435 Y51.005
X68.152 Y51.92
X67.837 Y52.824
X67.491 Y53.717
X67.114 Y54.598
X66.707 Y55.464
X66.27 Y56.317
X65.804 Y57.153
X65.308 Y57.973
X64.784 Y58.774
X64.232 Y59.556
X63.652 Y60.318
X63.045 Y61.059
X62.412 Y61.778
X61.755 Y62.475
X61.074 Y63.148
X60.37 Y63.798
X59.644 Y64.422
X58.897 Y65.022
X58.13 Y65.595
X57.343 Y66.141
X56.537 Y66.659
X55.714 Y67.148
X54.874 Y67.607
X54.017 Y68.036
X53.147 Y68.435
X52.263 Y68.804
X51.367 Y69.142
X50.46 Y69.45
X49.543 Y69.726
X48.617 Y69.97
X47.683 Y70.183
X46.743 Y70.363
X45.796 Y70.511
X44.846 Y70.625
X43.891 Y70.705
X42.935 Y70.752
X41.977 Y70.766
X41.02 Y70.747
X40.063 Y70.695
X39.109 Y70.611
X38.159 Y70.494
X37.213 Y70.346
X36.272 Y70.165
X35.338 Y69.953
X34.412 Y69.709
X33.495 Y69.432
X32.589 Y69.123
X31.693 Y68.783
X30.81 Y68.413
X29.94 Y68.013
X29.084 Y67.584
X28.243 Y67.126
X27.417 Y66.64
X26.609 Y66.127
X25.818 Y65.587
X25.046 Y65.02
X24.293 Y64.428
X23.561 Y63.81
X22.852 Y63.167
X22.165 Y62.5
X21.501 Y61.81
X20.86 Y61.098
X20.244 Y60.365
X19.653 Y59.611
X19.087 Y58.839
X18.548 Y58.047
X18.035 Y57.239
X17.549 Y56.413
X17.092 Y55.572
X16.663 Y54.715
X16.264 Y53.845
X15.896 Y52.961
X15.558 Y52.065
X15.25 Y51.158
X14.973 Y50.241
X14.727 Y49.315
X14.511 Y48.382
X14.327 Y47.442
X14.174 Y46.497
X14.053 Y45.547
X13.963 Y44.594
X13.906 Y43.638
X13.881 Y42.68
X13.89 Y41.722
X13.931 Y40.766
X14.004 Y39.811
X14.109 Y38.859
X14.246 Y37.911
X14.414 Y36.968
X14.614 Y36.031
X14.844 Y35.102
X15.104 Y34.18
X15.396 Y33.268
X15.717 Y32.366
X16.069 Y31.475
X16.451 Y30.597
X16.863 Y29.733
X17.304 Y28.882
X17.774 Y28.048
X18.27 Y27.229
X18.794 Y26.427
X19.344 Y25.643
X19.92 Y24.878
X20.52 Y24.131
X21.145 Y23.406
X21.794 Y22.701
X22.466 Y22.019
X23.161 Y21.36
X23.878 Y20.725
X24.616 Y20.115
X25.375 Y19.531
X26.153 Y18.972
X26.948 Y18.439
X27.761 Y17.932
X28.59 Y17.453
X29.435 Y17.002
X30.294 Y16.578
X31.166 Y16.184
X32.052 Y15.818
X32.949 Y15.483
X33.857 Y15.179
X34.775 Y14.906
X35.702 Y14.664
X36.636 Y14.453
X37.576 Y14.273
X38.523 Y14.125
X39.473 Y14.007
X40.427 Y13.922
X41.383 Y13.867
X42.34 Y13.844
X43.298 Y13.853
X44.255 Y13.894
X45.21 Y13.967
X46.162 Y14.073
X47.109 Y14.211
X48.052 Y14.38
X48.988 Y14.581
X49.918 Y14.812
X50.839 Y15.074
X51.751 Y15.365
X52.654 Y15.686
X53.545 Y16.037
X54.424 Y16.416
X55.291 Y16.823
X56.144 Y17.259
X56.981 Y17.724
X57.803 Y18.216
X58.608 Y18.735
X59.395 Y19.28
X60.165 Y19.85
X60.915 Y20.445
X61.646 Y21.063
X62.357 Y21.705
X63.047 Y22.369
X63.716 Y23.055
X64.362 Y23.761
X64.986 Y24.489
X65.585 Y25.236
X66.159 Y26.002
X66.707 Y26.787
X67.23 Y27.59
X67.727 Y28.409
X68.197 Y29.243
X68.64 Y30.092
X69.056 Y30.955
X69.444 Y31.83
X69.804 Y32.718
X70.136 Y33.616
X70.439 Y34.524
X70.713 Y35.442
X70.957 Y36.368
X71.17 Y37.302
X71.352 Y38.242
X71.503 Y39.188
X71.623 Y40.138
X71.714 Y41.091
X71.773 Y42.047
X71.802 Y43.005
X71.8 Y43.962
X71.768 Y44.919
X71.706 Y45.875
X71.612 Y46.828
X71.488 Y47.778
X71.333 Y48.723
X71.146 Y49.662
X70.929 Y50.595
X70.681 Y51.52
X70.403 Y52.436
X70.096 Y53.344
X69.76 Y54.24
X69.395 Y55.126
X69.002 Y55.999
X68.582 Y56.86
X68.134 Y57.706
X67.659 Y58.538
X67.158 Y59.354
X66.63 Y60.153
X66.076 Y60.934
X65.496 Y61.696
X64.891 Y62.439
X64.263 Y63.162
X63.612 Y63.864
X62.939 Y64.545
X62.244 Y65.205
X61.529 Y65.842
X60.794 Y66.455
X60.04 Y67.046
X59.267 Y67.611
X58.476 Y68.152
